; generated by PrusaSlicer 2.6.1+MacOS-arm64 on 2024-01-19 at 10:41:40 UTC

; 

; external perimeters extrusion width = 0.45mm
; perimeters extrusion width = 0.45mm
; infill extrusion width = 0.45mm
; solid infill extrusion width = 0.45mm
; top infill extrusion width = 0.40mm
; first layer extrusion width = 0.42mm

M190 S60 ; set bed temperature and wait for it to be reached
M104 S205 ; set temperature
;TYPE:Custom
G28
G29
M109 S205 ; set temperature and wait for it to be reached
G21 ; set units to millimeters
G90 ; use absolute coordinates
M82 ; use absolute distances for extrusion
G92 E0 ; reset extrusion distance
; Filament gcode
M107 ; disable fan
;LAYER_CHANGE
;Z:0.23
;HEIGHT:0.23
G1 Z.23 F1800 ; move to next layer (0)
G1 E-2 F2400 ; retract
G92 E0 ; reset extrusion distance
G1 X68.162 Y84.6 F1800 ; move to first skirt point
G1 E2 F2400 ;  ; unretract
;TYPE:Skirt/Brim
;WIDTH:0.42
G1 F900
G1 X69.132 Y83.957 E2.03918 ; skirt
G1 X70.116 Y83.487 E2.0759 ; skirt
G1 X71.211 Y83.14 E2.11458 ; skirt
G1 X72.312 Y82.953 E2.15218 ; skirt
G1 X96.048 Y81.5 E2.95286 ; skirt
G1 X97.602 Y81.464 E3.0052 ; skirt
G1 X100.349 Y81.678 E3.09797 ; skirt
G1 X103.17 Y82.282 E3.19511 ; skirt
G1 X105.601 Y83.138 E3.28189 ; skirt
G1 X108.098 Y84.392 E3.37597 ; skirt
G1 X110.425 Y85.974 E3.47071 ; skirt
G1 X112.483 Y87.81 E3.56357 ; skirt
G1 X114.374 Y90.012 E3.6613 ; skirt
G1 X115.866 Y92.315 E3.75369 ; skirt
G1 X116.48 Y93.83 E3.80873 ; skirt
G1 X116.664 Y94.632 E3.83643 ; skirt
G1 X116.77 Y95.591 E3.86892 ; skirt
G1 X116.679 Y97.165 E3.922 ; skirt
G1 X116.208 Y98.84 E3.98058 ; skirt
G1 X115.256 Y100.595 E4.0478 ; skirt
G1 X113.849 Y102.547 E4.12882 ; skirt
G1 X112.292 Y104.265 E4.20689 ; skirt
G1 X110.54 Y105.821 E4.28579 ; skirt
G1 X109.161 Y106.826 E4.34324 ; skirt
G1 X107.569 Y107.793 E4.40596 ; skirt
G1 X106.048 Y108.552 E4.46319 ; skirt
G1 X104.404 Y109.21 E4.52281 ; skirt
G1 X102.611 Y109.755 E4.58591 ; skirt
G1 X101 Y110.102 E4.6414 ; skirt
G1 X99.274 Y110.333 E4.70003 ; skirt
G1 X97.417 Y110.423 E4.76263 ; skirt
G1 X71.959 Y108.888 E5.62135 ; skirt
G1 X70.478 Y108.531 E5.67264 ; skirt
G1 X69.145 Y107.935 E5.7218 ; skirt
G1 X67.775 Y106.966 E5.7783 ; skirt
G1 X66.79 Y105.931 E5.82641 ; skirt
G1 X66.273 Y105.2 E5.85656 ; skirt
G1 X65.692 Y104.092 E5.89868 ; skirt
G1 X65.34 Y103.101 E5.93409 ; skirt
G1 X65.069 Y101.7 E5.98214 ; skirt
G1 X65.042 Y90.483 E6.35981 ; skirt
G1 X65.34 Y88.783 E6.41792 ; skirt
G1 X65.975 Y87.2 E6.47535 ; skirt
G1 X66.912 Y85.804 E6.53196 ; skirt
G1 X68.119 Y84.641 E6.58839 ; skirt
G1 E4.58839 F2400 ; retract
G92 E0 ; reset extrusion distance
G1 X99.214 Y96.399 F1800 ; move to first perimeter point
G1 E2 F2400 ;  ; unretract
;TYPE:Perimeter
;WIDTH:0.467934
G1 F900
G1 X99.356 Y96.158 E2.01064 ; perimeter
G1 X99.707 Y97.035 E2.04656 ; perimeter
;WIDTH:0.421061
G1 X99.906 Y97.501 E2.06367 ; perimeter
;WIDTH:0.374187
G1 X99.953 Y97.618 E2.06739 ; perimeter
;WIDTH:0.368954
G1 X100.155 Y98.153 E2.08399 ; perimeter
;WIDTH:0.405654
G1 X100.241 Y98.395 E2.0923 ; perimeter
;WIDTH:0.442353
G1 X100.327 Y98.636 E2.10144 ; perimeter
G1 X100.226 Y98.957 E2.11345 ; perimeter
;WIDTH:0.408847
G1 X100.005 Y99.497 E2.1325 ; perimeter
;WIDTH:0.39612
G1 X99.855 Y99.657 E2.13941 ; perimeter
;WIDTH:0.428132
G1 X99.69 Y99.691 E2.14521 ; perimeter
;WIDTH:0.462985
G1 X99.524 Y99.725 E2.15158 ; perimeter
;WIDTH:0.497838
G1 X99.358 Y99.759 E2.15848 ; perimeter
G1 X99.452 Y99.646 E2.16447 ; perimeter
;WIDTH:0.462985
G1 X99.547 Y99.533 E2.17002 ; perimeter
;WIDTH:0.428132
G1 X99.641 Y99.421 E2.17505 ; perimeter
;WIDTH:0.393279
G1 X99.783 Y99.159 E2.18436 ; perimeter
;WIDTH:0.415826
G1 X99.854 Y98.9 E2.1933 ; perimeter
;WIDTH:0.442353
G1 X99.925 Y98.642 E2.20285 ; perimeter
G1 X99.877 Y98.4 E2.21166 ; perimeter
;WIDTH:0.400564
G1 X99.829 Y98.157 E2.21956 ; perimeter
;WIDTH:0.374187
G1 X99.614 Y97.641 E2.23605 ; perimeter
;WIDTH:0.421061
G1 X99.374 Y97.196 E2.25312 ; perimeter
;WIDTH:0.467934
G1 X99.071 Y96.643 E2.2771 ; perimeter
G1 X99.183 Y96.451 E2.28555 ; perimeter
G1 E.28555 F2400 ; retract
G92 E0 ; reset extrusion distance
G1 X104.577 Y96.372 F1800 ; move to first perimeter point
G1 E2 F2400 ;  ; unretract
;WIDTH:0.444223
G1 F900
G1 X104.153 Y96.964 E2.02612 ; perimeter
;WIDTH:0.483468
G1 X103.981 Y97.169 E2.03667 ; perimeter
;WIDTH:0.522712
G1 X103.81 Y97.374 E2.04815 ; perimeter
G1 X103.885 Y97.105 E2.06016 ; perimeter
;WIDTH:0.483468
G1 X103.96 Y96.836 E2.07117 ; perimeter
;WIDTH:0.444223
G1 X104.207 Y96.123 E2.09824 ; perimeter
G1 X104.63 Y96.299 E2.11467 ; perimeter
G1 X104.612 Y96.324 E2.11578 ; perimeter
G1 E.11578 F2400 ; retract
G92 E0 ; reset extrusion distance
G1 X106.328 Y93.473 F1800 ; move to first perimeter point
G1 E2 F2400 ;  ; unretract
;WIDTH:0.419999
G1 F900
G1 X105.306 Y93.471 E2.03441 ; perimeter
G1 X104.754 Y93.515 E2.05305 ; perimeter
G1 X104.48 Y93.586 E2.06258 ; perimeter
G1 X104.03 Y93.855 E2.08023 ; perimeter
G1 X103.755 Y93.633 E2.09213 ; perimeter
G1 X103.46 Y93.533 E2.10262 ; perimeter
G1 X102.95 Y93.491 E2.11985 ; perimeter
G1 X102.66 Y93.58 E2.13006 ; perimeter
G1 X102.175 Y93.931 E2.15022 ; perimeter
G1 X101.831 Y94.472 E2.17181 ; perimeter
G1 X101.646 Y94.14 E2.18461 ; perimeter
G1 X101.381 Y93.827 E2.19842 ; perimeter
G1 X100.926 Y93.584 E2.21579 ; perimeter
G1 X100.597 Y93.493 E2.22728 ; perimeter
G1 X100.106 Y93.503 E2.24382 ; perimeter
G1 X99.681 Y93.648 E2.25894 ; perimeter
G1 X99.424 Y93.868 E2.27033 ; perimeter
G1 X98.957 Y93.559 E2.28918 ; perimeter
G1 X98.513 Y93.48 E2.30436 ; perimeter
G1 X98.166 Y93.517 E2.31611 ; perimeter
G1 X97.727 Y93.72 E2.33239 ; perimeter
G1 X97.452 Y93.977 E2.34506 ; perimeter
G1 X97.194 Y93.726 E2.35718 ; perimeter
G1 X96.915 Y93.58 E2.36778 ; perimeter
G1 X96.587 Y93.487 E2.37926 ; perimeter
G1 X96.163 Y93.497 E2.39354 ; perimeter
G1 X95.661 Y93.675 E2.41147 ; perimeter
G1 X95.295 Y93.98 E2.42751 ; perimeter
G1 X95.136 Y94.23 E2.43749 ; perimeter
G1 X94.995 Y94.67 E2.45305 ; perimeter
G1 X95.013 Y95.105 E2.46771 ; perimeter
G1 X95.137 Y95.478 E2.48094 ; perimeter
G1 X95.424 Y96.062 E2.50285 ; perimeter
G1 X95.789 Y96.699 E2.52757 ; perimeter
G1 X95.543 Y97.089 E2.5431 ; perimeter
G1 X95.451 Y96.972 E2.54811 ; perimeter
G1 X95.209 Y96.755 E2.55905 ; perimeter
G1 X94.725 Y96.48 E2.57779 ; perimeter
G1 X94.19 Y96.371 E2.59617 ; perimeter
G1 X93.831 Y96.377 E2.60826 ; perimeter
G1 X93.811 Y95.289 E2.6449 ; perimeter
G1 X93.72 Y94.71 E2.66463 ; perimeter
G1 X93.606 Y94.338 E2.67773 ; perimeter
G1 X93.399 Y93.794 E2.69733 ; perimeter
G1 X93.07 Y93.262 E2.71839 ; perimeter
G1 X92.697 Y92.851 E2.73708 ; perimeter
G1 X92.213 Y92.493 E2.75735 ; perimeter
G1 X91.698 Y92.262 E2.77635 ; perimeter
G1 X91.143 Y92.125 E2.7956 ; perimeter
G1 X90.613 Y92.061 E2.81357 ; perimeter
G1 X89.027 Y92.025 E2.86698 ; perimeter
G1 X88.411 Y92.114 E2.88794 ; perimeter
G1 X87.949 Y92.337 E2.90521 ; perimeter
G1 X87.66 Y92.624 E2.91892 ; perimeter
G1 X87.456 Y93.1 E2.93636 ; perimeter
G1 X87.102 Y92.622 E2.95639 ; perimeter
G1 X86.856 Y92.397 E2.96761 ; perimeter
G1 X86.234 Y92.056 E2.99149 ; perimeter
G1 X85.557 Y91.896 E3.01491 ; perimeter
G1 X84.777 Y91.872 E3.04118 ; perimeter
G1 X83.995 Y92.011 E3.06792 ; perimeter
G1 X83.355 Y92.29 E3.09143 ; perimeter
G1 X83.062 Y92.531 E3.1042 ; perimeter
G1 X82.805 Y92.27 E3.11653 ; perimeter
G1 X82.558 Y92.15 E3.12578 ; perimeter
G1 X82.045 Y92.036 E3.14347 ; perimeter
G1 X78.779 Y92.047 E3.25344 ; perimeter
G1 X78.203 Y92.007 E3.27288 ; perimeter
G1 X77.924 Y92.03 E3.28231 ; perimeter
G1 X77.422 Y92.195 E3.3001 ; perimeter
G1 X77.105 Y92.463 E3.31408 ; perimeter
G1 X76.979 Y92.632 E3.32118 ; perimeter
G1 X76.838 Y92.511 E3.32744 ; perimeter
G1 X76.148 Y92.094 E3.35459 ; perimeter
G1 X75.658 Y91.948 E3.3718 ; perimeter
G1 X74.793 Y91.867 E3.40105 ; perimeter
G1 X74.068 Y91.95 E3.42562 ; perimeter
G1 X73.378 Y92.182 E3.45013 ; perimeter
G1 X72.714 Y92.596 E3.47648 ; perimeter
G1 X72.345 Y92.952 E3.49374 ; perimeter
G1 X72.345 Y91.183 E3.5533 ; perimeter
G1 X72.402 Y90.806 E3.56614 ; perimeter
G1 X72.527 Y90.518 E3.57671 ; perimeter
G1 X72.737 Y90.333 E3.58613 ; perimeter
G1 X73.143 Y90.23 E3.60023 ; perimeter
G1 X96.476 Y88.809 E4.3873 ; perimeter
G1 X97.334 Y88.785 E4.4162 ; perimeter
G1 X98.346 Y88.821 E4.4503 ; perimeter
G1 X99.11 Y88.898 E4.47615 ; perimeter
G1 X99.884 Y89.021 E4.50254 ; perimeter
G1 X100.923 Y89.257 E4.53841 ; perimeter
G1 X101.676 Y89.481 E4.56486 ; perimeter
G1 X102.683 Y89.854 E4.60102 ; perimeter
G1 X103.488 Y90.22 E4.63079 ; perimeter
G1 X104.355 Y90.685 E4.66392 ; perimeter
G1 X105.035 Y91.108 E4.69088 ; perimeter
G1 X105.905 Y91.734 E4.72697 ; perimeter
G1 X106.66 Y92.368 E4.76016 ; perimeter
G1 X107.296 Y92.978 E4.78983 ; perimeter
G1 X107.869 Y93.601 E4.81833 ; perimeter
G1 X107.733 Y93.556 E4.82315 ; perimeter
G1 X107.299 Y93.476 E4.83801 ; perimeter
G1 X106.388 Y93.474 E4.86868 ; perimeter
G1 E2.86868 F2400 ; retract
G92 E0 ; reset extrusion distance
G1 X107.57 Y97.139 F1800 ; move to first perimeter point
G1 E2 F2400 ;  ; unretract
G1 F900
G1 X108.192 Y96.259 E2.03628 ; perimeter
G1 X108.511 Y95.706 E2.05778 ; perimeter
G1 X108.619 Y95.413 E2.06829 ; perimeter
G1 X108.677 Y94.961 E2.08363 ; perimeter
G1 X108.615 Y94.551 E2.09759 ; perimeter
G1 X108.969 Y95.052 E2.11824 ; perimeter
G1 X109.393 Y95.75 E2.14574 ; perimeter
G1 X109.446 Y95.968 E2.15329 ; perimeter
G1 X109.419 Y96.074 E2.15697 ; perimeter
G1 X109.156 Y96.542 E2.17505 ; perimeter
G1 X108.752 Y97.153 E2.19971 ; perimeter
G1 X108.414 Y97.611 E2.21888 ; perimeter
G1 X108.092 Y97.325 E2.23338 ; perimeter
G1 X107.627 Y97.159 E2.25 ; perimeter
G1 E.25 F2400 ; retract
G92 E0 ; reset extrusion distance
G1 X76.742 Y95.138 F1800 ; move to first perimeter point
G1 E2 F2400 ;  ; unretract
G1 F900
G1 X76.937 Y95.033 E2.00746 ; perimeter
G1 X77.297 Y94.669 E2.0247 ; perimeter
G1 X77.623 Y94.853 E2.0373 ; perimeter
G1 X77.933 Y94.922 E2.04799 ; perimeter
G1 X78.612 Y94.888 E2.07088 ; perimeter
G1 X78.616 Y97.481 E2.15819 ; perimeter
G1 X78.591 Y98.647 E2.19746 ; perimeter
G1 X78.71 Y99.027 E2.21087 ; perimeter
G1 X78.87 Y99.307 E2.22173 ; perimeter
G1 X79.185 Y99.572 E2.23559 ; perimeter
G1 X79.528 Y99.727 E2.24826 ; perimeter
G1 X79.77 Y99.781 E2.25661 ; perimeter
G1 X80.096 Y99.796 E2.2676 ; perimeter
G1 X80.641 Y99.66 E2.28651 ; perimeter
G1 X80.972 Y99.441 E2.29987 ; perimeter
G1 X81.271 Y99.05 E2.31644 ; perimeter
G1 X81.428 Y98.546 E2.33421 ; perimeter
G1 X81.464 Y98.286 E2.34305 ; perimeter
G1 X81.449 Y94.894 E2.45726 ; perimeter
G1 X81.91 Y94.884 E2.47279 ; perimeter
G1 X82.542 Y94.754 E2.49451 ; perimeter
G1 X82.85 Y94.565 E2.50668 ; perimeter
G1 X83.058 Y94.757 E2.51621 ; perimeter
G1 X83.371 Y94.974 E2.52903 ; perimeter
G1 X83.293 Y95.147 E2.53542 ; perimeter
G1 X83.221 Y95.606 E2.55106 ; perimeter
G1 X83.222 Y95.942 E2.56237 ; perimeter
G1 X83.375 Y96.367 E2.57758 ; perimeter
G1 X83.663 Y96.694 E2.59225 ; perimeter
G1 X83.357 Y96.802 E2.60318 ; perimeter
G1 X82.992 Y97.031 E2.61769 ; perimeter
G1 X82.68 Y97.442 E2.63506 ; perimeter
G1 X82.552 Y97.822 E2.64856 ; perimeter
G1 X82.53 Y98.279 E2.66396 ; perimeter
G1 X82.676 Y98.791 E2.68189 ; perimeter
G1 X82.95 Y99.216 E2.69892 ; perimeter
G1 X83.383 Y99.559 E2.71752 ; perimeter
G1 X83.684 Y99.713 E2.7289 ; perimeter
G1 X84.455 Y99.915 E2.75574 ; perimeter
G1 X85.073 Y99.947 E2.77658 ; perimeter
G1 X85.574 Y99.908 E2.7935 ; perimeter
G1 X86.096 Y99.777 E2.81162 ; perimeter
G1 X86.71 Y99.473 E2.83469 ; perimeter
G1 X87.099 Y99.149 E2.85174 ; perimeter
G1 X87.484 Y98.667 E2.87251 ; perimeter
G1 X87.597 Y99.029 E2.88528 ; perimeter
G1 X87.708 Y99.207 E2.89234 ; perimeter
G1 X88.013 Y99.548 E2.90774 ; perimeter
G1 X88.443 Y99.75 E2.92374 ; perimeter
G1 X88.8 Y99.809 E2.93592 ; perimeter
G1 X89.408 Y99.771 E2.95643 ; perimeter
G1 X90.164 Y99.776 E2.98188 ; perimeter
G1 X90.77 Y99.739 E3.00232 ; perimeter
G1 X91.282 Y99.657 E3.01978 ; perimeter
G1 X91.886 Y99.464 E3.04113 ; perimeter
G1 X92.319 Y99.205 E3.05812 ; perimeter
G1 X92.357 Y99.283 E3.06104 ; perimeter
G1 X92.659 Y99.687 E3.07802 ; perimeter
G1 X93.218 Y100.064 E3.10072 ; perimeter
G1 X93.562 Y100.191 E3.11307 ; perimeter
G1 X94.005 Y100.256 E3.12815 ; perimeter
G1 X94.597 Y100.169 E3.1483 ; perimeter
G1 X94.937 Y100.026 E3.16072 ; perimeter
G1 X95.437 Y99.666 E3.18146 ; perimeter
G1 X95.875 Y99.903 E3.19823 ; perimeter
G1 X96.278 Y99.97 E3.21199 ; perimeter
G1 X96.614 Y99.941 E3.22335 ; perimeter
G1 X97.05 Y99.741 E3.2395 ; perimeter
G1 X97.366 Y99.417 E3.25474 ; perimeter
G1 X97.464 Y99.545 E3.26017 ; perimeter
G1 X97.787 Y99.806 E3.27415 ; perimeter
G1 X98.151 Y99.949 E3.28732 ; perimeter
G1 X98.575 Y99.977 E3.30163 ; perimeter
;WIDTH:0.453435
G1 X98.874 Y99.923 E3.31278 ; perimeter
;WIDTH:0.48687
G1 X99.173 Y99.87 E3.32485 ; perimeter
G1 X98.98 Y100.086 E3.33636 ; perimeter
;WIDTH:0.453435
G1 X98.787 Y100.303 E3.34702 ; perimeter
;WIDTH:0.419999
G1 X98.639 Y100.701 E3.36132 ; perimeter
G1 X98.615 Y101.148 E3.37639 ; perimeter
G1 X98.781 Y101.682 E3.39522 ; perimeter
G1 X99.06 Y102.07 E3.41131 ; perimeter
G1 X99.302 Y102.269 E3.42186 ; perimeter
G1 X99.708 Y102.462 E3.437 ; perimeter
G1 X99.83 Y102.477 E3.44114 ; perimeter
;WIDTH:0.417317
G1 X100.136 Y102.466 E3.45137 ; perimeter
;WIDTH:0.388643
G1 X100.442 Y102.455 E3.46081 ; perimeter
;WIDTH:0.361855
G1 X100.968 Y102.313 E3.47628 ; perimeter
;WIDTH:0.404047
G1 X101.376 Y102.153 E3.4904 ; perimeter
;WIDTH:0.419999
G1 X101.798 Y101.851 E3.50787 ; perimeter
G1 X102.238 Y101.281 E3.53211 ; perimeter
G1 X102.394 Y100.975 E3.54367 ; perimeter
G1 X102.74 Y100.158 E3.57354 ; perimeter
G1 X103.21 Y98.898 E3.61882 ; perimeter
;WIDTH:0.456756
G1 X103.355 Y98.548 E3.63284 ; perimeter
;WIDTH:0.493512
G1 X103.499 Y98.198 E3.64811 ; perimeter
G1 X103.5 Y98.351 E3.65428 ; perimeter
;WIDTH:0.464734
G1 X103.582 Y98.893 E3.67496 ; perimeter
;WIDTH:0.419999
G1 X103.803 Y99.415 E3.69405 ; perimeter
G1 X104.096 Y99.701 E3.70784 ; perimeter
G1 X104.51 Y99.93 E3.72377 ; perimeter
G1 X104.831 Y99.981 E3.73471 ; perimeter
G1 X106.132 Y99.969 E3.77852 ; perimeter
G1 X105.606 Y100.377 E3.80093 ; perimeter
G1 X105.119 Y100.72 E3.82099 ; perimeter
G1 X104.629 Y101.035 E3.8406 ; perimeter
G1 X104.094 Y101.345 E3.86142 ; perimeter
G1 X103.65 Y101.575 E3.87826 ; perimeter
G1 X102.802 Y101.972 E3.90979 ; perimeter
G1 X101.552 Y102.448 E3.95483 ; perimeter
;WIDTH:0.411382
G1 X101.052 Y102.614 E3.97216 ; perimeter
;WIDTH:0.379376
G1 X100.224 Y102.808 E3.99766 ; perimeter
;WIDTH:0.419999
G1 X98.878 Y103.013 E4.0435 ; perimeter
G1 X98.017 Y103.083 E4.07259 ; perimeter
G1 X97.102 Y103.098 E4.1034 ; perimeter
G1 X96.462 Y103.074 E4.12496 ; perimeter
G1 X73.243 Y101.66 E4.90818 ; perimeter
G1 X72.812 Y101.575 E4.92297 ; perimeter
G1 X72.552 Y101.401 E4.9335 ; perimeter
G1 X72.431 Y101.189 E4.94172 ; perimeter
G1 X72.342 Y100.765 E4.95631 ; perimeter
G1 X72.343 Y98.865 E5.02028 ; perimeter
G1 X72.982 Y99.41 E5.04856 ; perimeter
G1 X73.8 Y99.795 E5.079 ; perimeter
G1 X74.502 Y99.928 E5.10306 ; perimeter
G1 X75.272 Y99.925 E5.12899 ; perimeter
G1 X75.511 Y99.893 E5.13711 ; perimeter
G1 X76.109 Y99.731 E5.15797 ; perimeter
G1 X76.362 Y99.62 E5.16727 ; perimeter
G1 X76.746 Y99.377 E5.18257 ; perimeter
G1 X77.101 Y99.047 E5.19889 ; perimeter
G1 X77.398 Y98.602 E5.2169 ; perimeter
G1 X77.53 Y98.265 E5.22909 ; perimeter
G1 X77.589 Y97.866 E5.24267 ; perimeter
G1 X77.491 Y97.46 E5.25673 ; perimeter
G1 X77.275 Y97.093 E5.27107 ; perimeter
G1 X76.969 Y96.807 E5.28517 ; perimeter
G1 X76.566 Y96.613 E5.30023 ; perimeter
G1 X76.214 Y96.551 E5.31226 ; perimeter
G1 X75.691 Y96.578 E5.32989 ; perimeter
G1 X75.286 Y96.763 E5.34488 ; perimeter
G1 X74.978 Y97.026 E5.35852 ; perimeter
G1 X74.734 Y97.029 E5.36674 ; perimeter
G1 X74.542 Y96.954 E5.37368 ; perimeter
G1 X74.405 Y96.758 E5.38173 ; perimeter
G1 X74.303 Y96.265 E5.39868 ; perimeter
G1 X74.307 Y95.51 E5.4241 ; perimeter
G1 X74.444 Y94.973 E5.44276 ; perimeter
G1 X74.664 Y94.791 E5.45237 ; perimeter
G1 X74.835 Y94.783 E5.45813 ; perimeter
G1 X75.4 Y95.103 E5.47999 ; perimeter
