; generated by PrusaSlicer 2.6.1+MacOS-arm64 on 2023-12-15 at 14:17:55 UTC

; 

; external perimeters extrusion width = 0.45mm
; perimeters extrusion width = 0.45mm
; infill extrusion width = 0.45mm
; solid infill extrusion width = 0.45mm
; top infill extrusion width = 0.40mm
; first layer extrusion width = 0.42mm

M190 S60 ; set bed temperature and wait for it to be reached
M104 S210 ; set temperature
;TYPE:Custom
G28
; G29
M109 S210 ; set temperature and wait for it to be reached
G21 ; set units to millimeters
G90 ; use absolute coordinates
M82 ; use absolute distances for extrusion
G92 E0 ; reset extrusion distance
; Filament gcode
M107 ; disable fan
;LAYER_CHANGE
;Z:0.22
;HEIGHT:0.22
G1 Z.22 F1800 ; move to next layer (0)
G1 E-2 F2400 ; retract
G92 E0 ; reset extrusion distance
G1 X70.79 Y38.981 F1800 ; move to first skirt point
G1 E2 F2400 ;  ; unretract
;TYPE:Skirt/Brim
;WIDTH:0.42
G1 F900
G1 X71.727 Y37.584 E2.05736 ; skirt
G1 X72.972 Y36.385 E2.1163 ; skirt
G1 X73.946 Y35.739 E2.15615 ; skirt
G1 X74.926 Y35.271 E2.19318 ; skirt
G1 X76.025 Y34.923 E2.23249 ; skirt
G1 X77.123 Y34.735 E2.27047 ; skirt
G1 X100.861 Y33.283 E3.08138 ; skirt
G1 X102.415 Y33.247 E3.13438 ; skirt
G1 X105.162 Y33.461 E3.22833 ; skirt
G1 X107.982 Y34.065 E3.32666 ; skirt
G1 X110.412 Y34.921 E3.41451 ; skirt
G1 X112.909 Y36.175 E3.50978 ; skirt
G1 X115.236 Y37.757 E3.60572 ; skirt
G1 X117.293 Y39.592 E3.69971 ; skirt
G1 X119.182 Y41.793 E3.79861 ; skirt
G1 X120.674 Y44.096 E3.89217 ; skirt
G1 X121.288 Y45.612 E3.94794 ; skirt
G1 X121.472 Y46.412 E3.97593 ; skirt
G1 X121.578 Y47.373 E4.0089 ; skirt
G1 X121.487 Y48.945 E4.06259 ; skirt
G1 X121.017 Y50.621 E4.12194 ; skirt
G1 X120.065 Y52.376 E4.19002 ; skirt
G1 X118.658 Y54.328 E4.27207 ; skirt
G1 X117.102 Y56.046 E4.3511 ; skirt
G1 X115.35 Y57.601 E4.43097 ; skirt
G1 X113.972 Y58.606 E4.48912 ; skirt
G1 X112.381 Y59.572 E4.55259 ; skirt
G1 X110.86 Y60.331 E4.61055 ; skirt
G1 X109.216 Y60.99 E4.67094 ; skirt
G1 X107.423 Y61.535 E4.73484 ; skirt
G1 X105.812 Y61.883 E4.79104 ; skirt
G1 X104.086 Y62.114 E4.85042 ; skirt
G1 X102.23 Y62.203 E4.91378 ; skirt
G1 X76.774 Y60.669 E5.78333 ; skirt
G1 X75.292 Y60.312 E5.83531 ; skirt
G1 X73.96 Y59.716 E5.88507 ; skirt
G1 X72.587 Y58.746 E5.94239 ; skirt
G1 X71.603 Y57.711 E5.99108 ; skirt
G1 X71.087 Y56.983 E6.02151 ; skirt
G1 X70.504 Y55.872 E6.06429 ; skirt
G1 X70.153 Y54.881 E6.10014 ; skirt
G1 X69.882 Y53.49 E6.14846 ; skirt
G1 X69.854 Y42.268 E6.5311 ; skirt
G1 X70.153 Y40.567 E6.58999 ; skirt
G1 X70.767 Y39.036 E6.64623 ; skirt
G1 E4.64623 F2400 ; retract
G92 E0 ; reset extrusion distance
G1 X104.024 Y48.186 F1800 ; move to first perimeter point
G1 E2 F2400 ;  ; unretract
;TYPE:Perimeter
;WIDTH:0.462566
G1 F900
G1 X104.168 Y47.943 E2.01073 ; perimeter
G1 X104.518 Y48.817 E2.0465 ; perimeter
;WIDTH:0.415697
G1 X104.716 Y49.283 E2.06356 ; perimeter
;WIDTH:0.368827
G1 X104.764 Y49.401 E2.06731 ; perimeter
;WIDTH:0.363604
G1 X104.966 Y49.936 E2.08386 ; perimeter
;WIDTH:0.400298
G1 X105.052 Y50.177 E2.09212 ; perimeter
;WIDTH:0.436992
G1 X105.137 Y50.418 E2.10123 ; perimeter
G1 X105.036 Y50.738 E2.11319 ; perimeter
;WIDTH:0.403508
G1 X104.816 Y51.278 E2.13219 ; perimeter
;WIDTH:0.390756
G1 X104.667 Y51.437 E2.13904 ; perimeter
;WIDTH:0.421718
G1 X104.501 Y51.471 E2.14484 ; perimeter
;WIDTH:0.455519
G1 X104.336 Y51.506 E2.15114 ; perimeter
;WIDTH:0.48932
G1 X104.17 Y51.54 E2.15799 ; perimeter
G1 X104.265 Y51.428 E2.16393 ; perimeter
;WIDTH:0.455519
G1 X104.36 Y51.316 E2.16941 ; perimeter
;WIDTH:0.421718
G1 X104.454 Y51.203 E2.17444 ; perimeter
;WIDTH:0.387916
G1 X104.596 Y50.941 E2.18373 ; perimeter
;WIDTH:0.410466
G1 X104.667 Y50.683 E2.19262 ; perimeter
;WIDTH:0.436992
G1 X104.739 Y50.424 E2.2022 ; perimeter
G1 X104.691 Y50.181 E2.21103 ; perimeter
;WIDTH:0.395204
G1 X104.643 Y49.938 E2.21891 ; perimeter
;WIDTH:0.368827
G1 X104.428 Y49.422 E2.23535 ; perimeter
;WIDTH:0.415697
G1 X104.187 Y48.976 E2.25244 ; perimeter
;WIDTH:0.462566
G1 X103.883 Y48.425 E2.27635 ; perimeter
G1 X103.994 Y48.238 E2.28461 ; perimeter
G1 E.28461 F2400 ; retract
G92 E0 ; reset extrusion distance
G1 X109.388 Y48.152 F1800 ; move to first perimeter point
G1 E2 F2400 ;  ; unretract
;WIDTH:0.440749
G1 F900
G1 X108.963 Y48.744 E2.02623 ; perimeter
;WIDTH:0.477453
G1 X108.793 Y48.95 E2.03674 ; perimeter
;WIDTH:0.514156
G1 X108.622 Y49.156 E2.04817 ; perimeter
G1 X108.699 Y48.887 E2.06012 ; perimeter
;WIDTH:0.477453
G1 X108.775 Y48.619 E2.07108 ; perimeter
;WIDTH:0.440749
G1 X109.024 Y47.899 E2.0985 ; perimeter
G1 X109.08 Y47.942 E2.10104 ; perimeter
G1 X109.443 Y48.075 E2.11496 ; perimeter
G1 X109.423 Y48.104 E2.11623 ; perimeter
G1 E.11623 F2400 ; retract
G92 E0 ; reset extrusion distance
G1 X111.14 Y45.251 F1800 ; move to first perimeter point
G1 E2 F2400 ;  ; unretract
;WIDTH:0.419999
G1 F900
G1 X110.055 Y45.248 E2.037 ; perimeter
G1 X109.487 Y45.312 E2.05649 ; perimeter
G1 X109.222 Y45.386 E2.06587 ; perimeter
G1 X108.845 Y45.634 E2.08126 ; perimeter
G1 X108.513 Y45.383 E2.09545 ; perimeter
G1 X108.273 Y45.311 E2.10399 ; perimeter
G1 X107.761 Y45.269 E2.12151 ; perimeter
G1 X107.471 Y45.358 E2.13185 ; perimeter
G1 X106.984 Y45.709 E2.15232 ; perimeter
G1 X106.644 Y46.244 E2.17393 ; perimeter
G1 X106.462 Y45.92 E2.1866 ; perimeter
G1 X106.196 Y45.605 E2.20066 ; perimeter
G1 X105.741 Y45.362 E2.21825 ; perimeter
G1 X105.41 Y45.27 E2.22996 ; perimeter
G1 X104.917 Y45.28 E2.24677 ; perimeter
G1 X104.491 Y45.426 E2.26212 ; perimeter
G1 X104.237 Y45.643 E2.27351 ; perimeter
G1 X103.922 Y45.414 E2.28679 ; perimeter
G1 X103.566 Y45.279 E2.29977 ; perimeter
G1 X103.122 Y45.263 E2.31492 ; perimeter
G1 X102.634 Y45.439 E2.33261 ; perimeter
G1 X102.265 Y45.752 E2.34911 ; perimeter
G1 X102.009 Y45.504 E2.36126 ; perimeter
G1 X101.729 Y45.358 E2.37203 ; perimeter
G1 X101.399 Y45.264 E2.38373 ; perimeter
G1 X100.974 Y45.275 E2.39823 ; perimeter
G1 X100.471 Y45.453 E2.41642 ; perimeter
G1 X100.104 Y45.759 E2.43271 ; perimeter
G1 X99.944 Y46.01 E2.44286 ; perimeter
G1 X99.803 Y46.452 E2.45868 ; perimeter
G1 X99.821 Y46.887 E2.47352 ; perimeter
G1 X99.945 Y47.261 E2.48695 ; perimeter
G1 X100.232 Y47.846 E2.50917 ; perimeter
G1 X100.596 Y48.48 E2.5341 ; perimeter
G1 X100.354 Y48.863 E2.54955 ; perimeter
G1 X100.267 Y48.752 E2.55436 ; perimeter
G1 X100.023 Y48.533 E2.56554 ; perimeter
G1 X99.538 Y48.257 E2.58457 ; perimeter
G1 X99.006 Y48.149 E2.60308 ; perimeter
G1 X98.644 Y48.15 E2.61542 ; perimeter
G1 X98.628 Y47.07 E2.65225 ; perimeter
G1 X98.536 Y46.491 E2.67224 ; perimeter
G1 X98.423 Y46.118 E2.68553 ; perimeter
G1 X98.215 Y45.573 E2.70542 ; perimeter
G1 X97.886 Y45.041 E2.72675 ; perimeter
G1 X97.512 Y44.63 E2.7457 ; perimeter
G1 X97.027 Y44.271 E2.76627 ; perimeter
G1 X96.511 Y44.04 E2.78555 ; perimeter
G1 X95.956 Y43.902 E2.80505 ; perimeter
G1 X95.426 Y43.838 E2.82325 ; perimeter
G1 X93.839 Y43.802 E2.87738 ; perimeter
G1 X93.222 Y43.892 E2.89864 ; perimeter
G1 X92.758 Y44.115 E2.91619 ; perimeter
G1 X92.469 Y44.403 E2.9301 ; perimeter
G1 X92.267 Y44.871 E2.94748 ; perimeter
G1 X91.833 Y44.303 E2.97185 ; perimeter
G1 X91.357 Y43.979 E2.99148 ; perimeter
G1 X91.047 Y43.834 E3.00315 ; perimeter
G1 X90.369 Y43.674 E3.0269 ; perimeter
G1 X89.586 Y43.65 E3.05361 ; perimeter
G1 X88.806 Y43.789 E3.08062 ; perimeter
G1 X88.165 Y44.068 E3.10446 ; perimeter
G1 X87.875 Y44.306 E3.11725 ; perimeter
G1 X87.62 Y44.049 E3.12959 ; perimeter
G1 X87.371 Y43.928 E3.13903 ; perimeter
G1 X86.858 Y43.813 E3.15696 ; perimeter
G1 X83.591 Y43.824 E3.26836 ; perimeter
G1 X83.015 Y43.784 E3.28805 ; perimeter
G1 X82.734 Y43.807 E3.29766 ; perimeter
G1 X82.233 Y43.973 E3.31566 ; perimeter
G1 X81.914 Y44.243 E3.32991 ; perimeter
G1 X81.791 Y44.408 E3.33693 ; perimeter
G1 X81.653 Y44.289 E3.34314 ; perimeter
G1 X80.962 Y43.872 E3.37066 ; perimeter
G1 X80.471 Y43.725 E3.38814 ; perimeter
G1 X79.605 Y43.645 E3.41779 ; perimeter
G1 X78.877 Y43.728 E3.44277 ; perimeter
G1 X78.188 Y43.96 E3.46756 ; perimeter
G1 X77.705 Y44.238 E3.48656 ; perimeter
G1 X77.164 Y44.722 E3.51131 ; perimeter
G1 X77.164 Y43.368 E3.55748 ; perimeter
G1 X77.196 Y42.617 E3.58311 ; perimeter
G1 X77.354 Y42.304 E3.59507 ; perimeter
G1 X77.584 Y42.11 E3.60533 ; perimeter
G1 X77.959 Y42.018 E3.6185 ; perimeter
G1 X101.289 Y40.599 E4.41546 ; perimeter
G1 X102.148 Y40.574 E4.44476 ; perimeter
G1 X103.158 Y40.61 E4.47922 ; perimeter
G1 X103.922 Y40.688 E4.50541 ; perimeter
G1 X104.696 Y40.811 E4.53213 ; perimeter
G1 X105.733 Y41.047 E4.56839 ; perimeter
G1 X106.486 Y41.27 E4.59517 ; perimeter
G1 X107.492 Y41.643 E4.63175 ; perimeter
G1 X108.296 Y42.009 E4.66187 ; perimeter
G1 X109.162 Y42.474 E4.69539 ; perimeter
G1 X109.841 Y42.896 E4.72265 ; perimeter
G1 X110.71 Y43.522 E4.75917 ; perimeter
G1 X111.466 Y44.155 E4.79279 ; perimeter
G1 X112.1 Y44.764 E4.82277 ; perimeter
G1 X112.657 Y45.37 E4.85084 ; perimeter
G1 X112.111 Y45.253 E4.86988 ; perimeter
G1 X111.2 Y45.251 E4.90094 ; perimeter
G1 E2.90094 F2400 ; retract
G92 E0 ; reset extrusion distance
G1 X112.39 Y48.918 F1800 ; move to first perimeter point
G1 E2 F2400 ;  ; unretract
G1 F900
G1 X113.008 Y48.043 E2.03653 ; perimeter
G1 X113.327 Y47.49 E2.0583 ; perimeter
G1 X113.436 Y47.196 E2.06899 ; perimeter
G1 X113.493 Y46.743 E2.08456 ; perimeter
G1 X113.44 Y46.366 E2.09754 ; perimeter
G1 X113.772 Y46.837 E2.11719 ; perimeter
G1 X114.195 Y47.534 E2.14499 ; perimeter
G1 X114.248 Y47.749 E2.15254 ; perimeter
G1 X114.221 Y47.854 E2.15624 ; perimeter
G1 X113.958 Y48.32 E2.17449 ; perimeter
G1 X113.555 Y48.931 E2.19945 ; perimeter
G1 X113.223 Y49.382 E2.21855 ; perimeter
G1 X112.905 Y49.102 E2.233 ; perimeter
G1 X112.446 Y48.938 E2.24962 ; perimeter
G1 E.24962 F2400 ; retract
G92 E0 ; reset extrusion distance
G1 X80.622 Y48.349 F1800 ; move to first perimeter point
G1 E2 F2400 ;  ; unretract
G1 F900
G1 X80.502 Y48.356 E2.0041 ; perimeter
G1 X80.096 Y48.541 E2.01931 ; perimeter
G1 X79.788 Y48.804 E2.03312 ; perimeter
G1 X79.547 Y48.806 E2.04134 ; perimeter
G1 X79.357 Y48.732 E2.04829 ; perimeter
G1 X79.221 Y48.538 E2.05637 ; perimeter
G1 X79.12 Y48.046 E2.0735 ; perimeter
G1 X79.124 Y47.292 E2.09921 ; perimeter
G1 X79.26 Y46.757 E2.11803 ; perimeter
G1 X79.477 Y46.577 E2.12764 ; perimeter
G1 X79.646 Y46.569 E2.13341 ; perimeter
G1 X80.21 Y46.888 E2.1555 ; perimeter
G1 X80.488 Y46.991 E2.16561 ; perimeter
G1 X81.014 Y47.077 E2.18378 ; perimeter
G1 X81.431 Y46.991 E2.1983 ; perimeter
G1 X81.753 Y46.818 E2.21076 ; perimeter
G1 X82.11 Y46.457 E2.22807 ; perimeter
G1 X82.433 Y46.638 E2.24069 ; perimeter
G1 X82.745 Y46.708 E2.25159 ; perimeter
G1 X83.42 Y46.674 E2.27463 ; perimeter
G1 X83.424 Y49.263 E2.36291 ; perimeter
G1 X83.4 Y50.429 E2.40268 ; perimeter
G1 X83.518 Y50.81 E2.41628 ; perimeter
G1 X83.679 Y51.092 E2.42735 ; perimeter
G1 X83.995 Y51.357 E2.44141 ; perimeter
G1 X84.34 Y51.513 E2.45432 ; perimeter
G1 X84.581 Y51.567 E2.46274 ; perimeter
G1 X84.909 Y51.581 E2.47393 ; perimeter
G1 X85.456 Y51.446 E2.49314 ; perimeter
G1 X85.798 Y51.216 E2.50719 ; perimeter
G1 X86.087 Y50.833 E2.52355 ; perimeter
G1 X86.244 Y50.329 E2.54155 ; perimeter
G1 X86.28 Y50.068 E2.55053 ; perimeter
G1 X86.266 Y46.68 E2.66605 ; perimeter
G1 X86.723 Y46.67 E2.68164 ; perimeter
G1 X87.356 Y46.539 E2.70368 ; perimeter
G1 X87.681 Y46.338 E2.71671 ; perimeter
G1 X87.868 Y46.542 E2.72615 ; perimeter
G1 X88.177 Y46.757 E2.73899 ; perimeter
G1 X88.101 Y46.927 E2.74534 ; perimeter
G1 X88.029 Y47.388 E2.76125 ; perimeter
G1 X88.03 Y47.724 E2.77271 ; perimeter
G1 X88.183 Y48.151 E2.78818 ; perimeter
G1 X88.472 Y48.479 E2.80309 ; perimeter
G1 X88.168 Y48.58 E2.81401 ; perimeter
G1 X87.801 Y48.809 E2.82876 ; perimeter
G1 X87.489 Y49.221 E2.84638 ; perimeter
G1 X87.36 Y49.604 E2.86016 ; perimeter
G1 X87.338 Y50.061 E2.87576 ; perimeter
G1 X87.485 Y50.575 E2.89399 ; perimeter
G1 X87.76 Y51.001 E2.91128 ; perimeter
G1 X88.192 Y51.344 E2.93009 ; perimeter
G1 X88.495 Y51.498 E2.94168 ; perimeter
G1 X89.267 Y51.701 E2.9689 ; perimeter
G1 X89.885 Y51.733 E2.99 ; perimeter
G1 X90.387 Y51.694 E3.00717 ; perimeter
G1 X90.91 Y51.563 E3.02555 ; perimeter
G1 X91.525 Y51.258 E3.04896 ; perimeter
G1 X91.914 Y50.934 E3.06622 ; perimeter
G1 X92.304 Y50.454 E3.08731 ; perimeter
G1 X92.405 Y50.813 E3.10003 ; perimeter
G1 X92.517 Y50.992 E3.10723 ; perimeter
G1 X92.823 Y51.333 E3.12285 ; perimeter
G1 X93.255 Y51.536 E3.13913 ; perimeter
G1 X93.612 Y51.595 E3.15147 ; perimeter
G1 X94.22 Y51.557 E3.17224 ; perimeter
G1 X94.976 Y51.562 E3.19802 ; perimeter
G1 X95.583 Y51.525 E3.21876 ; perimeter
G1 X96.095 Y51.443 E3.23644 ; perimeter
G1 X96.7 Y51.25 E3.25809 ; perimeter
G1 X97.13 Y50.993 E3.27517 ; perimeter
G1 X97.166 Y51.068 E3.27801 ; perimeter
G1 X97.468 Y51.471 E3.29518 ; perimeter
G1 X98.028 Y51.849 E3.31822 ; perimeter
G1 X98.374 Y51.977 E3.3308 ; perimeter
G1 X98.817 Y52.042 E3.34607 ; perimeter
G1 X99.41 Y51.955 E3.36651 ; perimeter
G1 X99.752 Y51.811 E3.37916 ; perimeter
G1 X100.25 Y51.453 E3.40007 ; perimeter
G1 X100.686 Y51.689 E3.41697 ; perimeter
G1 X101.089 Y51.755 E3.43089 ; perimeter
G1 X101.428 Y51.726 E3.44249 ; perimeter
G1 X101.865 Y51.526 E3.45888 ; perimeter
G1 X102.178 Y51.206 E3.47414 ; perimeter
G1 X102.273 Y51.329 E3.47944 ; perimeter
G1 X102.597 Y51.591 E3.49365 ; perimeter
G1 X102.962 Y51.735 E3.50703 ; perimeter
G1 X103.389 Y51.762 E3.52162 ; perimeter
;WIDTH:0.449158
G1 X103.687 Y51.707 E3.53276 ; perimeter
;WIDTH:0.478316
G1 X103.985 Y51.652 E3.54471 ; perimeter
G1 X103.79 Y51.867 E3.55616 ; perimeter
;WIDTH:0.449158
G1 X103.596 Y52.082 E3.56681 ; perimeter
;WIDTH:0.419999
G1 X103.447 Y52.482 E3.58136 ; perimeter
G1 X103.423 Y52.93 E3.59666 ; perimeter
G1 X103.589 Y53.465 E3.61576 ; perimeter
G1 X103.869 Y53.855 E3.63213 ; perimeter
G1 X104.111 Y54.054 E3.64281 ; perimeter
G1 X104.519 Y54.248 E3.65821 ; perimeter
G1 X105.013 Y54.264 E3.67506 ; perimeter
;WIDTH:0.372172
G1 X105.351 Y54.214 E3.68522 ; perimeter
;WIDTH:0.401666
G1 X106.189 Y53.937 E3.71383 ; perimeter
;WIDTH:0.419999
G1 X106.613 Y53.636 E3.73156 ; perimeter
G1 X107.054 Y53.065 E3.75616 ; perimeter
G1 X107.21 Y52.757 E3.76793 ; perimeter
G1 X107.556 Y51.942 E3.79812 ; perimeter
G1 X108.026 Y50.681 E3.84401 ; perimeter
;WIDTH:0.452464
G1 X108.169 Y50.33 E3.85806 ; perimeter
;WIDTH:0.484928
G1 X108.312 Y49.979 E3.87323 ; perimeter
G1 X108.311 Y50.133 E3.8794 ; perimeter
;WIDTH:0.459477
G1 X108.39 Y50.677 E3.90013 ; perimeter
;WIDTH:0.419999
G1 X108.612 Y51.199 E3.91947 ; perimeter
G1 X108.906 Y51.487 E3.9335 ; perimeter
G1 X109.319 Y51.715 E3.94959 ; perimeter
G1 X109.643 Y51.767 E3.96078 ; perimeter
G1 X110.924 Y51.755 E4.00446 ; perimeter
G1 X110.412 Y52.152 E4.02655 ; perimeter
G1 X109.926 Y52.495 E4.04683 ; perimeter
G1 X109.437 Y52.81 E4.06666 ; perimeter
G1 X108.903 Y53.119 E4.0877 ; perimeter
G1 X108.458 Y53.35 E4.1048 ; perimeter
G1 X107.61 Y53.746 E4.13671 ; perimeter
G1 X106.363 Y54.222 E4.18222 ; perimeter
;WIDTH:0.410202
G1 X106.113 Y54.307 E4.19099 ; perimeter
;WIDTH:0.382421
G1 X105.863 Y54.391 E4.19908 ; perimeter
;WIDTH:0.372172
G1 X105.036 Y54.586 E4.22433 ; perimeter
;WIDTH:0.419999
G1 X103.69 Y54.787 E4.27073 ; perimeter
G1 X102.83 Y54.857 E4.30015 ; perimeter
G1 X101.915 Y54.872 E4.33135 ; perimeter
G1 X101.275 Y54.848 E4.35319 ; perimeter
G1 X78.057 Y53.435 E5.14632 ; perimeter
G1 X77.628 Y53.35 E5.16123 ; perimeter
G1 X77.371 Y53.177 E5.17179 ; perimeter
G1 X77.25 Y52.967 E5.18005 ; perimeter
G1 X77.161 Y52.545 E5.19476 ; perimeter
G1 X77.162 Y50.661 E5.259 ; perimeter
G1 X77.792 Y51.195 E5.28716 ; perimeter
G1 X78.612 Y51.581 E5.31806 ; perimeter
G1 X79.315 Y51.714 E5.34246 ; perimeter
G1 X80.085 Y51.711 E5.36871 ; perimeter
G1 X80.324 Y51.679 E5.37693 ; perimeter
G1 X80.922 Y51.517 E5.39806 ; perimeter
G1 X81.176 Y51.405 E5.40753 ; perimeter
G1 X81.56 Y51.162 E5.42302 ; perimeter
G1 X81.916 Y50.832 E5.43957 ; perimeter
G1 X82.214 Y50.386 E5.45786 ; perimeter
G1 X82.346 Y50.048 E5.47023 ; perimeter
G1 X82.406 Y49.648 E5.48402 ; perimeter
G1 X82.308 Y49.24 E5.49833 ; perimeter
G1 X82.09 Y48.871 E5.51294 ; perimeter
