; generated by PrusaSlicer 2.6.1+MacOS-arm64 on 2024-01-17 at 12:23:32 UTC

; 

; external perimeters extrusion width = 0.45mm
; perimeters extrusion width = 0.45mm
; infill extrusion width = 0.45mm
; solid infill extrusion width = 0.45mm
; top infill extrusion width = 0.40mm
; first layer extrusion width = 0.42mm

M190 S60 ; set bed temperature and wait for it to be reached
M104 S205 ; set temperature
;TYPE:Custom
G28
;G29
M109 S205 ; set temperature and wait for it to be reached
G21 ; set units to millimeters
G90 ; use absolute coordinates
M82 ; use absolute distances for extrusion
G92 E0 ; reset extrusion distance
; Filament gcode
M107 ; disable fan
;LAYER_CHANGE
;Z:0.23
;HEIGHT:0.23
G1 Z.23 F4800 ; move to next layer (0)
G1 E-2 F2400 ; retract
G92 E0 ; reset extrusion distance
G1 X76.642 Y76.069 F4800 ; move to first skirt point
G1 E2 F2400 ;  ; unretract
;TYPE:Skirt/Brim
;WIDTH:0.42
G1 F1800
G1 X78.448 Y74.471 E2.08119 ; skirt
G1 X80.684 Y72.854 E2.1741 ; skirt
G1 X82.979 Y71.529 E2.26333 ; skirt
G1 X85.173 Y70.529 E2.34451 ; skirt
G1 X87.678 Y69.666 E2.43372 ; skirt
G1 X90.023 Y69.103 E2.51492 ; skirt
G1 X92.757 Y68.725 E2.60785 ; skirt
G1 X95.405 Y68.633 E2.69706 ; skirt
G1 X97.812 Y68.78 E2.77825 ; skirt
G1 X100.428 Y69.194 E2.86743 ; skirt
G1 X103.096 Y69.903 E2.96038 ; skirt
G1 X105.355 Y70.748 E3.04159 ; skirt
G1 X107.736 Y71.909 E3.13078 ; skirt
G1 X109.792 Y73.169 E3.21197 ; skirt
G1 X111.908 Y74.763 E3.30117 ; skirt
G1 X113.931 Y76.642 E3.39413 ; skirt
G1 X115.529 Y78.448 E3.47532 ; skirt
G1 X117.086 Y80.591 E3.56451 ; skirt
G1 X118.31 Y82.669 E3.64571 ; skirt
G1 X119.471 Y85.173 E3.73864 ; skirt
G1 X120.334 Y87.678 E3.82785 ; skirt
G1 X120.897 Y90.023 E3.90905 ; skirt
G1 X121.275 Y92.757 E4.00198 ; skirt
G1 X121.367 Y95.405 E4.09119 ; skirt
G1 X121.181 Y98.159 E4.18413 ; skirt
G1 X120.783 Y100.537 E4.26531 ; skirt
G1 X120.097 Y103.096 E4.35451 ; skirt
G1 X119.252 Y105.355 E4.43572 ; skirt
G1 X118.091 Y107.736 E4.52491 ; skirt
G1 X116.633 Y110.08 E4.61785 ; skirt
G1 X115.165 Y111.993 E4.69904 ; skirt
G1 X113.358 Y113.931 E4.78826 ; skirt
G1 X111.552 Y115.529 E4.86945 ; skirt
G1 X109.409 Y117.086 E4.95864 ; skirt
G1 X107.021 Y118.471 E5.05159 ; skirt
G1 X104.827 Y119.471 E5.13277 ; skirt
G1 X102.322 Y120.334 E5.22198 ; skirt
G1 X99.977 Y120.897 E5.30318 ; skirt
G1 X97.354 Y121.265 E5.39236 ; skirt
G1 X94.595 Y121.367 E5.48532 ; skirt
G1 X92.188 Y121.22 E5.56651 ; skirt
G1 X89.572 Y120.806 E5.65569 ; skirt
G1 X87.237 Y120.202 E5.7369 ; skirt
G1 X84.645 Y119.252 E5.82985 ; skirt
G1 X82.264 Y118.091 E5.91904 ; skirt
G1 X79.92 Y116.633 E6.01198 ; skirt
G1 X78.007 Y115.165 E6.09317 ; skirt
G1 X76.069 Y113.358 E6.18239 ; skirt
G1 X74.471 Y111.552 E6.26358 ; skirt
G1 X72.914 Y109.409 E6.35277 ; skirt
G1 X71.529 Y107.021 E6.44572 ; skirt
G1 X70.529 Y104.827 E6.5269 ; skirt
G1 X69.666 Y102.322 E6.61611 ; skirt
G1 X69.104 Y99.977 E6.6973 ; skirt
G1 X68.735 Y97.354 E6.78649 ; skirt
G1 X68.633 Y94.595 E6.87945 ; skirt
G1 X68.78 Y92.188 E6.96064 ; skirt
G1 X69.194 Y89.572 E7.04982 ; skirt
G1 X69.798 Y87.237 E7.13103 ; skirt
G1 X70.748 Y84.645 E7.22398 ; skirt
G1 X71.909 Y82.264 E7.31317 ; skirt
G1 X73.169 Y80.208 E7.39436 ; skirt
G1 X74.835 Y78.007 E7.4873 ; skirt
G1 X76.601 Y76.113 E7.57449 ; skirt
G1 E5.57449 F2400 ; retract
G92 E0 ; reset extrusion distance
G1 X76.512 Y90.418 F4800 ; move to first perimeter point
G1 E2 F2400 ;  ; unretract
;TYPE:Perimeter
;WIDTH:0.419999
G1 F1800
G1 X76.784 Y89.431 E2.03447 ; perimeter
G1 X77.102 Y88.481 E2.0682 ; perimeter
G1 X77.34 Y87.861 E2.09056 ; perimeter
G1 X77.736 Y86.95 E2.12401 ; perimeter
G1 X78.181 Y86.057 E2.1576 ; perimeter
G1 X78.672 Y85.189 E2.19118 ; perimeter
G1 X79.208 Y84.348 E2.22476 ; perimeter
G1 X79.79 Y83.533 E2.25848 ; perimeter
G1 X80.199 Y83.01 E2.28083 ; perimeter
G1 X80.844 Y82.254 E2.31429 ; perimeter
G1 X81.531 Y81.531 E2.34787 ; perimeter
G1 X82.254 Y80.844 E2.38145 ; perimeter
G1 X83.012 Y80.197 E2.415 ; perimeter
G1 X83.807 Y79.587 E2.44874 ; perimeter
G1 X84.351 Y79.206 E2.4711 ; perimeter
G1 X85.189 Y78.672 E2.50456 ; perimeter
G1 X86.057 Y78.181 E2.53814 ; perimeter
G1 X86.95 Y77.736 E2.57173 ; perimeter
G1 X87.868 Y77.337 E2.60543 ; perimeter
G1 X88.481 Y77.102 E2.62753 ; perimeter
G1 X89.431 Y76.784 E2.66126 ; perimeter
G1 X90.392 Y76.517 E2.69484 ; perimeter
G1 X91.365 Y76.302 E2.72839 ; perimeter
G1 X92.349 Y76.137 E2.76198 ; perimeter
G1 X93.34 Y76.024 E2.79556 ; perimeter
G1 X94.339 Y75.963 E2.82926 ; perimeter
G1 X95.004 Y75.952 E2.85165 ; perimeter
G1 X95.997 Y75.978 E2.8851 ; perimeter
G1 X96.991 Y76.056 E2.91867 ; perimeter
G1 X97.98 Y76.186 E2.95226 ; perimeter
G1 X98.96 Y76.368 E2.98582 ; perimeter
G1 X99.93 Y76.601 E3.01941 ; perimeter
G1 X100.89 Y76.885 E3.05312 ; perimeter
G1 X101.518 Y77.102 E3.07549 ; perimeter
G1 X102.447 Y77.467 E3.1091 ; perimeter
G1 X103.046 Y77.734 E3.13118 ; perimeter
G1 X103.943 Y78.181 E3.16492 ; perimeter
G1 X104.811 Y78.672 E3.1985 ; perimeter
G1 X105.652 Y79.208 E3.23208 ; perimeter
G1 X106.464 Y79.787 E3.26566 ; perimeter
G1 X107.247 Y80.411 E3.29937 ; perimeter
G1 X107.749 Y80.847 E3.32176 ; perimeter
G1 X108.472 Y81.534 E3.35534 ; perimeter
G1 X108.928 Y82.006 E3.37744 ; perimeter
G1 X109.592 Y82.756 E3.41117 ; perimeter
G1 X110.213 Y83.536 E3.44474 ; perimeter
G1 X110.792 Y84.348 E3.47832 ; perimeter
G1 X111.328 Y85.189 E3.5119 ; perimeter
G1 X111.821 Y86.061 E3.54563 ; perimeter
G1 X112.119 Y86.646 E3.56774 ; perimeter
G1 X112.534 Y87.557 E3.60145 ; perimeter
G1 X112.9 Y88.485 E3.63504 ; perimeter
G1 X113.216 Y89.431 E3.66862 ; perimeter
G1 X113.483 Y90.392 E3.7022 ; perimeter
G1 X113.698 Y91.365 E3.73575 ; perimeter
G1 X113.864 Y92.353 E3.76948 ; perimeter
G1 X113.944 Y93.005 E3.7916 ; perimeter
G1 X114.035 Y94.502 E3.8421 ; perimeter
G1 X114.022 Y96.001 E3.89257 ; perimeter
G1 X113.976 Y96.664 E3.91495 ; perimeter
G1 X113.863 Y97.651 E3.9484 ; perimeter
G1 X113.698 Y98.635 E3.98199 ; perimeter
G1 X113.483 Y99.608 E4.01554 ; perimeter
G1 X113.216 Y100.569 E4.04912 ; perimeter
G1 X112.9 Y101.515 E4.0827 ; perimeter
G1 X112.533 Y102.447 E4.11643 ; perimeter
G1 X112.266 Y103.046 E4.13851 ; perimeter
G1 X111.819 Y103.943 E4.17225 ; perimeter
G1 X111.328 Y104.811 E4.20583 ; perimeter
G1 X110.792 Y105.652 E4.23941 ; perimeter
G1 X110.21 Y106.467 E4.27313 ; perimeter
G1 X109.806 Y106.984 E4.29522 ; perimeter
G1 X109.156 Y107.746 E4.32894 ; perimeter
G1 X108.466 Y108.472 E4.36266 ; perimeter
G1 X107.994 Y108.928 E4.38476 ; perimeter
G1 X107.244 Y109.592 E4.41849 ; perimeter
G1 X106.464 Y110.213 E4.45206 ; perimeter
G1 X105.652 Y110.792 E4.48564 ; perimeter
G1 X104.807 Y111.33 E4.51937 ; perimeter
G1 X104.232 Y111.662 E4.54173 ; perimeter
G1 X103.35 Y112.121 E4.57521 ; perimeter
G1 X102.443 Y112.534 E4.60877 ; perimeter
G1 X101.515 Y112.9 E4.64236 ; perimeter
G1 X100.569 Y113.216 E4.67594 ; perimeter
G1 X99.608 Y113.483 E4.70952 ; perimeter
G1 X98.631 Y113.699 E4.74321 ; perimeter
G1 X97.984 Y113.813 E4.76533 ; perimeter
G1 X96.991 Y113.944 E4.79905 ; perimeter
G1 X95.997 Y114.022 E4.83262 ; perimeter
G1 X95 Y114.048 E4.8662 ; perimeter
G1 X94.003 Y114.022 E4.89978 ; perimeter
G1 X93.005 Y113.944 E4.93348 ; perimeter
G1 X92.353 Y113.864 E4.9556 ; perimeter
G1 X91.365 Y113.698 E4.98933 ; perimeter
G1 X90.392 Y113.483 E5.02288 ; perimeter
G1 X89.427 Y113.215 E5.0566 ; perimeter
G1 X88.802 Y113.012 E5.07873 ; perimeter
G1 X87.864 Y112.661 E5.11245 ; perimeter
G1 X86.95 Y112.264 E5.146 ; perimeter
G1 X86.057 Y111.819 E5.17959 ; perimeter
G1 X85.189 Y111.328 E5.21317 ; perimeter
G1 X84.345 Y110.79 E5.24687 ; perimeter
G1 X83.807 Y110.413 E5.26899 ; perimeter
G1 X83.012 Y109.803 E5.30273 ; perimeter
G1 X82.254 Y109.156 E5.33628 ; perimeter
G1 X81.528 Y108.466 E5.37 ; perimeter
G1 X81.072 Y107.994 E5.3921 ; perimeter
G1 X80.408 Y107.244 E5.42583 ; perimeter
G1 X79.787 Y106.464 E5.4594 ; perimeter
G1 X79.208 Y105.652 E5.49298 ; perimeter
G1 X78.672 Y104.811 E5.52656 ; perimeter
G1 X78.181 Y103.943 E5.56014 ; perimeter
G1 X77.734 Y103.047 E5.59385 ; perimeter
G1 X77.464 Y102.439 E5.61625 ; perimeter
G1 X77.1 Y101.515 E5.64969 ; perimeter
G1 X76.784 Y100.569 E5.68327 ; perimeter
G1 X76.517 Y99.608 E5.71685 ; perimeter
G1 X76.301 Y98.631 E5.75054 ; perimeter
G1 X76.186 Y97.976 E5.77293 ; perimeter
G1 X76.056 Y96.991 E5.80638 ; perimeter
G1 X75.978 Y95.997 E5.83995 ; perimeter
G1 X75.952 Y95 E5.87353 ; perimeter
G1 X75.978 Y93.999 E5.90724 ; perimeter
G1 X76.024 Y93.336 E5.92962 ; perimeter
G1 X76.137 Y92.349 E5.96307 ; perimeter
G1 X76.302 Y91.365 E5.99666 ; perimeter
G1 X76.499 Y90.476 E6.02732 ; perimeter
G1 X76.15 Y90.337 F4800 ; move to first perimeter point
G1 F1800
G1 X76.429 Y89.322 E6.06276 ; perimeter
G1 X76.753 Y88.356 E6.09707 ; perimeter
G1 X76.997 Y87.72 E6.12001 ; perimeter
G1 X77.4 Y86.793 E6.15404 ; perimeter
G1 X77.854 Y85.883 E6.18828 ; perimeter
G1 X78.355 Y84.998 E6.22252 ; perimeter
G1 X78.901 Y84.141 E6.25673 ; perimeter
G1 X79.493 Y83.311 E6.29106 ; perimeter
G1 X79.912 Y82.775 E6.31397 ; perimeter
G1 X80.569 Y82.006 E6.34802 ; perimeter
G1 X81.269 Y81.269 E6.38224 ; perimeter
G1 X82.006 Y80.569 E6.41646 ; perimeter
G1 X82.779 Y79.908 E6.4507 ; perimeter
G1 X83.588 Y79.288 E6.48502 ; perimeter
G1 X84.145 Y78.898 E6.50791 ; perimeter
G1 X84.998 Y78.355 E6.54196 ; perimeter
G1 X85.883 Y77.854 E6.5762 ; perimeter
G1 X86.793 Y77.4 E6.61044 ; perimeter
G1 X87.728 Y76.994 E6.64476 ; perimeter
G1 X88.356 Y76.753 E6.66741 ; perimeter
G1 X89.322 Y76.429 E6.70172 ; perimeter
G1 X90.302 Y76.158 E6.73595 ; perimeter
G1 X91.295 Y75.938 E6.77019 ; perimeter
G1 X92.297 Y75.77 E6.8044 ; perimeter
G1 X93.307 Y75.655 E6.83863 ; perimeter
G1 X94.325 Y75.593 E6.87297 ; perimeter
G1 X95.005 Y75.581 E6.89587 ; perimeter
G1 X96.016 Y75.607 E6.92992 ; perimeter
G1 X97.03 Y75.687 E6.96417 ; perimeter
G1 X98.038 Y75.82 E6.9984 ; perimeter
G1 X99.037 Y76.005 E7.03261 ; perimeter
G1 X100.026 Y76.243 E7.06686 ; perimeter
G1 X101.003 Y76.532 E7.10116 ; perimeter
G1 X101.647 Y76.754 E7.1241 ; perimeter
G1 X102.59 Y77.125 E7.15822 ; perimeter
G1 X103.205 Y77.399 E7.18089 ; perimeter
G1 X104.117 Y77.854 E7.21521 ; perimeter
G1 X105.002 Y78.355 E7.24945 ; perimeter
G1 X105.859 Y78.901 E7.28366 ; perimeter
G1 X106.687 Y79.491 E7.31789 ; perimeter
G1 X107.484 Y80.126 E7.3522 ; perimeter
G1 X107.998 Y80.572 E7.37511 ; perimeter
G1 X108.733 Y81.27 E7.40924 ; perimeter
G1 X109.201 Y81.754 E7.43191 ; perimeter
G1 X109.876 Y82.518 E7.46624 ; perimeter
G1 X110.509 Y83.313 E7.50046 ; perimeter
G1 X111.099 Y84.141 E7.53469 ; perimeter
G1 X111.645 Y84.998 E7.5689 ; perimeter
G1 X112.147 Y85.885 E7.60322 ; perimeter
G1 X112.453 Y86.485 E7.6259 ; perimeter
G1 X112.875 Y87.412 E7.66019 ; perimeter
G1 X113.248 Y88.358 E7.69443 ; perimeter
G1 X113.571 Y89.322 E7.72866 ; perimeter
G1 X113.842 Y90.302 E7.76289 ; perimeter
G1 X114.062 Y91.295 E7.79713 ; perimeter
G1 X114.231 Y92.3 E7.83144 ; perimeter
G1 X114.313 Y92.968 E7.8541 ; perimeter
G1 X114.393 Y93.984 E7.88841 ; perimeter
G1 X114.419 Y95 E7.92263 ; perimeter
G1 X114.392 Y96.019 E7.95695 ; perimeter
G1 X114.345 Y96.698 E7.97987 ; perimeter
G1 X114.23 Y97.703 E8.01393 ; perimeter
G1 X114.062 Y98.705 E8.04814 ; perimeter
G1 X113.842 Y99.698 E8.08238 ; perimeter
G1 X113.571 Y100.678 E8.11661 ; perimeter
G1 X113.248 Y101.642 E8.15084 ; perimeter
G1 X112.875 Y102.59 E8.18514 ; perimeter
G1 X112.601 Y103.205 E8.20781 ; perimeter
G1 X112.146 Y104.117 E8.24213 ; perimeter
G1 X111.645 Y105.002 E8.27637 ; perimeter
G1 X111.099 Y105.859 E8.31058 ; perimeter
G1 X110.507 Y106.689 E8.34491 ; perimeter
G1 X110.093 Y107.219 E8.36755 ; perimeter
G1 X109.431 Y107.994 E8.40187 ; perimeter
G1 X108.73 Y108.733 E8.43617 ; perimeter
G1 X108.246 Y109.201 E8.45884 ; perimeter
G1 X107.482 Y109.876 E8.49317 ; perimeter
G1 X106.687 Y110.509 E8.52739 ; perimeter
G1 X105.859 Y111.099 E8.56162 ; perimeter
G1 X105 Y111.647 E8.59593 ; perimeter
G1 X104.41 Y111.987 E8.61886 ; perimeter
G1 X103.513 Y112.454 E8.65291 ; perimeter
G1 X102.588 Y112.875 E8.68713 ; perimeter
G1 X101.642 Y113.248 E8.72137 ; perimeter
G1 X100.678 Y113.571 E8.7556 ; perimeter
G1 X99.698 Y113.842 E8.78983 ; perimeter
G1 X98.703 Y114.063 E8.82415 ; perimeter
G1 X98.04 Y114.18 E8.84682 ; perimeter
G1 X97.03 Y114.313 E8.88112 ; perimeter
G1 X96.016 Y114.393 E8.91537 ; perimeter
G1 X95 Y114.419 E8.94959 ; perimeter
G1 X93.984 Y114.393 E8.98381 ; perimeter
G1 X92.968 Y114.313 E9.01812 ; perimeter
G1 X92.3 Y114.231 E9.04078 ; perimeter
G1 X91.295 Y114.062 E9.07509 ; perimeter
G1 X90.302 Y113.842 E9.10933 ; perimeter
G1 X89.32 Y113.57 E9.14364 ; perimeter
G1 X88.68 Y113.362 E9.1663 ; perimeter
G1 X87.725 Y113.005 E9.20063 ; perimeter
G1 X86.793 Y112.6 E9.23484 ; perimeter
G1 X85.883 Y112.146 E9.26908 ; perimeter
G1 X84.998 Y111.645 E9.30332 ; perimeter
G1 X84.139 Y111.098 E9.33761 ; perimeter
G1 X83.588 Y110.712 E9.36026 ; perimeter
G1 X82.779 Y110.091 E9.3946 ; perimeter
G1 X82.006 Y109.431 E9.42882 ; perimeter
G1 X81.267 Y108.73 E9.46312 ; perimeter
G1 X80.799 Y108.246 E9.48579 ; perimeter
G1 X80.124 Y107.482 E9.52012 ; perimeter
G1 X79.491 Y106.687 E9.55434 ; perimeter
G1 X78.901 Y105.859 E9.58857 ; perimeter
G1 X78.355 Y105.002 E9.62278 ; perimeter
G1 X77.854 Y104.117 E9.65702 ; perimeter
G1 X77.399 Y103.205 E9.69134 ; perimeter
G1 X77.122 Y102.583 E9.71427 ; perimeter
G1 X76.752 Y101.642 E9.74831 ; perimeter
G1 X76.429 Y100.678 E9.78254 ; perimeter
G1 X76.158 Y99.698 E9.81677 ; perimeter
G1 X75.937 Y98.703 E9.85109 ; perimeter
G1 X75.819 Y98.032 E9.87403 ; perimeter
G1 X75.687 Y97.03 E9.90806 ; perimeter
G1 X75.607 Y96.016 E9.94231 ; perimeter
G1 X75.581 Y95 E9.97653 ; perimeter
G1 X75.608 Y93.981 E10.01085 ; perimeter
G1 X75.655 Y93.302 E10.03377 ; perimeter
G1 X75.77 Y92.297 E10.06783 ; perimeter
G1 X75.938 Y91.295 E10.10204 ; perimeter
G1 X76.137 Y90.396 E10.13304 ; perimeter
G1 X75.788 Y90.257 F4800 ; move to first perimeter point
;TYPE:External perimeter
G1 F1800
G1 X76.075 Y89.214 E10.16946 ; perimeter
G1 X76.404 Y88.231 E10.20436 ; perimeter
G1 X76.654 Y87.58 E10.22784 ; perimeter
G1 X77.064 Y86.636 E10.26249 ; perimeter
G1 X77.527 Y85.709 E10.29738 ; perimeter
G1 X78.037 Y84.807 E10.33227 ; perimeter
G1 X78.593 Y83.934 E10.36712 ; perimeter
G1 X79.196 Y83.089 E10.40207 ; perimeter
G1 X79.625 Y82.54 E10.42553 ; perimeter
G1 X80.293 Y81.758 E10.46016 ; perimeter
G1 X81.006 Y81.006 E10.49505 ; perimeter
G1 X81.758 Y80.293 E10.52994 ; perimeter
G1 X82.546 Y79.62 E10.56483 ; perimeter
G1 X83.368 Y78.989 E10.59972 ; perimeter
G1 X83.94 Y78.589 E10.62322 ; perimeter
G1 X84.807 Y78.037 E10.65783 ; perimeter
G1 X85.709 Y77.527 E10.69272 ; perimeter
G1 X86.636 Y77.064 E10.72761 ; perimeter
G1 X87.587 Y76.651 E10.76252 ; perimeter
G1 X88.231 Y76.404 E10.78574 ; perimeter
G1 X89.214 Y76.075 E10.82064 ; perimeter
G1 X90.212 Y75.798 E10.85551 ; perimeter
G1 X91.224 Y75.574 E10.89041 ; perimeter
G1 X92.246 Y75.403 E10.9253 ; perimeter
G1 X93.275 Y75.285 E10.96017 ; perimeter
G1 X94.31 Y75.222 E10.99508 ; perimeter
G1 X95.007 Y75.21 E11.01855 ; perimeter
G1 X96.036 Y75.237 E11.05321 ; perimeter
G1 X97.069 Y75.318 E11.0881 ; perimeter
G1 X98.096 Y75.454 E11.12298 ; perimeter
G1 X99.115 Y75.643 E11.15787 ; perimeter
G1 X100.122 Y75.884 E11.19273 ; perimeter
G1 X101.116 Y76.179 E11.22764 ; perimeter
G1 X101.775 Y76.406 E11.25111 ; perimeter
G1 X102.733 Y76.784 E11.28579 ; perimeter
G1 X103.363 Y77.064 E11.309 ; perimeter
G1 X104.291 Y77.527 E11.34392 ; perimeter
G1 X105.193 Y78.037 E11.37881 ; perimeter
G1 X106.066 Y78.593 E11.41366 ; perimeter
G1 X106.91 Y79.195 E11.44857 ; perimeter
G1 X107.721 Y79.841 E11.48348 ; perimeter
G1 X108.247 Y80.298 E11.50694 ; perimeter
G1 X108.994 Y81.007 E11.54162 ; perimeter
G1 X109.473 Y81.503 E11.56484 ; perimeter
G1 X110.16 Y82.279 E11.59974 ; perimeter
G1 X110.805 Y83.09 E11.63463 ; perimeter
G1 X111.407 Y83.934 E11.66954 ; perimeter
G1 X111.963 Y84.807 E11.70439 ; perimeter
G1 X112.474 Y85.71 E11.73932 ; perimeter
G1 X112.787 Y86.324 E11.76252 ; perimeter
