; generated by PrusaSlicer 2.6.1+MacOS-arm64 on 2024-01-19 at 13:33:49 UTC

; 

; external perimeters extrusion width = 0.45mm
; perimeters extrusion width = 0.45mm
; infill extrusion width = 0.45mm
; solid infill extrusion width = 0.45mm
; top infill extrusion width = 0.40mm
; first layer extrusion width = 0.42mm

M190 S60 ; set bed temperature and wait for it to be reached
M104 S205 ; set temperature
;TYPE:Custom
G28
G29
M109 S205 ; set temperature and wait for it to be reached
G21 ; set units to millimeters
G90 ; use absolute coordinates
M82 ; use absolute distances for extrusion
G92 E0 ; reset extrusion distance
; Filament gcode
M107 ; disable fan
;LAYER_CHANGE
;Z:0.23
;HEIGHT:0.23
G1 Z.23 F1800 ; move to next layer (0)
G1 E-2 F2400 ; retract
G92 E0 ; reset extrusion distance
G1 X65.167 Y65.849 F1800 ; move to first skirt point
G1 E2 F2400 ;  ; unretract
;TYPE:Skirt/Brim
;WIDTH:0.42
G1 F900
G1 X66.911 Y64.429 E2.07572 ; skirt
G1 X70 Y63.629 E2.18316 ; skirt
G1 X120 Y63.629 E3.86665 ; skirt
G1 X122.214 Y64.026 E3.94238 ; skirt
G1 X124.151 Y65.167 E4.01807 ; skirt
G1 X125.571 Y66.911 E4.09379 ; skirt
G1 X126.371 Y70 E4.20123 ; skirt
G1 X126.371 Y120 E5.88472 ; skirt
G1 X125.974 Y122.213 E5.96042 ; skirt
G1 X124.833 Y124.151 E6.03614 ; skirt
G1 X123.089 Y125.571 E6.11186 ; skirt
G1 X120 Y126.371 E6.2193 ; skirt
G1 X70 Y126.371 E7.90279 ; skirt
G1 X67.787 Y125.974 E7.97849 ; skirt
G1 X65.849 Y124.833 E8.05421 ; skirt
G1 X64.429 Y123.089 E8.12993 ; skirt
G1 X63.629 Y120 E8.23737 ; skirt
G1 X63.629 Y70 E9.92086 ; skirt
G1 X64.026 Y67.787 E9.99656 ; skirt
G1 X65.137 Y65.901 E10.07026 ; skirt
G1 E8.07026 F2400 ; retract
G92 E0 ; reset extrusion distance
G1 X119.049 Y70.951 F1800 ; move to first perimeter point
G1 E2 F2400 ;  ; unretract
;TYPE:Perimeter
;WIDTH:0.419999
G1 F900
G1 X119.049 Y119.049 E3.61944 ; perimeter
G1 X70.951 Y119.049 E5.23888 ; perimeter
G1 X70.951 Y70.951 E6.85832 ; perimeter
G1 X118.989 Y70.951 E8.47574 ; perimeter
G1 X119.419 Y70.581 F1800 ; move to first perimeter point
G1 F900
G1 X119.419 Y119.419 E10.1201 ; perimeter
G1 X70.581 Y119.419 E11.76446 ; perimeter
G1 X70.581 Y70.581 E13.40882 ; perimeter
G1 X119.359 Y70.581 E15.05116 ; perimeter
G1 X119.79 Y70.21 F1800 ; move to first perimeter point
;TYPE:External perimeter
G1 F900
G1 X119.79 Y119.79 E16.7205 ; perimeter
G1 X70.21 Y119.79 E18.38984 ; perimeter
G1 X70.21 Y70.21 E20.05918 ; perimeter
G1 X119.73 Y70.21 E21.7265 ; perimeter
G1 X119.686 Y70.596 F1800 ; move inwards before travel
G1 X118.185 Y71.062 ; move to first infill point
;TYPE:Solid infill
;WIDTH:0.421654
G1 F900
G1 X118.771 Y71.648 E21.75453 ; infill
G1 X118.771 Y72.175 E21.77235 ; infill
G1 X117.825 Y71.229 E21.8176 ; infill
G1 X117.299 Y71.229 E21.83539 ; infill
G1 X118.771 Y72.701 E21.90579 ; infill
G1 X118.771 Y73.228 E21.92361 ; infill
G1 X116.772 Y71.229 E22.01922 ; infill
G1 X116.246 Y71.229 E22.03701 ; infill
G1 X118.771 Y73.754 E22.15778 ; infill
G1 X118.771 Y74.281 E22.1756 ; infill
G1 X115.719 Y71.229 E22.32157 ; infill
G1 X115.193 Y71.229 E22.33936 ; infill
G1 X118.771 Y74.807 E22.51049 ; infill
G1 X118.771 Y75.334 E22.52831 ; infill
G1 X114.666 Y71.229 E22.72465 ; infill
G1 X114.14 Y71.229 E22.74244 ; infill
G1 X118.771 Y75.861 E22.96396 ; infill
G1 X118.771 Y76.387 E22.98175 ; infill
G1 X113.613 Y71.229 E23.22845 ; infill
G1 X113.086 Y71.229 E23.24627 ; infill
G1 X118.771 Y76.914 E23.51818 ; infill
G1 X118.771 Y77.44 E23.53597 ; infill
G1 X112.56 Y71.229 E23.83303 ; infill
G1 X112.033 Y71.229 E23.85085 ; infill
G1 X118.771 Y77.967 E24.17312 ; infill
G1 X118.771 Y78.493 E24.19091 ; infill
G1 X111.507 Y71.229 E24.53834 ; infill
G1 X110.98 Y71.229 E24.55616 ; infill
G1 X118.771 Y79.02 E24.92879 ; infill
G1 X118.771 Y79.546 E24.94658 ; infill
G1 X110.454 Y71.229 E25.34437 ; infill
G1 X109.927 Y71.229 E25.36219 ; infill
G1 X118.771 Y80.073 E25.78519 ; infill
G1 X118.771 Y80.599 E25.80298 ; infill
G1 X109.401 Y71.229 E26.25114 ; infill
G1 X108.874 Y71.229 E26.26896 ; infill
G1 X118.771 Y81.126 E26.74232 ; infill
G1 X118.771 Y81.652 E26.76011 ; infill
G1 X108.348 Y71.229 E27.25863 ; infill
G1 X107.821 Y71.229 E27.27645 ; infill
G1 X118.771 Y82.179 E27.80017 ; infill
G1 X118.771 Y82.705 E27.81796 ; infill
G1 X107.295 Y71.229 E28.36684 ; infill
G1 X106.768 Y71.229 E28.38466 ; infill
G1 X118.771 Y83.232 E28.95875 ; infill
G1 X118.771 Y83.758 E28.97654 ; infill
G1 X106.242 Y71.229 E29.57579 ; infill
G1 X105.715 Y71.229 E29.59361 ; infill
G1 X118.771 Y84.285 E30.21806 ; infill
G1 X118.771 Y84.811 E30.23585 ; infill
G1 X105.189 Y71.229 E30.88546 ; infill
G1 X104.662 Y71.229 E30.90328 ; infill
G1 X118.771 Y85.338 E31.5781 ; infill
G1 X118.771 Y85.864 E31.59589 ; infill
G1 X104.136 Y71.229 E32.29586 ; infill
G1 X103.609 Y71.229 E32.31368 ; infill
G1 X118.771 Y86.391 E33.03886 ; infill
G1 X118.771 Y86.917 E33.05665 ; infill
G1 X103.083 Y71.229 E33.80699 ; infill
G1 X102.556 Y71.229 E33.82481 ; infill
G1 X118.771 Y87.444 E34.60035 ; infill
G1 X118.771 Y87.97 E34.61814 ; infill
G1 X102.03 Y71.229 E35.41884 ; infill
G1 X101.503 Y71.229 E35.43666 ; infill
G1 X118.771 Y88.497 E36.26257 ; infill
G1 X118.771 Y89.023 E36.28036 ; infill
G1 X100.977 Y71.229 E37.13142 ; infill
G1 X100.45 Y71.229 E37.14924 ; infill
G1 X118.771 Y89.55 E38.02551 ; infill
G1 X118.771 Y90.076 E38.0433 ; infill
G1 X99.924 Y71.229 E38.94473 ; infill
G1 X99.397 Y71.229 E38.96255 ; infill
G1 X118.771 Y90.603 E39.88918 ; infill
G1 X118.771 Y91.129 E39.90697 ; infill
G1 X98.871 Y71.229 E40.85876 ; infill
G1 X98.344 Y71.229 E40.87658 ; infill
G1 X118.771 Y91.656 E41.85358 ; infill
G1 X118.771 Y92.182 E41.87137 ; infill
G1 X97.818 Y71.229 E42.87353 ; infill
G1 X97.291 Y71.229 E42.89135 ; infill
G1 X118.771 Y92.709 E43.91871 ; infill
G1 X118.771 Y93.235 E43.9365 ; infill
G1 X96.765 Y71.229 E44.98902 ; infill
G1 X96.238 Y71.229 E45.00684 ; infill
G1 X118.771 Y93.762 E46.08456 ; infill
G1 X118.771 Y94.288 E46.10235 ; infill
G1 X95.712 Y71.229 E47.20523 ; infill
G1 X95.185 Y71.229 E47.22305 ; infill
G1 X118.771 Y94.815 E48.35114 ; infill
G1 X118.771 Y95.341 E48.36893 ; infill
G1 X94.659 Y71.229 E49.52218 ; infill
G1 X94.132 Y71.229 E49.54 ; infill
G1 X118.771 Y95.868 E50.71845 ; infill
G1 X118.771 Y96.394 E50.73624 ; infill
G1 X93.606 Y71.229 E51.93985 ; infill
G1 X93.079 Y71.229 E51.95767 ; infill
G1 X118.771 Y96.921 E53.18649 ; infill
G1 X118.771 Y97.447 E53.20428 ; infill
G1 X92.553 Y71.229 E54.45825 ; infill
G1 X92.026 Y71.229 E54.47607 ; infill
G1 X118.771 Y97.974 E55.75525 ; infill
G1 X118.771 Y98.5 E55.77304 ; infill
G1 X91.5 Y71.229 E57.07738 ; infill
G1 X90.973 Y71.229 E57.0952 ; infill
G1 X118.771 Y99.027 E58.42474 ; infill
G1 X118.771 Y99.553 E58.44253 ; infill
G1 X90.447 Y71.229 E59.79723 ; infill
G1 X89.92 Y71.229 E59.81505 ; infill
G1 X118.771 Y100.08 E61.19496 ; infill
G1 X118.771 Y100.606 E61.21275 ; infill
G1 X89.394 Y71.229 E62.61781 ; infill
G1 X88.867 Y71.229 E62.63563 ; infill
G1 X118.771 Y101.133 E64.0659 ; infill
G1 X118.771 Y101.659 E64.08369 ; infill
G1 X88.341 Y71.229 E65.53912 ; infill
G1 X87.814 Y71.229 E65.55694 ; infill
G1 X118.771 Y102.186 E67.03757 ; infill
G1 X118.771 Y102.712 E67.05536 ; infill
G1 X87.288 Y71.229 E68.56115 ; infill
G1 X86.761 Y71.229 E68.57897 ; infill
G1 X118.771 Y103.239 E70.10997 ; infill
G1 X118.771 Y103.765 E70.12776 ; infill
G1 X86.235 Y71.229 E71.68392 ; infill
G1 X85.708 Y71.229 E71.70174 ; infill
G1 X118.771 Y104.292 E73.2831 ; infill
G1 X118.771 Y104.818 E73.30089 ; infill
G1 X85.182 Y71.229 E74.90741 ; infill
G1 X84.655 Y71.229 E74.92523 ; infill
G1 X118.771 Y105.345 E76.55695 ; infill
G1 X118.771 Y105.871 E76.57474 ; infill
G1 X84.129 Y71.229 E78.23162 ; infill
G1 X83.602 Y71.229 E78.24944 ; infill
G1 X118.771 Y106.398 E79.93153 ; infill
G1 X118.771 Y106.924 E79.94932 ; infill
G1 X83.076 Y71.229 E81.65657 ; infill
G1 X82.549 Y71.229 E81.67439 ; infill
G1 X118.771 Y107.451 E83.40684 ; infill
G1 X118.771 Y107.977 E83.42463 ; infill
G1 X82.023 Y71.229 E85.18224 ; infill
G1 X81.496 Y71.229 E85.20006 ; infill
G1 X118.771 Y108.504 E86.98288 ; infill
G1 X118.771 Y109.03 E87.00067 ; infill
G1 X80.97 Y71.229 E88.80864 ; infill
G1 X80.443 Y71.229 E88.82646 ; infill
G1 X118.771 Y109.557 E90.65964 ; infill
G1 X118.771 Y110.083 E90.67743 ; infill
G1 X79.917 Y71.229 E92.53577 ; infill
G1 X79.39 Y71.229 E92.55359 ; infill
G1 X118.771 Y110.61 E94.43713 ; infill
G1 X118.771 Y111.136 E94.45492 ; infill
G1 X78.864 Y71.229 E96.36362 ; infill
G1 X78.337 Y71.229 E96.38144 ; infill
G1 X118.771 Y111.663 E98.31535 ; infill
G1 X118.771 Y112.189 E98.33314 ; infill
G1 X77.811 Y71.229 E100.2922 ; infill
G1 X77.284 Y71.229 E100.31002 ; infill
G1 X118.771 Y112.716 E102.29429 ; infill
G1 X118.771 Y113.242 E102.31208 ; infill
G1 X76.758 Y71.229 E104.32151 ; infill
G1 X76.231 Y71.229 E104.33933 ; infill
G1 X118.771 Y113.769 E106.37396 ; infill
G1 X118.771 Y114.295 E106.39175 ; infill
G1 X75.705 Y71.229 E108.45154 ; infill
G1 X75.178 Y71.229 E108.46936 ; infill
G1 X118.771 Y114.822 E110.55436 ; infill
G1 X118.771 Y115.348 E110.57215 ; infill
G1 X74.652 Y71.229 E112.68231 ; infill
G1 X74.125 Y71.229 E112.70013 ; infill
G1 X118.771 Y115.875 E114.83549 ; infill
G1 X118.771 Y116.401 E114.85328 ; infill
G1 X73.599 Y71.229 E117.0138 ; infill
G1 X73.072 Y71.229 E117.03162 ; infill
G1 X118.771 Y116.928 E119.21735 ; infill
G1 X118.771 Y117.454 E119.23514 ; infill
G1 X72.546 Y71.229 E121.44602 ; infill
G1 X72.019 Y71.229 E121.46384 ; infill
G1 X118.771 Y117.981 E123.69993 ; infill
G1 X118.771 Y118.507 E123.71772 ; infill
G1 X71.493 Y71.229 E125.97897 ; infill
G1 X71.229 Y71.229 E125.9879 ; infill
G1 X71.229 Y71.493 E125.99683 ; infill
G1 X118.507 Y118.771 E128.25808 ; infill
G1 X117.981 Y118.771 E128.27587 ; infill
G1 X71.229 Y72.019 E130.51196 ; infill
G1 X71.229 Y72.546 E130.52978 ; infill
G1 X117.454 Y118.771 E132.74066 ; infill
G1 X116.928 Y118.771 E132.75845 ; infill
G1 X71.229 Y73.072 E134.94418 ; infill
G1 X71.229 Y73.599 E134.962 ; infill
G1 X116.401 Y118.771 E137.12252 ; infill
G1 X115.875 Y118.771 E137.14031 ; infill
G1 X71.229 Y74.125 E139.27567 ; infill
G1 X71.229 Y74.652 E139.29349 ; infill
G1 X115.348 Y118.771 E141.40365 ; infill
G1 X114.822 Y118.771 E141.42144 ; infill
G1 X71.229 Y75.178 E143.50644 ; infill
G1 X71.229 Y75.705 E143.52426 ; infill
G1 X114.295 Y118.771 E145.58405 ; infill
G1 X113.769 Y118.771 E145.60184 ; infill
G1 X71.229 Y76.231 E147.63647 ; infill
G1 X71.229 Y76.758 E147.65429 ; infill
G1 X113.242 Y118.771 E149.66372 ; infill
G1 X112.716 Y118.771 E149.68151 ; infill
G1 X71.229 Y77.284 E151.66578 ; infill
G1 X71.229 Y77.811 E151.6836 ; infill
G1 X112.189 Y118.771 E153.64266 ; infill
G1 X111.663 Y118.771 E153.66045 ; infill
G1 X71.229 Y78.337 E155.59436 ; infill
G1 X71.229 Y78.864 E155.61218 ; infill
G1 X111.136 Y118.771 E157.52088 ; infill
G1 X110.61 Y118.771 E157.53867 ; infill
G1 X71.229 Y79.39 E159.42221 ; infill
G1 X71.229 Y79.917 E159.44003 ; infill
G1 X110.083 Y118.771 E161.29837 ; infill
G1 X109.557 Y118.771 E161.31616 ; infill
G1 X71.229 Y80.443 E163.14934 ; infill
G1 X71.229 Y80.97 E163.16716 ; infill
G1 X109.03 Y118.771 E164.97513 ; infill
G1 X108.504 Y118.771 E164.99292 ; infill
G1 X71.229 Y81.496 E166.77574 ; infill
G1 X71.229 Y82.023 E166.79356 ; infill
G1 X107.977 Y118.771 E168.55117 ; infill
G1 X107.451 Y118.771 E168.56896 ; infill
G1 X71.229 Y82.549 E170.30141 ; infill
G1 X71.229 Y83.076 E170.31923 ; infill
G1 X106.924 Y118.771 E172.02648 ; infill
G1 X106.398 Y118.771 E172.04427 ; infill
G1 X71.229 Y83.602 E173.72636 ; infill
G1 X71.229 Y84.129 E173.74418 ; infill
G1 X105.871 Y118.771 E175.40106 ; infill
G1 X105.345 Y118.771 E175.41885 ; infill
G1 X71.229 Y84.655 E177.05057 ; infill
G1 X71.229 Y85.182 E177.06839 ; infill
G1 X104.818 Y118.771 E178.67491 ; infill
G1 X104.292 Y118.771 E178.6927 ; infill
G1 X71.229 Y85.708 E180.27406 ; infill
G1 X71.229 Y86.235 E180.29188 ; infill
G1 X103.765 Y118.771 E181.84804 ; infill
G1 X103.239 Y118.771 E181.86583 ; infill
G1 X71.229 Y86.761 E183.39683 ; infill
G1 X71.229 Y87.288 E183.41465 ; infill
G1 X102.712 Y118.771 E184.92044 ; infill
G1 X102.186 Y118.771 E184.93823 ; infill
G1 X71.229 Y87.814 E186.41886 ; infill
G1 X71.229 Y88.341 E186.43668 ; infill
G1 X101.659 Y118.771 E187.89211 ; infill
G1 X101.133 Y118.771 E187.9099 ; infill
G1 X71.229 Y88.867 E189.34017 ; infill
G1 X71.229 Y89.394 E189.35799 ; infill
G1 X100.606 Y118.771 E190.76305 ; infill
G1 X100.08 Y118.771 E190.78084 ; infill
G1 X71.229 Y89.92 E192.16075 ; infill
G1 X71.229 Y90.447 E192.17857 ; infill
G1 X99.553 Y118.771 E193.53327 ; infill
G1 X99.027 Y118.771 E193.55106 ; infill
G1 X71.229 Y90.973 E194.8806 ; infill
G1 X71.229 Y91.5 E194.89842 ; infill
G1 X98.5 Y118.771 E196.20276 ; infill
G1 X97.974 Y118.771 E196.22055 ; infill
G1 X71.229 Y92.026 E197.49973 ; infill
G1 X71.229 Y92.553 E197.51755 ; infill
G1 X97.447 Y118.771 E198.77152 ; infill
G1 X96.921 Y118.771 E198.78931 ; infill
G1 X71.229 Y93.079 E200.01813 ; infill
G1 X71.229 Y93.606 E200.03595 ; infill
G1 X96.394 Y118.771 E201.23956 ; infill
G1 X95.868 Y118.771 E201.25735 ; infill
G1 X71.229 Y94.132 E202.4358 ; infill
G1 X71.229 Y94.659 E202.45362 ; infill
G1 X95.341 Y118.771 E203.60687 ; infill
G1 X94.815 Y118.771 E203.62466 ; infill
G1 X71.229 Y95.185 E204.75275 ; infill
G1 X71.229 Y95.712 E204.77057 ; infill
G1 X94.288 Y118.771 E205.87345 ; infill
G1 X93.762 Y118.771 E205.89124 ; infill
G1 X71.229 Y96.238 E206.96896 ; infill
G1 X71.229 Y96.765 E206.98678 ; infill
G1 X93.235 Y118.771 E208.0393 ; infill
G1 X92.709 Y118.771 E208.05709 ; infill
G1 X71.229 Y97.291 E209.08445 ; infill
G1 X71.229 Y97.818 E209.10227 ; infill
G1 X92.182 Y118.771 E210.10443 ; infill
G1 X91.656 Y118.771 E210.12222 ; infill
G1 X71.229 Y98.344 E211.09922 ; infill
G1 X71.229 Y98.871 E211.11704 ; infill
G1 X91.129 Y118.771 E212.06883 ; infill
G1 X90.603 Y118.771 E212.08662 ; infill
G1 X71.229 Y99.397 E213.01325 ; infill
G1 X71.229 Y99.924 E213.03107 ; infill
G1 X90.076 Y118.771 E213.9325 ; infill
G1 X89.55 Y118.771 E213.95029 ; infill
G1 X71.229 Y100.45 E214.82656 ; infill
G1 X71.229 Y100.977 E214.84438 ; infill
G1 X89.023 Y118.771 E215.69544 ; infill
G1 X88.497 Y118.771 E215.71323 ; infill
G1 X71.229 Y101.503 E216.53914 ; infill
G1 X71.229 Y102.03 E216.55696 ; infill
G1 X87.97 Y118.771 E217.35766 ; infill
G1 X87.444 Y118.771 E217.37545 ; infill
G1 X71.229 Y102.556 E218.15099 ; infill
G1 X71.229 Y103.083 E218.16881 ; infill
G1 X86.917 Y118.771 E218.91915 ; infill
G1 X86.391 Y118.771 E218.93694 ; infill
G1 X71.229 Y103.609 E219.66212 ; infill
G1 X71.229 Y104.136 E219.67994 ; infill
G1 X85.864 Y118.771 E220.37991 ; infill
G1 X85.338 Y118.771 E220.3977 ; infill
G1 X71.229 Y104.662 E221.07252 ; infill
G1 X71.229 Y105.189 E221.09034 ; infill
G1 X84.811 Y118.771 E221.73995 ; infill
G1 X84.285 Y118.771 E221.75774 ; infill
G1 X71.229 Y105.715 E222.38219 ; infill
G1 X71.229 Y106.242 E222.40001 ; infill
G1 X83.758 Y118.771 E222.99926 ; infill
G1 X83.232 Y118.771 E223.01705 ; infill
G1 X71.229 Y106.768 E223.59114 ; infill
G1 X71.229 Y107.295 E223.60896 ; infill
G1 X82.705 Y118.771 E224.15784 ; infill
G1 X82.179 Y118.771 E224.17563 ; infill
G1 X71.229 Y107.821 E224.69935 ; infill
G1 X71.229 Y108.348 E224.71717 ; infill
G1 X81.652 Y118.771 E225.21569 ; infill
G1 X81.126 Y118.771 E225.23348 ; infill
G1 X71.229 Y108.874 E225.70684 ; infill
G1 X71.229 Y109.401 E225.72466 ; infill
G1 X80.599 Y118.771 E226.17282 ; infill
G1 X80.073 Y118.771 E226.19061 ; infill
G1 X71.229 Y109.927 E226.61361 ; infill
G1 X71.229 Y110.454 E226.63143 ; infill
G1 X79.546 Y118.771 E227.02922 ; infill
G1 X79.02 Y118.771 E227.04701 ; infill
G1 X71.229 Y110.98 E227.41964 ; infill
G1 X71.229 Y111.507 E227.43746 ; infill
G1 X78.493 Y118.771 E227.78489 ; infill
G1 X77.967 Y118.771 E227.80268 ; infill
G1 X71.229 Y112.033 E228.12495 ; infill
G1 X71.229 Y112.56 E228.14277 ; infill
G1 X77.44 Y118.771 E228.43983 ; infill
G1 X76.914 Y118.771 E228.45762 ; infill
G1 X71.229 Y113.086 E228.72953 ; infill
G1 X71.229 Y113.613 E228.74735 ; infill
