; generated by PrusaSlicer 2.6.1+MacOS-arm64 on 2024-01-19 at 09:36:32 UTC

; 

; external perimeters extrusion width = 0.45mm
; perimeters extrusion width = 0.45mm
; infill extrusion width = 0.45mm
; solid infill extrusion width = 0.45mm
; top infill extrusion width = 0.40mm
; first layer extrusion width = 0.42mm

M190 S60 ; set bed temperature and wait for it to be reached
M104 S205 ; set temperature
;TYPE:Custom
G28
G29
M109 S205 ; set temperature and wait for it to be reached
G21 ; set units to millimeters
G90 ; use absolute coordinates
M82 ; use absolute distances for extrusion
G92 E0 ; reset extrusion distance
; Filament gcode
M107 ; disable fan
;LAYER_CHANGE
;Z:0.23
;HEIGHT:0.23
G1 Z.23 F1800 ; move to next layer (0)
G1 E-2 F2400 ; retract
G92 E0 ; reset extrusion distance
G1 X60.167 Y47.649 F1800 ; move to first skirt point
G1 E2 F2400 ;  ; unretract
;TYPE:Skirt/Brim
;WIDTH:0.42
G1 F900
G1 X61.911 Y46.229 E2.07572 ; skirt
G1 X65 Y45.429 E2.18316 ; skirt
G1 X125 Y45.429 E4.20334 ; skirt
G1 X127.213 Y45.826 E4.27904 ; skirt
G1 X129.151 Y46.967 E4.35476 ; skirt
G1 X130.571 Y48.711 E4.43048 ; skirt
G1 X131.371 Y51.8 E4.53792 ; skirt
G1 X131.371 Y138.2 E7.44698 ; skirt
G1 X130.974 Y140.413 E7.52268 ; skirt
G1 X129.833 Y142.351 E7.5984 ; skirt
G1 X128.089 Y143.771 E7.67412 ; skirt
G1 X125 Y144.571 E7.78156 ; skirt
G1 X65 Y144.571 E9.80174 ; skirt
G1 X62.787 Y144.174 E9.87744 ; skirt
G1 X60.849 Y143.033 E9.95316 ; skirt
G1 X59.429 Y141.289 E10.02888 ; skirt
G1 X58.629 Y138.2 E10.13632 ; skirt
G1 X58.629 Y51.8 E13.04538 ; skirt
G1 X59.026 Y49.587 E13.12108 ; skirt
G1 X60.137 Y47.701 E13.19478 ; skirt
G1 E11.19478 F2400 ; retract
G92 E0 ; reset extrusion distance
G1 X75.922 Y118.619 F1800 ; move to first perimeter point
G1 E2 F2400 ;  ; unretract
;TYPE:Perimeter
;WIDTH:0.419999
G1 F900
G1 X75.864 Y118.383 E2.00818 ; perimeter
G1 X75.641 Y118.083 E2.02077 ; perimeter
G1 X75.336 Y117.902 E2.03271 ; perimeter
G1 X75.025 Y117.849 E2.04333 ; perimeter
G1 X65.951 Y117.849 E2.34885 ; perimeter
G1 X65.951 Y110.951 E2.5811 ; perimeter
G1 X75.025 Y110.951 E2.88662 ; perimeter
G1 X75.187 Y110.937 E2.89209 ; perimeter
G1 X75.461 Y110.842 E2.90185 ; perimeter
G1 X75.701 Y110.658 E2.91203 ; perimeter
G1 X75.885 Y110.37 E2.92354 ; perimeter
G1 X75.951 Y110.025 E2.93537 ; perimeter
G1 X75.949 Y109.01 E2.96954 ; perimeter
G1 X75.863 Y108.681 E2.98099 ; perimeter
G1 X75.639 Y108.381 E2.9936 ; perimeter
G1 X75.334 Y108.202 E3.00551 ; perimeter
G1 X75.025 Y108.149 E3.01607 ; perimeter
G1 X65.951 Y108.149 E3.32159 ; perimeter
G1 X65.951 Y101.251 E3.55384 ; perimeter
G1 X75.025 Y101.251 E3.85936 ; perimeter
G1 X75.186 Y101.237 E3.8648 ; perimeter
G1 X75.459 Y101.143 E3.87452 ; perimeter
G1 X75.699 Y100.96 E3.88468 ; perimeter
G1 X75.884 Y100.671 E3.89623 ; perimeter
G1 X75.951 Y100.325 E3.9081 ; perimeter
G1 X75.949 Y99.31 E3.94227 ; perimeter
G1 X75.863 Y98.981 E3.95372 ; perimeter
G1 X75.639 Y98.681 E3.96633 ; perimeter
G1 X75.334 Y98.502 E3.97824 ; perimeter
G1 X75.025 Y98.449 E3.9888 ; perimeter
G1 X65.951 Y98.449 E4.29432 ; perimeter
G1 X65.951 Y91.551 E4.52657 ; perimeter
G1 X75.025 Y91.551 E4.83209 ; perimeter
G1 X75.186 Y91.537 E4.83753 ; perimeter
G1 X75.459 Y91.443 E4.84725 ; perimeter
G1 X75.699 Y91.26 E4.85741 ; perimeter
G1 X75.884 Y90.971 E4.86896 ; perimeter
G1 X75.951 Y90.625 E4.88083 ; perimeter
G1 X75.949 Y89.61 E4.915 ; perimeter
G1 X75.863 Y89.281 E4.92645 ; perimeter
G1 X75.639 Y88.981 E4.93906 ; perimeter
G1 X75.334 Y88.802 E4.95097 ; perimeter
G1 X75.025 Y88.749 E4.96153 ; perimeter
G1 X65.951 Y88.749 E5.26705 ; perimeter
G1 X65.951 Y81.851 E5.4993 ; perimeter
G1 X75.025 Y81.851 E5.80482 ; perimeter
G1 X75.186 Y81.837 E5.81026 ; perimeter
G1 X75.459 Y81.743 E5.81998 ; perimeter
G1 X75.699 Y81.56 E5.83014 ; perimeter
G1 X75.884 Y81.271 E5.84169 ; perimeter
G1 X75.951 Y80.925 E5.85356 ; perimeter
G1 X75.95 Y79.918 E5.88747 ; perimeter
G1 X75.864 Y79.583 E5.89912 ; perimeter
G1 X75.641 Y79.283 E5.91171 ; perimeter
G1 X75.336 Y79.102 E5.92365 ; perimeter
G1 X75.025 Y79.049 E5.93427 ; perimeter
G1 X65.951 Y79.049 E6.23979 ; perimeter
G1 X65.951 Y72.151 E6.47204 ; perimeter
G1 X75.025 Y72.151 E6.77756 ; perimeter
G1 X75.187 Y72.137 E6.78303 ; perimeter
G1 X75.461 Y72.042 E6.79279 ; perimeter
G1 X75.701 Y71.858 E6.80297 ; perimeter
G1 X75.885 Y71.57 E6.81448 ; perimeter
G1 X75.951 Y71.225 E6.82631 ; perimeter
G1 X75.947 Y70.187 E6.86126 ; perimeter
G1 X75.842 Y69.838 E6.87353 ; perimeter
G1 X75.625 Y69.569 E6.88517 ; perimeter
G1 X75.323 Y69.398 E6.89686 ; perimeter
G1 X75.025 Y69.349 E6.90703 ; perimeter
G1 X65.951 Y69.349 E7.21255 ; perimeter
G1 X65.951 Y62.451 E7.4448 ; perimeter
G1 X75.025 Y62.451 E7.75032 ; perimeter
G1 X75.18 Y62.438 E7.75556 ; perimeter
G1 X75.445 Y62.35 E7.76496 ; perimeter
G1 X75.686 Y62.174 E7.77501 ; perimeter
G1 X75.879 Y61.884 E7.78674 ; perimeter
G1 X75.951 Y61.525 E7.79907 ; perimeter
G1 X75.933 Y60.392 E7.83722 ; perimeter
G1 X75.804 Y60.074 E7.84877 ; perimeter
G1 X75.62 Y59.865 E7.85815 ; perimeter
G1 X75.351 Y59.708 E7.86864 ; perimeter
G1 X75.025 Y59.649 E7.87979 ; perimeter
G1 X65.951 Y59.649 E8.18531 ; perimeter
G1 X65.951 Y52.751 E8.41756 ; perimeter
G1 X124.049 Y52.751 E10.3737 ; perimeter
G1 X124.049 Y137.249 E13.21872 ; perimeter
G1 X65.951 Y137.249 E15.17486 ; perimeter
G1 X65.951 Y130.351 E15.40711 ; perimeter
G1 X75.025 Y130.351 E15.71263 ; perimeter
G1 X75.185 Y130.337 E15.71804 ; perimeter
G1 X75.495 Y130.223 E15.72916 ; perimeter
G1 X75.723 Y130.034 E15.73913 ; perimeter
G1 X75.906 Y129.71 E15.75166 ; perimeter
G1 X75.951 Y129.425 E15.76137 ; perimeter
G1 X75.942 Y128.345 E15.79773 ; perimeter
G1 X75.842 Y128.038 E15.8086 ; perimeter
G1 X75.625 Y127.769 E15.82024 ; perimeter
G1 X75.323 Y127.598 E15.83193 ; perimeter
G1 X75.025 Y127.549 E15.8421 ; perimeter
G1 X65.951 Y127.549 E16.14762 ; perimeter
G1 X65.951 Y120.651 E16.37987 ; perimeter
G1 X75.025 Y120.651 E16.68539 ; perimeter
G1 X75.18 Y120.638 E16.69063 ; perimeter
G1 X75.445 Y120.55 E16.70003 ; perimeter
G1 X75.686 Y120.374 E16.71008 ; perimeter
G1 X75.879 Y120.084 E16.72181 ; perimeter
G1 X75.951 Y119.725 E16.73414 ; perimeter
G1 X75.951 Y118.738 E16.76737 ; perimeter
G1 X75.936 Y118.678 E16.76945 ; perimeter
G1 X75.559 Y118.684 F1800 ; move to first perimeter point
G1 F900
G1 X75.496 Y118.481 E16.77661 ; perimeter
G1 X75.287 Y118.285 E16.78626 ; perimeter
G1 X75.025 Y118.219 E16.79536 ; perimeter
G1 X65.581 Y118.219 E17.11334 ; perimeter
G1 X65.581 Y110.581 E17.37051 ; perimeter
G1 X75.025 Y110.581 E17.68849 ; perimeter
G1 X75.122 Y110.572 E17.69177 ; perimeter
G1 X75.347 Y110.478 E17.69998 ; perimeter
G1 X75.509 Y110.297 E17.70816 ; perimeter
G1 X75.581 Y110.025 E17.71763 ; perimeter
G1 X75.579 Y109.036 E17.75093 ; perimeter
G1 X75.496 Y108.78 E17.75999 ; perimeter
G1 X75.285 Y108.584 E17.76969 ; perimeter
G1 X75.025 Y108.519 E17.77871 ; perimeter
G1 X65.581 Y108.519 E18.09669 ; perimeter
G1 X65.581 Y100.881 E18.35386 ; perimeter
G1 X75.025 Y100.881 E18.67184 ; perimeter
G1 X75.122 Y100.872 E18.67512 ; perimeter
G1 X75.346 Y100.778 E18.6833 ; perimeter
G1 X75.509 Y100.598 E18.69148 ; perimeter
G1 X75.581 Y100.325 E18.70099 ; perimeter
G1 X75.579 Y99.336 E18.73429 ; perimeter
G1 X75.496 Y99.08 E18.74335 ; perimeter
G1 X75.285 Y98.884 E18.75305 ; perimeter
G1 X75.025 Y98.819 E18.76207 ; perimeter
G1 X65.581 Y98.819 E19.08005 ; perimeter
G1 X65.581 Y91.181 E19.33722 ; perimeter
G1 X75.025 Y91.181 E19.6552 ; perimeter
G1 X75.122 Y91.172 E19.65848 ; perimeter
G1 X75.346 Y91.078 E19.66666 ; perimeter
G1 X75.509 Y90.898 E19.67484 ; perimeter
G1 X75.581 Y90.625 E19.68435 ; perimeter
G1 X75.579 Y89.636 E19.71765 ; perimeter
G1 X75.496 Y89.38 E19.72671 ; perimeter
G1 X75.285 Y89.184 E19.73641 ; perimeter
G1 X75.025 Y89.119 E19.74543 ; perimeter
G1 X65.581 Y89.119 E20.06341 ; perimeter
G1 X65.581 Y81.481 E20.32058 ; perimeter
G1 X75.025 Y81.481 E20.63856 ; perimeter
G1 X75.122 Y81.472 E20.64184 ; perimeter
G1 X75.346 Y81.378 E20.65002 ; perimeter
G1 X75.509 Y81.198 E20.6582 ; perimeter
G1 X75.581 Y80.925 E20.66771 ; perimeter
G1 X75.58 Y79.941 E20.70084 ; perimeter
G1 X75.496 Y79.681 E20.71004 ; perimeter
G1 X75.287 Y79.485 E20.71969 ; perimeter
G1 X75.025 Y79.419 E20.72879 ; perimeter
G1 X65.581 Y79.419 E21.04677 ; perimeter
G1 X65.581 Y71.781 E21.30394 ; perimeter
G1 X75.025 Y71.781 E21.62192 ; perimeter
G1 X75.122 Y71.772 E21.6252 ; perimeter
G1 X75.347 Y71.678 E21.63341 ; perimeter
G1 X75.509 Y71.497 E21.64159 ; perimeter
G1 X75.581 Y71.225 E21.65106 ; perimeter
G1 X75.578 Y70.222 E21.68483 ; perimeter
G1 X75.49 Y69.971 E21.69379 ; perimeter
G1 X75.277 Y69.78 E21.70342 ; perimeter
G1 X75.025 Y69.719 E21.71215 ; perimeter
G1 X65.581 Y69.719 E22.03013 ; perimeter
G1 X65.581 Y62.081 E22.2873 ; perimeter
G1 X75.025 Y62.081 E22.60528 ; perimeter
G1 X75.118 Y62.073 E22.60842 ; perimeter
G1 X75.337 Y61.985 E22.61637 ; perimeter
G1 X75.515 Y61.787 E22.62533 ; perimeter
G1 X75.581 Y61.525 E22.63443 ; perimeter
G1 X75.578 Y60.523 E22.66817 ; perimeter
G1 X75.492 Y60.274 E22.67704 ; perimeter
G1 X75.307 Y60.096 E22.68568 ; perimeter
G1 X75.025 Y60.019 E22.69552 ; perimeter
G1 X65.581 Y60.019 E23.0135 ; perimeter
G1 X65.581 Y52.381 E23.27067 ; perimeter
G1 X124.419 Y52.381 E25.25173 ; perimeter
G1 X124.419 Y137.619 E28.12167 ; perimeter
G1 X65.581 Y137.619 E30.10273 ; perimeter
G1 X65.581 Y129.981 E30.3599 ; perimeter
G1 X75.025 Y129.981 E30.67788 ; perimeter
G1 X75.121 Y129.972 E30.68113 ; perimeter
G1 X75.382 Y129.851 E30.69082 ; perimeter
G1 X75.528 Y129.66 E30.69891 ; perimeter
G1 X75.581 Y129.425 E30.70702 ; perimeter
G1 X75.579 Y128.435 E30.74035 ; perimeter
G1 X75.49 Y128.171 E30.74973 ; perimeter
G1 X75.277 Y127.98 E30.75936 ; perimeter
G1 X75.025 Y127.919 E30.76809 ; perimeter
G1 X65.581 Y127.919 E31.08607 ; perimeter
G1 X65.581 Y120.281 E31.34324 ; perimeter
G1 X75.118 Y120.273 E31.66435 ; perimeter
G1 X75.337 Y120.185 E31.6723 ; perimeter
G1 X75.515 Y119.987 E31.68126 ; perimeter
G1 X75.581 Y119.725 E31.69036 ; perimeter
G1 X75.577 Y118.741 E31.72349 ; perimeter
G1 X75.21 Y118.775 F1800 ; move to first perimeter point
;TYPE:External perimeter
G1 F900
G1 X75.169 Y118.659 E31.72763 ; perimeter
G1 X75.025 Y118.59 E31.73301 ; perimeter
G1 X65.21 Y118.59 E32.06348 ; perimeter
G1 X65.21 Y110.21 E32.34563 ; perimeter
G1 X75.025 Y110.21 E32.6761 ; perimeter
G1 X75.148 Y110.163 E32.68053 ; perimeter
G1 X75.21 Y110.025 E32.68562 ; perimeter
G1 X75.21 Y109.075 E32.71761 ; perimeter
G1 X75.169 Y108.959 E32.72175 ; perimeter
G1 X75.025 Y108.89 E32.72713 ; perimeter
G1 X65.21 Y108.89 E33.0576 ; perimeter
G1 X65.21 Y100.51 E33.33975 ; perimeter
G1 X75.025 Y100.51 E33.67022 ; perimeter
G1 X75.148 Y100.463 E33.67465 ; perimeter
G1 X75.21 Y100.325 E33.67974 ; perimeter
G1 X75.21 Y99.375 E33.71173 ; perimeter
G1 X75.169 Y99.259 E33.71587 ; perimeter
G1 X75.025 Y99.19 E33.72125 ; perimeter
G1 X65.21 Y99.19 E34.05172 ; perimeter
G1 X65.21 Y90.81 E34.33387 ; perimeter
G1 X75.025 Y90.81 E34.66434 ; perimeter
G1 X75.148 Y90.763 E34.66877 ; perimeter
G1 X75.21 Y90.625 E34.67386 ; perimeter
G1 X75.21 Y89.675 E34.70585 ; perimeter
G1 X75.169 Y89.559 E34.70999 ; perimeter
G1 X75.025 Y89.49 E34.71537 ; perimeter
G1 X65.21 Y89.49 E35.04584 ; perimeter
G1 X65.21 Y81.11 E35.32799 ; perimeter
G1 X75.025 Y81.11 E35.65846 ; perimeter
G1 X75.148 Y81.063 E35.66289 ; perimeter
G1 X75.21 Y80.925 E35.66798 ; perimeter
G1 X75.21 Y79.975 E35.69997 ; perimeter
G1 X75.169 Y79.859 E35.70411 ; perimeter
G1 X75.025 Y79.79 E35.70949 ; perimeter
G1 X65.21 Y79.79 E36.03996 ; perimeter
G1 X65.21 Y71.41 E36.32211 ; perimeter
G1 X75.025 Y71.41 E36.65258 ; perimeter
G1 X75.148 Y71.363 E36.65701 ; perimeter
G1 X75.21 Y71.225 E36.6621 ; perimeter
G1 X75.21 Y70.275 E36.69409 ; perimeter
G1 X75.167 Y70.156 E36.69835 ; perimeter
G1 X75.025 Y70.09 E36.70362 ; perimeter
G1 X65.21 Y70.09 E37.03409 ; perimeter
G1 X65.21 Y61.71 E37.31624 ; perimeter
G1 X75.025 Y61.71 E37.64671 ; perimeter
G1 X75.145 Y61.666 E37.65101 ; perimeter
G1 X75.21 Y61.525 E37.65624 ; perimeter
G1 X75.21 Y60.575 E37.68823 ; perimeter
G1 X75.164 Y60.453 E37.69262 ; perimeter
G1 X75.025 Y60.39 E37.69776 ; perimeter
G1 X65.21 Y60.39 E38.02823 ; perimeter
G1 X65.21 Y52.01 E38.31038 ; perimeter
G1 X124.79 Y52.01 E40.31642 ; perimeter
G1 X124.79 Y137.99 E43.21134 ; perimeter
G1 X65.21 Y137.99 E45.21738 ; perimeter
G1 X65.21 Y129.61 E45.49953 ; perimeter
G1 X75.025 Y129.61 E45.83 ; perimeter
G1 X75.144 Y129.567 E45.83426 ; perimeter
G1 X75.21 Y129.425 E45.83953 ; perimeter
G1 X75.21 Y128.475 E45.87152 ; perimeter
G1 X75.167 Y128.356 E45.87578 ; perimeter
G1 X75.025 Y128.29 E45.88105 ; perimeter
G1 X65.21 Y128.29 E46.21152 ; perimeter
G1 X65.21 Y119.91 E46.49367 ; perimeter
G1 X75.025 Y119.91 E46.82414 ; perimeter
G1 X75.145 Y119.866 E46.82844 ; perimeter
G1 X75.21 Y119.725 E46.83367 ; perimeter
G1 X75.21 Y118.835 E46.86364 ; perimeter
G1 X75.302 Y118.693 F1800 ; move inwards before travel
G1 E44.86364 F2400 ; retract
G92 E0 ; reset extrusion distance
G1 X123.938 Y53.613 F1800 ; move to first infill point
G1 E2 F2400 ;  ; unretract
;TYPE:Solid infill
;WIDTH:0.420456
G1 F900
G1 X123.354 Y53.029 E2.02784 ; infill
G1 X122.829 Y53.029 E2.04554 ; infill
G1 X123.771 Y53.971 E2.09045 ; infill
G1 X123.771 Y54.496 E2.10815 ; infill
G1 X122.304 Y53.029 E2.17809 ; infill
G1 X121.78 Y53.029 E2.19575 ; infill
G1 X123.771 Y55.02 E2.29067 ; infill
G1 X123.771 Y55.545 E2.30837 ; infill
G1 X121.255 Y53.029 E2.42832 ; infill
G1 X120.73 Y53.029 E2.44602 ; infill
G1 X123.771 Y56.07 E2.591 ; infill
G1 X123.771 Y56.595 E2.6087 ; infill
G1 X120.205 Y53.029 E2.77871 ; infill
G1 X119.68 Y53.029 E2.79641 ; infill
G1 X123.771 Y57.12 E2.99145 ; infill
G1 X123.771 Y57.644 E3.00911 ; infill
G1 X119.156 Y53.029 E3.22913 ; infill
G1 X118.631 Y53.029 E3.24683 ; infill
G1 X123.771 Y58.169 E3.49188 ; infill
G1 X123.771 Y58.694 E3.50958 ; infill
G1 X118.106 Y53.029 E3.77966 ; infill
G1 X117.581 Y53.029 E3.79736 ; infill
G1 X123.771 Y59.219 E4.09247 ; infill
G1 X123.771 Y59.744 E4.11017 ; infill
G1 X117.056 Y53.029 E4.43031 ; infill
G1 X116.532 Y53.029 E4.44797 ; infill
G1 X123.771 Y60.268 E4.79309 ; infill
G1 X123.771 Y60.793 E4.81079 ; infill
G1 X116.007 Y53.029 E5.18094 ; infill
G1 X115.482 Y53.029 E5.19864 ; infill
G1 X123.771 Y61.318 E5.59382 ; infill
G1 X123.771 Y61.843 E5.61152 ; infill
G1 X114.957 Y53.029 E6.03173 ; infill
G1 X114.432 Y53.029 E6.04943 ; infill
G1 X123.771 Y62.368 E6.49467 ; infill
G1 X123.771 Y62.893 E6.51237 ; infill
G1 X113.907 Y53.029 E6.98263 ; infill
G1 X113.383 Y53.029 E7.00029 ; infill
G1 X123.771 Y63.417 E7.49554 ; infill
G1 X123.771 Y63.942 E7.51324 ; infill
G1 X112.858 Y53.029 E8.03352 ; infill
G1 X112.333 Y53.029 E8.05122 ; infill
G1 X123.771 Y64.467 E8.59652 ; infill
G1 X123.771 Y64.992 E8.61422 ; infill
G1 X111.808 Y53.029 E9.18455 ; infill
G1 X111.283 Y53.029 E9.20225 ; infill
G1 X123.771 Y65.517 E9.79761 ; infill
G1 X123.771 Y66.041 E9.81527 ; infill
G1 X110.759 Y53.029 E10.43561 ; infill
G1 X110.234 Y53.029 E10.45331 ; infill
G1 X123.771 Y66.566 E11.09868 ; infill
G1 X123.771 Y67.091 E11.11638 ; infill
G1 X109.709 Y53.029 E11.78678 ; infill
G1 X109.184 Y53.029 E11.80448 ; infill
G1 X123.771 Y67.616 E12.49991 ; infill
G1 X123.771 Y68.141 E12.51761 ; infill
G1 X108.659 Y53.029 E13.23807 ; infill
G1 X108.135 Y53.029 E13.25573 ; infill
G1 X123.771 Y68.665 E14.00117 ; infill
G1 X123.771 Y69.19 E14.01887 ; infill
G1 X107.61 Y53.029 E14.78934 ; infill
G1 X107.085 Y53.029 E14.80704 ; infill
G1 X123.771 Y69.715 E15.60254 ; infill
G1 X123.771 Y70.24 E15.62024 ; infill
G1 X106.56 Y53.029 E16.44077 ; infill
G1 X106.035 Y53.029 E16.45847 ; infill
G1 X123.771 Y70.765 E17.30403 ; infill
G1 X123.771 Y71.29 E17.32173 ; infill
G1 X105.51 Y53.029 E18.19232 ; infill
G1 X104.986 Y53.029 E18.20998 ; infill
G1 X123.771 Y71.814 E19.10555 ; infill
G1 X123.771 Y72.339 E19.12325 ; infill
G1 X104.461 Y53.029 E20.04385 ; infill
G1 X103.936 Y53.029 E20.06155 ; infill
G1 X123.771 Y72.864 E21.00718 ; infill
