; generated by PrusaSlicer 2.6.1+MacOS-arm64 on 2023-12-08 at 11:35:58 UTC

; 

; external perimeters extrusion width = 0.45mm
; perimeters extrusion width = 0.45mm
; infill extrusion width = 0.45mm
; solid infill extrusion width = 0.45mm
; top infill extrusion width = 0.40mm
; first layer extrusion width = 0.42mm

M190 S60 ; set bed temperature and wait for it to be reached
M104 S210 ; set temperature
;TYPE:Custom
;M104 S170 ; set extruder temp for bed leveling
;M140 S60 ; set bed temp
;M109 R170 ; wait for bed leveling temp
;M190 S60 ; wait for bed temp
;G28 ; home all axes
;G29 ; auto bed leveling
;G1 Z5 F5000 ; lift nozzle
;M104 S210 ; set extruder temp
;M109 S210 ; wait for extruder temp
G28 ;
G29 ;
M109 S210 ; set temperature and wait for it to be reached
G21 ; set units to millimeters
G90 ; use absolute coordinates
M82 ; use absolute distances for extrusion
G92 E0
; Filament gcode
M107
;LAYER_CHANGE
;Z:0.2
;HEIGHT:0.2
G1 Z.2 F1800
G1 E-2 F2400
G92 E0
G1 X79.364 Y78.889 F1800
G1 E2 F2400
;TYPE:Skirt/Brim
;WIDTH:0.42
G1 F900
G1 X80.914 Y77.517 E2.0649
G1 X82.726 Y76.201 E2.13512
G1 X84.509 Y75.151 E2.2
G1 X86.641 Y74.163 E2.27368
G1 X88.758 Y73.434 E2.34388
G1 X90.771 Y72.951 E2.40879
G1 X92.988 Y72.639 E2.47899
G1 X95.336 Y72.552 E2.55266
G1 X97.402 Y72.678 E2.61756
G1 X99.613 Y73.028 E2.68775
G1 X101.617 Y73.546 E2.75265
G1 X103.823 Y74.356 E2.82633
G1 X105.836 Y75.337 E2.89654
G1 X107.6 Y76.419 E2.96142
G1 X109.389 Y77.766 E3.03163
G1 X111.111 Y79.364 E3.10529
G1 X112.483 Y80.914 E3.17019
G1 X113.799 Y82.726 E3.24041
G1 X114.979 Y84.758 E3.31409
G1 X115.837 Y86.641 E3.37897
G1 X116.566 Y88.758 E3.44917
G1 X117.049 Y90.771 E3.51408
G1 X117.361 Y92.988 E3.58428
G1 X117.448 Y95.336 E3.65795
G1 X117.322 Y97.402 E3.72285
G1 X116.949 Y99.722 E3.79653
G1 X116.369 Y101.885 E3.86675
G1 X115.644 Y103.823 E3.93163
G1 X114.663 Y105.836 E4.00184
G1 X113.423 Y107.832 E4.07552
G1 X112.163 Y109.474 E4.14041
G1 X110.636 Y111.111 E4.2106
G1 X109.086 Y112.483 E4.2755
G1 X107.181 Y113.859 E4.34918
G1 X105.242 Y114.979 E4.41939
G1 X103.359 Y115.837 E4.48427
G1 X101.242 Y116.566 E4.55447
G1 X98.953 Y117.1 E4.62817
G1 X96.901 Y117.37 E4.69306
G1 X94.664 Y117.448 E4.76324
G1 X92.598 Y117.322 E4.82814
G1 X90.278 Y116.949 E4.90182
G1 X88.115 Y116.369 E4.97204
G1 X86.177 Y115.644 E5.03692
G1 X84.164 Y114.663 E5.10713
G1 X82.4 Y113.581 E5.17201
G1 X80.611 Y112.234 E5.24222
G1 X78.889 Y110.636 E5.31588
G1 X77.517 Y109.086 E5.38078
G1 X76.201 Y107.274 E5.451
G1 X75.151 Y105.491 E5.51588
G1 X74.163 Y103.359 E5.58956
G1 X73.434 Y101.242 E5.65976
G1 X72.951 Y99.229 E5.72467
G1 X72.63 Y96.901 E5.79835
G1 X72.552 Y94.664 E5.86853
G1 X72.678 Y92.598 E5.93343
G1 X73.051 Y90.278 E6.00711
G1 X73.631 Y88.115 E6.07733
G1 X74.356 Y86.177 E6.14221
G1 X75.337 Y84.164 E6.21242
G1 X76.419 Y82.4 E6.2773
G1 X77.837 Y80.526 E6.35098
G1 X79.323 Y78.933 E6.41929
G1 E4.41929 F2400
G92 E0
G1 X110.093 Y95.639 F1800
G1 E2 F2400
;TYPE:Perimeter
;WIDTH:0.419999
G1 F900
G1 X110.052 Y96.317 E2.0213
G1 X109.962 Y97.103 E2.04611
G1 X109.832 Y97.883 E2.0709
G1 X109.661 Y98.655 E2.09569
G1 X109.449 Y99.418 E2.12052
G1 X109.198 Y100.168 E2.14532
G1 X108.907 Y100.908 E2.17025
G1 X108.696 Y101.382 E2.18652
G1 X108.341 Y102.093 E2.21144
G1 X107.951 Y102.782 E2.23626
G1 X107.524 Y103.453 E2.2612
G1 X107.226 Y103.878 E2.27747
G1 X106.742 Y104.509 E2.3024
G1 X106.229 Y105.11 E2.32718
G1 X105.684 Y105.684 E2.352
G1 X105.107 Y106.231 E2.37693
G1 X104.704 Y106.581 E2.39367
G1 X104.093 Y107.067 E2.41815
G1 X103.446 Y107.529 E2.44308
G1 X103.01 Y107.811 E2.45936
G1 X102.325 Y108.215 E2.48429
G1 X101.624 Y108.58 E2.50907
G1 X100.904 Y108.908 E2.53388
G1 X100.168 Y109.198 E2.55868
G1 X99.418 Y109.449 E2.58348
G1 X98.655 Y109.661 E2.60831
G1 X97.883 Y109.832 E2.6331
G1 X97.103 Y109.962 E2.65789
G1 X96.313 Y110.052 E2.68282
G1 X95.795 Y110.089 E2.6991
G1 X94.996 Y110.11 E2.72416
G1 X94.477 Y110.101 E2.74044
G1 X93.683 Y110.052 E2.76538
G1 X92.897 Y109.962 E2.79019
G1 X92.117 Y109.832 E2.81498
G1 X91.345 Y109.661 E2.83977
G1 X90.579 Y109.448 E2.8647
G1 X90.071 Y109.283 E2.88145
G1 X89.34 Y109.009 E2.90593
G1 X88.614 Y108.694 E2.93074
G1 X87.907 Y108.341 E2.95552
G1 X87.218 Y107.951 E2.98034
G1 X86.548 Y107.524 E3.00525
G1 X86.111 Y107.218 E3.02198
G1 X85.491 Y106.742 E3.04649
G1 X84.89 Y106.229 E3.07127
G1 X84.316 Y105.684 E3.09609
G1 X83.769 Y105.107 E3.12102
G1 X83.428 Y104.716 E3.13729
G1 X82.933 Y104.093 E3.16224
G1 X82.474 Y103.449 E3.18704
G1 X82.047 Y102.779 E3.21195
G1 X81.78 Y102.316 E3.22871
G1 X81.42 Y101.624 E3.25317
G1 X81.092 Y100.904 E3.27798
G1 X80.802 Y100.168 E3.30278
G1 X80.551 Y99.418 E3.32758
G1 X80.338 Y98.652 E3.35251
G1 X80.219 Y98.132 E3.36924
G1 X80.077 Y97.364 E3.39373
G1 X79.973 Y96.579 E3.41856
G1 X79.911 Y95.791 E3.44334
G1 X79.89 Y94.996 E3.46828
G1 X79.899 Y94.477 E3.48456
G1 X79.948 Y93.683 E3.5095
G1 X80.038 Y92.897 E3.53431
G1 X80.168 Y92.117 E3.5591
G1 X80.339 Y91.345 E3.58389
G1 X80.551 Y90.582 E3.60872
G1 X80.803 Y89.829 E3.63362
G1 X80.994 Y89.331 E3.65034
G1 X81.306 Y88.615 E3.67483
G1 X81.659 Y87.907 E3.69964
G1 X82.049 Y87.218 E3.72446
G1 X82.474 Y86.551 E3.74926
G1 X82.935 Y85.903 E3.77419
G1 X83.255 Y85.494 E3.79047
G1 X83.771 Y84.89 E3.81538
G1 X84.316 Y84.316 E3.8402
G1 X84.89 Y83.771 E3.86502
G1 X85.491 Y83.258 E3.8898
G1 X86.122 Y82.774 E3.91473
G1 X86.559 Y82.468 E3.93146
G1 X87.218 Y82.049 E3.95595
G1 X87.907 Y81.659 E3.98077
G1 X88.614 Y81.306 E4.00555
G1 X89.343 Y80.989 E4.03047
G1 X89.842 Y80.798 E4.04722
G1 X90.582 Y80.551 E4.07168
G1 X91.345 Y80.339 E4.09651
G1 X92.117 Y80.168 E4.1213
G1 X92.897 Y80.038 E4.14609
G1 X93.683 Y79.948 E4.1709
G1 X94.477 Y79.899 E4.19584
G1 X95.01 Y79.891 E4.21255
G1 X95.791 Y79.911 E4.23705
G1 X96.579 Y79.973 E4.26183
G1 X97.364 Y80.077 E4.28666
G1 X98.146 Y80.221 E4.31159
G1 X98.651 Y80.338 E4.32784
G1 X99.418 Y80.551 E4.3528
G1 X100.168 Y80.802 E4.3776
G1 X100.907 Y81.093 E4.4025
G1 X101.395 Y81.31 E4.41925
G1 X102.093 Y81.659 E4.44372
G1 X102.782 Y82.049 E4.46854
G1 X103.453 Y82.476 E4.49348
G1 X103.878 Y82.774 E4.50975
G1 X104.509 Y83.258 E4.53468
G1 X105.11 Y83.771 E4.55946
G1 X105.684 Y84.316 E4.58428
G1 X106.229 Y84.89 E4.6091
G1 X106.745 Y85.494 E4.63401
G1 X107.073 Y85.915 E4.65074
G1 X107.526 Y86.551 E4.67522
G1 X107.951 Y87.218 E4.70002
G1 X108.341 Y87.907 E4.72484
G1 X108.696 Y88.618 E4.74976
G1 X108.907 Y89.092 E4.76603
G1 X109.198 Y89.832 E4.79096
G1 X109.449 Y90.582 E4.81576
G1 X109.661 Y91.345 E4.84059
G1 X109.832 Y92.117 E4.86538
G1 X109.962 Y92.897 E4.89017
G1 X110.052 Y93.687 E4.9151
G1 X110.089 Y94.205 E4.93138
G1 X110.097 Y95.579 E4.97446
G1 X110.47 Y95.662 F1800
G1 F900
G1 X110.428 Y96.35 E4.99607
G1 X110.336 Y97.155 E5.02147
G1 X110.202 Y97.955 E5.0469
G1 X110.027 Y98.747 E5.07233
G1 X109.81 Y99.528 E5.09775
G1 X109.553 Y100.297 E5.12317
G1 X109.255 Y101.054 E5.14868
G1 X109.037 Y101.543 E5.16547
G1 X108.674 Y102.271 E5.19098
G1 X108.275 Y102.976 E5.21638
G1 X107.838 Y103.662 E5.24188
G1 X107.531 Y104.101 E5.25868
G1 X107.035 Y104.746 E5.28419
G1 X106.509 Y105.363 E5.30961
G1 X105.951 Y105.951 E5.33503
G1 X105.361 Y106.51 E5.36051
G1 X104.945 Y106.871 E5.37778
G1 X104.32 Y107.368 E5.40282
G1 X103.658 Y107.841 E5.42833
G1 X103.209 Y108.132 E5.44511
G1 X102.508 Y108.545 E5.47062
G1 X101.789 Y108.919 E5.49603
G1 X101.051 Y109.256 E5.52147
G1 X100.297 Y109.553 E5.54688
G1 X99.528 Y109.81 E5.5723
G1 X98.747 Y110.027 E5.59772
G1 X97.955 Y110.202 E5.62315
G1 X97.155 Y110.336 E5.64858
G1 X96.347 Y110.428 E5.67408
G1 X95.813 Y110.465 E5.69086
G1 X94.997 Y110.487 E5.71645
G1 X94.462 Y110.477 E5.73323
G1 X93.65 Y110.428 E5.75874
G1 X92.845 Y110.336 E5.78414
G1 X92.045 Y110.202 E5.80957
G1 X91.253 Y110.027 E5.835
G1 X90.47 Y109.809 E5.86048
G1 X89.947 Y109.639 E5.87772
G1 X89.199 Y109.359 E5.90276
G1 X88.455 Y109.036 E5.92819
G1 X87.729 Y108.674 E5.95363
G1 X87.024 Y108.275 E5.97903
G1 X86.338 Y107.838 E6.00453
G1 X85.888 Y107.522 E6.02177
G1 X85.254 Y107.035 E6.04684
G1 X84.637 Y106.509 E6.07226
G1 X84.049 Y105.951 E6.09768
G1 X83.489 Y105.361 E6.12319
G1 X83.138 Y104.957 E6.13997
G1 X82.632 Y104.32 E6.16548
G1 X82.161 Y103.66 E6.1909
G1 X81.724 Y102.974 E6.2164
G1 X81.449 Y102.498 E6.23364
G1 X81.081 Y101.789 E6.25869
G1 X80.744 Y101.051 E6.28413
G1 X80.447 Y100.297 E6.30954
G1 X80.19 Y99.528 E6.33496
G1 X79.973 Y98.744 E6.36047
G1 X79.849 Y98.208 E6.37772
G1 X79.704 Y97.423 E6.40275
G1 X79.598 Y96.619 E6.42818
G1 X79.535 Y95.811 E6.45359
G1 X79.513 Y94.997 E6.47912
G1 X79.523 Y94.462 E6.4959
G1 X79.572 Y93.65 E6.52141
G1 X79.664 Y92.845 E6.54681
G1 X79.798 Y92.045 E6.57224
G1 X79.973 Y91.253 E6.59767
G1 X80.19 Y90.472 E6.62309
G1 X80.448 Y89.701 E6.64858
G1 X80.645 Y89.188 E6.66581
G1 X80.964 Y88.455 E6.69087
G1 X81.326 Y87.729 E6.71631
G1 X81.725 Y87.024 E6.74171
G1 X82.161 Y86.34 E6.76714
G1 X82.633 Y85.678 E6.79263
G1 X82.963 Y85.256 E6.80943
G1 X83.491 Y84.637 E6.83494
G1 X84.049 Y84.049 E6.86036
G1 X84.637 Y83.491 E6.88578
G1 X85.254 Y82.965 E6.9112
G1 X85.899 Y82.47 E6.93669
G1 X86.35 Y82.154 E6.95396
G1 X87.024 Y81.725 E6.97901
G1 X87.729 Y81.326 E7.00441
G1 X88.455 Y80.964 E7.02985
G1 X89.201 Y80.64 E7.05535
G1 X89.714 Y80.443 E7.07258
G1 X90.472 Y80.19 E7.09764
G1 X91.253 Y79.973 E7.12306
G1 X92.045 Y79.798 E7.14849
G1 X92.845 Y79.664 E7.17392
G1 X93.65 Y79.572 E7.19932
G1 X94.462 Y79.523 E7.22483
G1 X95.012 Y79.513 E7.24208
G1 X95.81 Y79.534 E7.26711
G1 X96.619 Y79.598 E7.29255
G1 X97.423 Y79.704 E7.31798
G1 X98.222 Y79.852 E7.34346
G1 X98.744 Y79.973 E7.36026
G1 X99.528 Y80.19 E7.38577
G1 X100.297 Y80.447 E7.41119
G1 X101.053 Y80.745 E7.43667
G1 X101.556 Y80.969 E7.45393
G1 X102.27 Y81.326 E7.47896
G1 X102.976 Y81.725 E7.50439
G1 X103.662 Y82.162 E7.52989
G1 X104.101 Y82.469 E7.54669
G1 X104.746 Y82.965 E7.5722
G1 X105.363 Y83.491 E7.59762
G1 X105.951 Y84.049 E7.62304
G1 X106.509 Y84.637 E7.64846
G1 X107.037 Y85.256 E7.67397
G1 X107.375 Y85.689 E7.69119
G1 X107.839 Y86.34 E7.71626
G1 X108.275 Y87.024 E7.74169
G1 X108.674 Y87.729 E7.76709
G1 X109.037 Y88.457 E7.7926
G1 X109.255 Y88.946 E7.80939
G1 X109.553 Y89.703 E7.8349
G1 X109.81 Y90.472 E7.86032
G1 X110.027 Y91.253 E7.88574
G1 X110.202 Y92.045 E7.91117
G1 X110.336 Y92.845 E7.9366
G1 X110.428 Y93.653 E7.9621
G1 X110.465 Y94.187 E7.97888
G1 X110.474 Y95.602 E8.02325
G1 X110.846 Y95.685 F1800
;TYPE:External perimeter
G1 F900
G1 X110.804 Y96.383 E8.04517
G1 X110.71 Y97.208 E8.0712
G1 X110.572 Y98.027 E8.09724
G1 X110.393 Y98.838 E8.12328
G1 X110.171 Y99.638 E8.14931
G1 X109.907 Y100.426 E8.17537
G1 X109.602 Y101.199 E8.20143
G1 X109.378 Y101.704 E8.21875
G1 X109.007 Y102.448 E8.24482
G1 X108.598 Y103.171 E8.27086
G1 X108.151 Y103.872 E8.29693
G1 X107.835 Y104.324 E8.31422
G1 X107.329 Y104.984 E8.3403
G1 X106.789 Y105.615 E8.36634
G1 X106.217 Y106.217 E8.39238
G1 X105.614 Y106.79 E8.41846
G1 X105.187 Y107.161 E8.4362
G1 X104.547 Y107.669 E8.46182
G1 X103.87 Y108.152 E8.4879
G1 X103.407 Y108.453 E8.50522
G1 X102.691 Y108.875 E8.53128
G1 X101.954 Y109.258 E8.55732
G1 X101.199 Y109.603 E8.58335
G1 X100.426 Y109.907 E8.60939
G1 X99.638 Y110.171 E8.63545
G1 X98.838 Y110.393 E8.66148
G1 X98.027 Y110.572 E8.68752
G1 X97.208 Y110.71 E8.71356
G1 X96.382 Y110.804 E8.73963
G1 X95.831 Y110.842 E8.75695
G1 X94.999 Y110.864 E8.78305
G1 X94.447 Y110.854 E8.80036
G1 X93.617 Y110.804 E8.82643
G1 X92.792 Y110.71 E8.85246
G1 X91.973 Y110.572 E8.8785
G1 X91.162 Y110.393 E8.90454
G1 X90.361 Y110.171 E8.9306
G1 X89.822 Y109.995 E8.94838
G1 X89.057 Y109.709 E8.97399
G1 X88.296 Y109.378 E9.00001
G1 X87.552 Y109.007 E9.02608
G1 X86.829 Y108.598 E9.05212
G1 X86.128 Y108.151 E9.07819
G1 X85.664 Y107.826 E9.09595
G1 X85.017 Y107.329 E9.12153
G1 X84.385 Y106.789 E9.14759
G1 X83.783 Y106.217 E9.17363
G1 X83.21 Y105.614 E9.19971
G1 X82.848 Y105.198 E9.217
G1 X82.331 Y104.547 E9.24307
G1 X81.848 Y103.871 E9.26912
G1 X81.402 Y103.17 E9.29517
G1 X81.119 Y102.679 E9.31294
G1 X80.742 Y101.954 E9.33856
G1 X80.397 Y101.198 E9.36462
G1 X80.093 Y100.426 E9.39063
G1 X79.829 Y99.638 E9.41669
G1 X79.607 Y98.837 E9.44275
G1 X79.48 Y98.285 E9.46051
G1 X79.331 Y97.482 E9.48612
G1 X79.223 Y96.658 E9.51218
G1 X79.158 Y95.83 E9.53822
G1 X79.136 Y94.999 E9.56428
G1 X79.146 Y94.447 E9.58159
G1 X79.196 Y93.617 E9.60766
G1 X79.29 Y92.792 E9.63369
G1 X79.428 Y91.973 E9.65973
G1 X79.607 Y91.162 E9.68577
G1 X79.829 Y90.362 E9.7118
G1 X80.093 Y89.573 E9.73789
G1 X80.296 Y89.045 E9.75563
G1 X80.622 Y88.296 E9.78124
G1 X80.993 Y87.552 E9.80731
G1 X81.402 Y86.829 E9.83335
G1 X81.848 Y86.129 E9.85937
G1 X82.331 Y85.452 E9.88545
G1 X82.671 Y85.017 E9.90276
G1 X83.211 Y84.385 E9.92882
G1 X83.783 Y83.782 E9.95488
G1 X84.385 Y83.211 E9.9809
G1 X85.016 Y82.671 E10.00694
G1 X85.676 Y82.165 E10.03302
G1 X86.14 Y81.841 E10.05076
G1 X86.829 Y81.402 E10.07638
G1 X87.552 Y80.993 E10.10242
G1 X88.296 Y80.622 E10.12849
G1 X89.058 Y80.291 E10.15454
G1 X89.587 Y80.088 E10.17231
G1 X90.362 Y79.829 E10.19793
G1 X91.162 Y79.607 E10.22396
G1 X91.973 Y79.428 E10.25
G1 X92.792 Y79.29 E10.27604
G1 X93.617 Y79.196 E10.30207
G1 X94.447 Y79.146 E10.32814
G1 X95.014 Y79.136 E10.34592
G1 X95.83 Y79.158 E10.37151
G1 X96.658 Y79.223 E10.39755
G1 X97.482 Y79.331 E10.42361
G1 X98.299 Y79.483 E10.44967
G1 X98.837 Y79.607 E10.46698
G1 X99.638 Y79.829 E10.49304
G1 X100.426 Y80.093 E10.5191
G1 X101.199 Y80.397 E10.54514
G1 X101.717 Y80.628 E10.56292
G1 X102.448 Y80.993 E10.58854
G1 X103.171 Y81.402 E10.61458
G1 X103.872 Y81.849 E10.64065
G1 X104.324 Y82.165 E10.65794
G1 X104.984 Y82.671 E10.68402
G1 X105.615 Y83.211 E10.71006
G1 X106.217 Y83.783 E10.7361
G1 X106.789 Y84.385 E10.76214
G1 X107.329 Y85.017 E10.7882
G1 X107.678 Y85.464 E10.80598
G1 X108.152 Y86.129 E10.83159
G1 X108.598 Y86.829 E10.85761
G1 X109.007 Y87.552 E10.88365
G1 X109.378 Y88.296 E10.90972
G1 X109.602 Y88.801 E10.92704
G1 X109.907 Y89.574 E10.9531
G1 X110.171 Y90.362 E10.97916
G1 X110.393 Y91.162 E11.00519
G1 X110.572 Y91.973 E11.03123
G1 X110.71 Y92.792 E11.05727
G1 X110.804 Y93.618 E11.08334
G1 X110.842 Y94.169 E11.10066
G1 X110.85 Y95.625 E11.14631
G1 X110.493 Y95.873 F1800
G1 E9.14631 F2400
G92 E0
G1 X103.896 Y82.93 F1800
G1 E2 F2400
;TYPE:Solid infill
;WIDTH:0.423051
G1 F900
G1 X105.524 Y84.558 E2.07277
G1 X106.018 Y85.079 E2.09546
G1 X106.526 Y85.673 E2.12016
G1 X106.846 Y86.084 E2.13662
G1 X107.292 Y86.709 E2.16089
G1 X107.563 Y87.135 E2.17685
G1 X102.865 Y82.437 E2.38685
G1 X101.96 Y81.909 E2.41997
G1 X101.639 Y81.748 E2.43132
G1 X108.251 Y88.361 E2.7269
G1 X108.44 Y88.739 E2.74026
G1 X108.705 Y89.352 E2.76137
G1 X100.648 Y81.295 E3.12152
G1 X99.789 Y80.973 E3.15052
G1 X109.027 Y90.211 E3.56346
G1 X109.269 Y90.991 E3.58927
G1 X99.009 Y80.731 E4.0479
G1 X98.284 Y80.544 E4.07157
G1 X109.452 Y91.712 E4.57079
G1 X109.59 Y92.388 E4.5926
G1 X97.613 Y80.41 E5.128
G1 X96.976 Y80.311 E5.14838
G1 X109.693 Y93.028 E5.71684
G1 X109.762 Y93.634 E5.73612
G1 X96.368 Y80.24 E6.33484
G1 X95.784 Y80.194 E6.35336
G1 X109.806 Y94.216 E6.98015
G1 X109.821 Y94.768 E6.9976
G1 X95.233 Y80.18 E7.64969
G1 X94.696 Y80.182 E7.66666
G1 X109.821 Y95.307 E8.34275
G1 X109.799 Y95.822 E8.35904
G1 X94.178 Y80.201 E9.05731
G1 X93.673 Y80.234 E9.07331
G1 X109.766 Y96.327 E9.79268
G1 X109.711 Y96.809 E9.80801
G1 X93.191 Y80.289 E10.54646
G1 X92.719 Y80.354 E10.56152
G1 X109.646 Y97.281 E11.31817
G1 X109.569 Y97.742 E11.33294
G1 X92.258 Y80.431 E12.10675
G1 X91.814 Y80.525 E12.1211
G1 X109.475 Y98.186 E12.91056
G1 X109.376 Y98.624 E12.92475
G1 X91.376 Y80.624 E13.72936
G1 X90.955 Y80.741 E13.74317
G1 X109.259 Y99.045 E14.56137
G1 X109.137 Y99.46 E14.57504
G1 X90.54 Y80.863 E15.40634
G1 X90.137 Y80.998 E15.41977
G1 X109.002 Y99.863 E16.26304
G1 X108.859 Y100.258 E16.27632
G1 X89.741 Y81.14 E17.1309
G1 X89.356 Y81.292 E17.14398
G1 X108.707 Y100.643 E18.00898
G1 X108.547 Y101.021 E18.02195
G1 X88.981 Y81.455 E18.89656
G1 X88.612 Y81.623 E18.90938
G1 X108.377 Y101.388 E19.79289
G1 X108.198 Y101.747 E19.80557
G1 X88.253 Y81.802 E20.69712
G1 X87.901 Y81.987 E20.70969
G1 X108.013 Y102.099 E21.60871
G1 X107.818 Y102.443 E21.62121
G1 X87.557 Y82.182 E22.52689
