; generated by PrusaSlicer 2.6.1+MacOS-arm64 on 2023-12-15 at 13:42:15 UTC

; 

; external perimeters extrusion width = 0.45mm
; perimeters extrusion width = 0.45mm
; infill extrusion width = 0.45mm
; solid infill extrusion width = 0.45mm
; top infill extrusion width = 0.40mm
; first layer extrusion width = 0.42mm

M190 S60 ; set bed temperature and wait for it to be reached
M104 S210 ; set temperature
;TYPE:Custom
G28
G29
M109 S210 ; set temperature and wait for it to be reached
G21 ; set units to millimeters
G90 ; use absolute coordinates
M82 ; use absolute distances for extrusion
G92 E0 ; reset extrusion distance
; Filament gcode
M107 ; disable fan
;LAYER_CHANGE
;Z:0.22
;HEIGHT:0.22
G1 Z.22 F1800 ; move to next layer (0)
G1 E-2 F2400 ; retract
G92 E0 ; reset extrusion distance
G1 X27.422 Y39.034 F1800 ; move to first skirt point
G1 E2 F2400 ;  ; unretract
;TYPE:Skirt/Brim
;WIDTH:0.42
G1 F900
G1 X28.396 Y38.388 E2.03786 ; skirt
G1 X29.377 Y37.92 E2.07307 ; skirt
G1 X30.475 Y37.571 E2.11039 ; skirt
G1 X31.573 Y37.384 E2.14647 ; skirt
G1 X55.311 Y35.932 E2.91684 ; skirt
G1 X56.865 Y35.895 E2.96719 ; skirt
G1 X59.612 Y36.11 E3.05644 ; skirt
G1 X62.432 Y36.714 E3.14986 ; skirt
G1 X64.862 Y37.57 E3.23331 ; skirt
G1 X67.359 Y38.824 E3.32382 ; skirt
G1 X69.686 Y40.406 E3.41497 ; skirt
G1 X71.743 Y42.241 E3.50426 ; skirt
G1 X73.633 Y44.442 E3.59823 ; skirt
G1 X75.125 Y46.745 E3.68712 ; skirt
G1 X75.738 Y48.261 E3.74009 ; skirt
G1 X75.922 Y49.061 E3.76668 ; skirt
G1 X76.028 Y50.022 E3.798 ; skirt
G1 X75.938 Y51.594 E3.849 ; skirt
G1 X75.467 Y53.27 E3.90539 ; skirt
G1 X74.515 Y55.025 E3.97006 ; skirt
G1 X73.108 Y56.977 E4.048 ; skirt
G1 X71.553 Y58.695 E4.12306 ; skirt
G1 X69.8 Y60.25 E4.19896 ; skirt
G1 X68.422 Y61.255 E4.25421 ; skirt
G1 X66.831 Y62.221 E4.3145 ; skirt
G1 X65.31 Y62.98 E4.36956 ; skirt
G1 X63.666 Y63.639 E4.42693 ; skirt
G1 X61.873 Y64.184 E4.48763 ; skirt
G1 X60.263 Y64.531 E4.54098 ; skirt
G1 X58.537 Y64.762 E4.59739 ; skirt
G1 X56.68 Y64.852 E4.65761 ; skirt
G1 X31.224 Y63.318 E5.48368 ; skirt
G1 X29.743 Y62.961 E5.53303 ; skirt
G1 X28.41 Y62.365 E5.58033 ; skirt
G1 X27.038 Y61.395 E5.63476 ; skirt
G1 X26.053 Y60.36 E5.68104 ; skirt
G1 X25.537 Y59.632 E5.70994 ; skirt
G1 X24.955 Y58.52 E5.7506 ; skirt
G1 X24.603 Y57.53 E5.78464 ; skirt
G1 X24.333 Y56.139 E5.83054 ; skirt
G1 X24.304 Y44.917 E6.19405 ; skirt
G1 X24.603 Y43.216 E6.24999 ; skirt
G1 X25.24 Y41.63 E6.30535 ; skirt
G1 X26.177 Y40.233 E6.35984 ; skirt
G1 X27.379 Y39.075 E6.4139 ; skirt
G1 E4.4139 F2400 ; retract
G92 E0 ; reset extrusion distance
G1 X58.474 Y50.835 F1800 ; move to first perimeter point
G1 E2 F2400 ;  ; unretract
;TYPE:Perimeter
;WIDTH:0.462566
G1 F900
G1 X58.618 Y50.592 E2.01019 ; perimeter
G1 X58.968 Y51.466 E2.04417 ; perimeter
;WIDTH:0.415697
G1 X59.167 Y51.932 E2.06039 ; perimeter
;WIDTH:0.368827
G1 X59.214 Y52.049 E2.06391 ; perimeter
;WIDTH:0.363604
G1 X59.416 Y52.584 E2.07963 ; perimeter
;WIDTH:0.400298
G1 X59.502 Y52.826 E2.08751 ; perimeter
;WIDTH:0.436992
G1 X59.587 Y53.067 E2.09617 ; perimeter
G1 X59.487 Y53.387 E2.10752 ; perimeter
;WIDTH:0.403508
G1 X59.266 Y53.927 E2.12558 ; perimeter
;WIDTH:0.390756
G1 X59.117 Y54.086 E2.13208 ; perimeter
;WIDTH:0.421718
G1 X58.952 Y54.12 E2.13756 ; perimeter
;WIDTH:0.455519
G1 X58.786 Y54.155 E2.14358 ; perimeter
;WIDTH:0.48932
G1 X58.621 Y54.189 E2.15005 ; perimeter
G1 X58.715 Y54.077 E2.15567 ; perimeter
;WIDTH:0.455519
G1 X58.81 Y53.964 E2.16091 ; perimeter
;WIDTH:0.421718
G1 X58.905 Y53.852 E2.16569 ; perimeter
;WIDTH:0.387916
G1 X59.046 Y53.59 E2.1745 ; perimeter
;WIDTH:0.410466
G1 X59.118 Y53.331 E2.18299 ; perimeter
;WIDTH:0.436992
G1 X59.189 Y53.073 E2.19205 ; perimeter
G1 X59.141 Y52.83 E2.20044 ; perimeter
;WIDTH:0.395204
G1 X59.093 Y52.587 E2.20793 ; perimeter
;WIDTH:0.368827
G1 X58.878 Y52.071 E2.22355 ; perimeter
;WIDTH:0.415697
G1 X58.638 Y51.625 E2.23977 ; perimeter
;WIDTH:0.462566
G1 X58.333 Y51.073 E2.26253 ; perimeter
G1 X58.444 Y50.887 E2.27035 ; perimeter
G1 E.27035 F2400 ; retract
G92 E0 ; reset extrusion distance
G1 X63.838 Y50.801 F1800 ; move to first perimeter point
G1 E2 F2400 ;  ; unretract
;WIDTH:0.440749
G1 F900
G1 X63.413 Y51.393 E2.02492 ; perimeter
;WIDTH:0.477453
G1 X63.243 Y51.599 E2.0349 ; perimeter
;WIDTH:0.514156
G1 X63.072 Y51.805 E2.04576 ; perimeter
G1 X63.149 Y51.536 E2.05711 ; perimeter
;WIDTH:0.477453
G1 X63.225 Y51.267 E2.06756 ; perimeter
;WIDTH:0.440749
G1 X63.474 Y50.548 E2.09358 ; perimeter
G1 X63.531 Y50.591 E2.09602 ; perimeter
G1 X63.894 Y50.724 E2.10924 ; perimeter
G1 X63.873 Y50.753 E2.11046 ; perimeter
G1 E.11046 F2400 ; retract
G92 E0 ; reset extrusion distance
G1 X65.59 Y47.9 F1800 ; move to first perimeter point
G1 E2 F2400 ;  ; unretract
;WIDTH:0.419999
G1 F900
G1 X64.505 Y47.897 E2.03515 ; perimeter
G1 X63.937 Y47.96 E2.05366 ; perimeter
G1 X63.672 Y48.035 E2.06258 ; perimeter
G1 X63.296 Y48.282 E2.07715 ; perimeter
G1 X62.964 Y48.032 E2.09061 ; perimeter
G1 X62.723 Y47.959 E2.09877 ; perimeter
G1 X62.211 Y47.918 E2.11541 ; perimeter
G1 X61.921 Y48.007 E2.12524 ; perimeter
G1 X61.434 Y48.358 E2.14469 ; perimeter
G1 X61.094 Y48.893 E2.16522 ; perimeter
G1 X60.912 Y48.568 E2.17729 ; perimeter
G1 X60.646 Y48.254 E2.19062 ; perimeter
G1 X60.191 Y48.011 E2.20733 ; perimeter
G1 X59.86 Y47.919 E2.21846 ; perimeter
G1 X59.367 Y47.929 E2.23443 ; perimeter
G1 X58.941 Y48.075 E2.24902 ; perimeter
G1 X58.687 Y48.292 E2.25984 ; perimeter
G1 X58.372 Y48.063 E2.27245 ; perimeter
G1 X58.016 Y47.928 E2.28478 ; perimeter
G1 X57.572 Y47.911 E2.29917 ; perimeter
G1 X57.085 Y48.088 E2.31595 ; perimeter
G1 X56.715 Y48.401 E2.33165 ; perimeter
G1 X56.459 Y48.153 E2.3432 ; perimeter
G1 X56.179 Y48.007 E2.35343 ; perimeter
G1 X55.849 Y47.913 E2.36454 ; perimeter
G1 X55.424 Y47.924 E2.37831 ; perimeter
G1 X54.921 Y48.102 E2.39559 ; perimeter
G1 X54.554 Y48.408 E2.41107 ; perimeter
G1 X54.395 Y48.659 E2.42069 ; perimeter
G1 X54.253 Y49.101 E2.43573 ; perimeter
G1 X54.271 Y49.536 E2.44983 ; perimeter
G1 X54.395 Y49.91 E2.46259 ; perimeter
G1 X54.683 Y50.495 E2.48371 ; perimeter
G1 X55.046 Y51.129 E2.50737 ; perimeter
G1 X54.804 Y51.512 E2.52205 ; perimeter
G1 X54.717 Y51.4 E2.52664 ; perimeter
G1 X54.473 Y51.181 E2.53726 ; perimeter
G1 X53.989 Y50.906 E2.55529 ; perimeter
G1 X53.456 Y50.798 E2.57291 ; perimeter
G1 X53.094 Y50.799 E2.58464 ; perimeter
G1 X53.078 Y49.719 E2.61963 ; perimeter
G1 X52.987 Y49.14 E2.63862 ; perimeter
G1 X52.873 Y48.766 E2.65128 ; perimeter
G1 X52.665 Y48.222 E2.67015 ; perimeter
G1 X52.336 Y47.69 E2.69041 ; perimeter
G1 X51.962 Y47.278 E2.70843 ; perimeter
G1 X51.478 Y46.92 E2.72793 ; perimeter
G1 X50.961 Y46.689 E2.74627 ; perimeter
G1 X50.406 Y46.551 E2.7648 ; perimeter
G1 X49.876 Y46.487 E2.78209 ; perimeter
G1 X48.289 Y46.451 E2.83351 ; perimeter
G1 X47.672 Y46.541 E2.85371 ; perimeter
G1 X47.208 Y46.764 E2.87039 ; perimeter
G1 X46.919 Y47.052 E2.88361 ; perimeter
G1 X46.717 Y47.52 E2.90012 ; perimeter
G1 X46.283 Y46.952 E2.92327 ; perimeter
G1 X45.808 Y46.628 E2.94189 ; perimeter
G1 X45.497 Y46.483 E2.95301 ; perimeter
G1 X44.819 Y46.323 E2.97558 ; perimeter
G1 X44.036 Y46.299 E3.00096 ; perimeter
G1 X43.256 Y46.438 E3.02662 ; perimeter
G1 X42.615 Y46.717 E3.04926 ; perimeter
G1 X42.325 Y46.955 E3.06141 ; perimeter
G1 X42.07 Y46.697 E3.07316 ; perimeter
G1 X41.821 Y46.577 E3.08211 ; perimeter
G1 X41.308 Y46.462 E3.09914 ; perimeter
G1 X38.042 Y46.473 E3.20493 ; perimeter
G1 X37.465 Y46.433 E3.22367 ; perimeter
G1 X37.184 Y46.456 E3.2328 ; perimeter
G1 X36.683 Y46.622 E3.2499 ; perimeter
G1 X36.364 Y46.891 E3.26342 ; perimeter
G1 X36.241 Y47.056 E3.27009 ; perimeter
G1 X36.103 Y46.938 E3.27597 ; perimeter
G1 X35.412 Y46.521 E3.30211 ; perimeter
G1 X34.921 Y46.374 E3.31871 ; perimeter
G1 X34.055 Y46.294 E3.34688 ; perimeter
G1 X33.328 Y46.377 E3.37058 ; perimeter
G1 X32.638 Y46.609 E3.39416 ; perimeter
G1 X32.155 Y46.887 E3.41221 ; perimeter
G1 X31.614 Y47.37 E3.4357 ; perimeter
G1 X31.614 Y46.016 E3.47956 ; perimeter
G1 X31.646 Y45.265 E3.50391 ; perimeter
G1 X31.804 Y44.953 E3.51524 ; perimeter
G1 X32.034 Y44.759 E3.52499 ; perimeter
G1 X32.409 Y44.667 E3.5375 ; perimeter
G1 X55.739 Y43.248 E4.29461 ; perimeter
G1 X56.598 Y43.223 E4.32245 ; perimeter
G1 X57.608 Y43.259 E4.35519 ; perimeter
G1 X58.372 Y43.337 E4.38007 ; perimeter
G1 X59.146 Y43.46 E4.40546 ; perimeter
G1 X60.184 Y43.695 E4.43993 ; perimeter
G1 X60.936 Y43.919 E4.46535 ; perimeter
G1 X61.942 Y44.292 E4.5001 ; perimeter
G1 X62.746 Y44.657 E4.5287 ; perimeter
G1 X63.612 Y45.123 E4.56056 ; perimeter
G1 X64.291 Y45.545 E4.58646 ; perimeter
G1 X65.16 Y46.171 E4.62115 ; perimeter
G1 X65.916 Y46.804 E4.65309 ; perimeter
G1 X66.55 Y47.413 E4.68157 ; perimeter
G1 X67.107 Y48.019 E4.70823 ; perimeter
G1 X66.561 Y47.902 E4.72632 ; perimeter
G1 X65.65 Y47.9 E4.75583 ; perimeter
G1 E2.75583 F2400 ; retract
G92 E0 ; reset extrusion distance
G1 X66.84 Y51.567 F1800 ; move to first perimeter point
G1 E2 F2400 ;  ; unretract
G1 F900
G1 X67.458 Y50.692 E2.0347 ; perimeter
G1 X67.777 Y50.138 E2.05541 ; perimeter
G1 X67.886 Y49.844 E2.06557 ; perimeter
G1 X67.943 Y49.391 E2.08036 ; perimeter
G1 X67.89 Y49.015 E2.09266 ; perimeter
G1 X68.223 Y49.485 E2.11132 ; perimeter
G1 X68.646 Y50.183 E2.13776 ; perimeter
G1 X68.698 Y50.398 E2.14493 ; perimeter
G1 X68.671 Y50.503 E2.14844 ; perimeter
G1 X68.409 Y50.969 E2.16576 ; perimeter
G1 X68.005 Y51.58 E2.18949 ; perimeter
G1 X67.673 Y52.031 E2.20763 ; perimeter
G1 X67.355 Y51.751 E2.22135 ; perimeter
G1 X66.896 Y51.587 E2.23714 ; perimeter
G1 E.23714 F2400 ; retract
G92 E0 ; reset extrusion distance
G1 X35.072 Y50.998 F1800 ; move to first perimeter point
G1 E2 F2400 ;  ; unretract
G1 F900
G1 X34.952 Y51.005 E2.00389 ; perimeter
G1 X34.546 Y51.19 E2.01834 ; perimeter
G1 X34.238 Y51.452 E2.03144 ; perimeter
G1 X33.997 Y51.455 E2.03925 ; perimeter
G1 X33.807 Y51.381 E2.04585 ; perimeter
G1 X33.671 Y51.187 E2.05352 ; perimeter
G1 X33.57 Y50.695 E2.06979 ; perimeter
G1 X33.574 Y49.941 E2.09421 ; perimeter
G1 X33.71 Y49.406 E2.11209 ; perimeter
G1 X33.927 Y49.226 E2.12122 ; perimeter
G1 X34.096 Y49.218 E2.1267 ; perimeter
G1 X34.66 Y49.537 E2.14769 ; perimeter
G1 X34.938 Y49.64 E2.15729 ; perimeter
G1 X35.464 Y49.725 E2.17455 ; perimeter
G1 X35.881 Y49.64 E2.18834 ; perimeter
G1 X36.203 Y49.467 E2.20018 ; perimeter
G1 X36.56 Y49.105 E2.21665 ; perimeter
G1 X36.884 Y49.287 E2.22869 ; perimeter
G1 X37.195 Y49.357 E2.23902 ; perimeter
G1 X37.87 Y49.323 E2.26091 ; perimeter
G1 X37.874 Y51.911 E2.34474 ; perimeter
G1 X37.85 Y53.078 E2.38255 ; perimeter
G1 X37.969 Y53.459 E2.39548 ; perimeter
G1 X38.129 Y53.741 E2.40598 ; perimeter
G1 X38.445 Y54.006 E2.41934 ; perimeter
G1 X38.79 Y54.162 E2.4316 ; perimeter
G1 X39.031 Y54.216 E2.4396 ; perimeter
G1 X39.359 Y54.23 E2.45023 ; perimeter
G1 X39.906 Y54.095 E2.46848 ; perimeter
G1 X40.248 Y53.864 E2.48185 ; perimeter
G1 X40.537 Y53.482 E2.49737 ; perimeter
G1 X40.694 Y52.978 E2.51447 ; perimeter
G1 X40.731 Y52.717 E2.52301 ; perimeter
G1 X40.716 Y49.329 E2.63276 ; perimeter
G1 X41.173 Y49.319 E2.64757 ; perimeter
G1 X41.806 Y49.188 E2.66851 ; perimeter
G1 X42.131 Y48.987 E2.68089 ; perimeter
G1 X42.318 Y49.191 E2.68985 ; perimeter
G1 X42.628 Y49.406 E2.70207 ; perimeter
G1 X42.551 Y49.576 E2.70812 ; perimeter
G1 X42.48 Y50.037 E2.72323 ; perimeter
G1 X42.48 Y50.373 E2.73411 ; perimeter
G1 X42.634 Y50.8 E2.74881 ; perimeter
G1 X42.922 Y51.128 E2.76295 ; perimeter
G1 X42.618 Y51.229 E2.77333 ; perimeter
G1 X42.251 Y51.458 E2.78734 ; perimeter
G1 X41.939 Y51.87 E2.80408 ; perimeter
G1 X41.81 Y52.252 E2.81714 ; perimeter
G1 X41.788 Y52.71 E2.83199 ; perimeter
G1 X41.935 Y53.224 E2.84931 ; perimeter
G1 X42.21 Y53.65 E2.86573 ; perimeter
G1 X42.642 Y53.993 E2.8836 ; perimeter
G1 X42.945 Y54.147 E2.89461 ; perimeter
G1 X43.717 Y54.35 E2.92047 ; perimeter
G1 X44.335 Y54.382 E2.94052 ; perimeter
G1 X44.837 Y54.343 E2.95683 ; perimeter
G1 X45.36 Y54.212 E2.97429 ; perimeter
G1 X45.975 Y53.907 E2.99653 ; perimeter
G1 X46.365 Y53.583 E3.01295 ; perimeter
G1 X46.754 Y53.103 E3.03296 ; perimeter
G1 X46.856 Y53.461 E3.04502 ; perimeter
G1 X46.967 Y53.641 E3.05187 ; perimeter
G1 X47.273 Y53.982 E3.06671 ; perimeter
G1 X47.705 Y54.185 E3.08217 ; perimeter
G1 X48.063 Y54.244 E3.09392 ; perimeter
G1 X48.67 Y54.205 E3.11362 ; perimeter
G1 X49.427 Y54.211 E3.13814 ; perimeter
G1 X50.033 Y54.174 E3.15781 ; perimeter
G1 X50.545 Y54.092 E3.17461 ; perimeter
G1 X51.15 Y53.899 E3.19518 ; perimeter
G1 X51.58 Y53.641 E3.21142 ; perimeter
G1 X51.617 Y53.716 E3.21413 ; perimeter
G1 X51.918 Y54.12 E3.23045 ; perimeter
G1 X52.478 Y54.498 E3.25234 ; perimeter
G1 X52.824 Y54.626 E3.26429 ; perimeter
G1 X53.267 Y54.691 E3.27879 ; perimeter
G1 X53.86 Y54.603 E3.29821 ; perimeter
G1 X54.202 Y54.46 E3.31022 ; perimeter
G1 X54.7 Y54.102 E3.33009 ; perimeter
G1 X55.136 Y54.338 E3.34615 ; perimeter
G1 X55.539 Y54.404 E3.35938 ; perimeter
G1 X55.878 Y54.375 E3.3704 ; perimeter
G1 X56.315 Y54.175 E3.38597 ; perimeter
G1 X56.628 Y53.855 E3.40047 ; perimeter
G1 X56.723 Y53.978 E3.4055 ; perimeter
G1 X57.047 Y54.24 E3.419 ; perimeter
G1 X57.412 Y54.384 E3.43171 ; perimeter
G1 X57.839 Y54.411 E3.44557 ; perimeter
;WIDTH:0.449158
G1 X58.137 Y54.356 E3.45615 ; perimeter
;WIDTH:0.478316
G1 X58.435 Y54.3 E3.46751 ; perimeter
G1 X58.24 Y54.516 E3.47841 ; perimeter
;WIDTH:0.449158
G1 X58.046 Y54.731 E3.48852 ; perimeter
;WIDTH:0.419999
G1 X57.897 Y55.131 E3.50235 ; perimeter
G1 X57.873 Y55.578 E3.51685 ; perimeter
G1 X58.04 Y56.114 E3.53504 ; perimeter
G1 X58.319 Y56.504 E3.55057 ; perimeter
G1 X58.561 Y56.703 E3.56072 ; perimeter
G1 X58.969 Y56.897 E3.57535 ; perimeter
G1 X59.463 Y56.913 E3.59136 ; perimeter
;WIDTH:0.372172
G1 X59.801 Y56.863 E3.60101 ; perimeter
;WIDTH:0.401666
G1 X60.639 Y56.586 E3.62819 ; perimeter
;WIDTH:0.419999
G1 X61.063 Y56.285 E3.64503 ; perimeter
G1 X61.504 Y55.714 E3.6684 ; perimeter
G1 X61.66 Y55.406 E3.67958 ; perimeter
G1 X62.006 Y54.59 E3.70829 ; perimeter
G1 X62.476 Y53.33 E3.75185 ; perimeter
;WIDTH:0.452464
G1 X62.619 Y52.979 E3.7652 ; perimeter
;WIDTH:0.484928
G1 X62.762 Y52.628 E3.77962 ; perimeter
G1 X62.761 Y52.782 E3.78548 ; perimeter
;WIDTH:0.459477
G1 X62.84 Y53.326 E3.80517 ; perimeter
;WIDTH:0.419999
G1 X63.062 Y53.848 E3.82354 ; perimeter
G1 X63.357 Y54.136 E3.83689 ; perimeter
G1 X63.769 Y54.364 E3.85214 ; perimeter
G1 X64.093 Y54.415 E3.86276 ; perimeter
G1 X65.375 Y54.404 E3.90429 ; perimeter
G1 X64.862 Y54.801 E3.9253 ; perimeter
G1 X64.377 Y55.144 E3.94454 ; perimeter
G1 X63.887 Y55.458 E3.96339 ; perimeter
G1 X63.353 Y55.768 E3.98339 ; perimeter
G1 X62.908 Y55.999 E3.99963 ; perimeter
G1 X62.06 Y56.395 E4.02995 ; perimeter
G1 X60.813 Y56.871 E4.07319 ; perimeter
;WIDTH:0.410202
G1 X60.563 Y56.956 E4.08152 ; perimeter
;WIDTH:0.382421
G1 X60.313 Y57.04 E4.0892 ; perimeter
;WIDTH:0.372172
G1 X59.486 Y57.234 E4.11319 ; perimeter
;WIDTH:0.419999
G1 X58.14 Y57.436 E4.15728 ; perimeter
G1 X57.28 Y57.506 E4.18523 ; perimeter
G1 X56.365 Y57.521 E4.21487 ; perimeter
G1 X55.726 Y57.496 E4.23558 ; perimeter
G1 X32.507 Y56.084 E4.98908 ; perimeter
G1 X32.078 Y55.999 E5.00325 ; perimeter
G1 X31.821 Y55.826 E5.01329 ; perimeter
G1 X31.7 Y55.615 E5.02117 ; perimeter
G1 X31.612 Y55.194 E5.0351 ; perimeter
G1 X31.612 Y53.31 E5.09613 ; perimeter
G1 X32.243 Y53.844 E5.12291 ; perimeter
G1 X33.062 Y54.229 E5.15222 ; perimeter
G1 X33.765 Y54.363 E5.1754 ; perimeter
G1 X34.535 Y54.36 E5.20034 ; perimeter
G1 X34.775 Y54.328 E5.20818 ; perimeter
G1 X35.372 Y54.166 E5.22822 ; perimeter
G1 X35.626 Y54.054 E5.23721 ; perimeter
G1 X36.01 Y53.811 E5.25193 ; perimeter
G1 X36.366 Y53.48 E5.26768 ; perimeter
G1 X36.664 Y53.035 E5.28503 ; perimeter
G1 X36.796 Y52.696 E5.29681 ; perimeter
G1 X36.856 Y52.297 E5.30988 ; perimeter
G1 X36.758 Y51.889 E5.32347 ; perimeter
G1 X36.54 Y51.52 E5.33735 ; perimeter
G1 X36.234 Y51.233 E5.35094 ; perimeter
G1 X35.83 Y51.04 E5.36544 ; perimeter
G1 X35.476 Y50.977 E5.37709 ; perimeter
G1 X35.132 Y50.995 E5.38825 ; perimeter
G1 E3.38825 F2400 ; retract
