; generated by PrusaSlicer 2.6.1+MacOS-arm64 on 2023-11-10 at 13:01:36 UTC

; 

; external perimeters extrusion width = 0.45mm
; perimeters extrusion width = 0.45mm
; infill extrusion width = 0.45mm
; solid infill extrusion width = 0.45mm
; top infill extrusion width = 0.40mm
; first layer extrusion width = 0.42mm

M190 S60 ; set bed temperature and wait for it to be reached
M104 S235 ; set temperature
;TYPE:Custom
G28 ; home all axes
G29 ; mesh bed leveling
G1 Z5 F5000 ; lift nozzle
M109 S235 ; set temperature and wait for it to be reached
G21 ; set units to millimeters
G90 ; use absolute coordinates
M82 ; use absolute distances for extrusion
G92 E0
; Filament gcode
M107
;LAYER_CHANGE
;Z:0.35
;HEIGHT:0.35
G1 Z.35 F7800
G1 E-2 F2400
G92 E0
G1 X37.94 Y42.883 F7800
G1 E2 F2400
;TYPE:Skirt/Brim
;WIDTH:0.42
G1 F1800
G1 X38.731 Y42.182 E2.05304
G1 X40.633 Y40.808 E2.1708
G1 X42.57 Y39.69 E2.28304
G1 X44.45 Y38.833 E2.38673
G1 X46.564 Y38.105 E2.49894
G1 X48.574 Y37.622 E2.60269
G1 X50.898 Y37.302 E2.72042
G1 X53.133 Y37.223 E2.83266
G1 X55.195 Y37.35 E2.93634
G1 X57.404 Y37.699 E3.04858
G1 X59.672 Y38.301 E3.16634
G1 X61.607 Y39.025 E3.27002
G1 X63.617 Y40.005 E3.38224
G1 X65.379 Y41.085 E3.48596
G1 X67.165 Y42.43 E3.59817
G1 X68.885 Y44.027 E3.71596
G1 X70.254 Y45.574 E3.81963
G1 X71.569 Y47.383 E3.93187
G1 X72.617 Y49.164 E4.03558
G1 X73.604 Y51.293 E4.15335
G1 X74.332 Y53.407 E4.26556
G1 X74.814 Y55.416 E4.36924
G1 X75.125 Y57.631 E4.48149
G1 X75.213 Y59.976 E4.59926
G1 X75.087 Y62.038 E4.70294
G1 X74.737 Y64.247 E4.81518
G1 X74.22 Y66.247 E4.91885
G1 X73.412 Y68.45 E5.03661
G1 X72.431 Y70.46 E5.14886
G1 X71.193 Y72.453 E5.26661
G1 X69.935 Y74.092 E5.3703
G1 X68.41 Y75.728 E5.48254
G1 X66.643 Y77.272 E5.6003
G1 X64.96 Y78.472 E5.70403
G1 X63.024 Y79.59 E5.81623
G1 X61.144 Y80.447 E5.91992
G1 X59.029 Y81.175 E6.03218
G1 X57.02 Y81.657 E6.13586
G1 X54.806 Y81.968 E6.24806
G1 X52.461 Y82.056 E6.36583
G1 X50.398 Y81.93 E6.46956
G1 X48.19 Y81.58 E6.58175
G1 X46.189 Y81.063 E6.68547
G1 X43.986 Y80.255 E6.80323
G1 X41.977 Y79.274 E6.91543
G1 X40.215 Y78.195 E7.01912
G1 X38.344 Y76.778 E7.13691
G1 X36.709 Y75.253 E7.24912
G1 X35.339 Y73.705 E7.35286
G1 X34.025 Y71.896 E7.46507
G1 X32.847 Y69.867 E7.58281
G1 X31.99 Y67.987 E7.6865
G1 X31.262 Y65.872 E7.79876
G1 X30.78 Y63.863 E7.90244
G1 X30.468 Y61.649 E8.01465
G1 X30.381 Y59.304 E8.13242
G1 X30.507 Y57.241 E8.23615
G1 X30.857 Y55.033 E8.34834
G1 X31.458 Y52.765 E8.46609
G1 X32.182 Y50.829 E8.56982
G1 X33.162 Y48.819 E8.68204
G1 X34.242 Y47.057 E8.78576
G1 X35.588 Y45.272 E8.89796
G1 X37.184 Y43.552 E9.01572
G1 X37.895 Y42.923 E9.06336
G1 E7.06336 F2400
G92 E0
G1 X67.958 Y60.143 F7800
G1 E2 F2400
;TYPE:Perimeter
;WIDTH:0.42
G1 F1800
G1 X67.911 Y60.983 E2.04222
G1 X67.823 Y61.751 E2.08101
G1 X67.692 Y62.535 E2.1209
G1 X67.52 Y63.311 E2.16079
G1 X67.308 Y64.076 E2.20063
G1 X67.056 Y64.829 E2.24048
G1 X66.765 Y65.569 E2.28039
G1 X66.435 Y66.291 E2.32023
G1 X66.068 Y66.996 E2.36012
G1 X65.663 Y67.684 E2.40019
G1 X65.075 Y68.556 E2.45297
G1 X64.589 Y69.189 E2.49302
G1 X64.073 Y69.793 E2.53289
G1 X63.526 Y70.369 E2.57275
G1 X62.948 Y70.918 E2.61276
G1 X62.534 Y71.277 E2.64026
G1 X61.929 Y71.758 E2.67905
G1 X61.282 Y72.219 E2.71892
G1 X60.612 Y72.646 E2.75879
G1 X59.921 Y73.037 E2.79864
G1 X59.207 Y73.393 E2.83868
G1 X58.706 Y73.616 E2.8662
G1 X57.987 Y73.898 E2.90496
G1 X57.233 Y74.151 E2.94487
G1 X56.468 Y74.363 E2.98471
G1 X55.688 Y74.536 E3.02481
G1 X55.174 Y74.626 E3.051
G1 X54.383 Y74.73 E3.09104
G1 X53.591 Y74.793 E3.13091
G1 X52.797 Y74.814 E3.17077
G1 X51.999 Y74.793 E3.21083
G1 X51.453 Y74.754 E3.2383
G1 X50.685 Y74.666 E3.27709
G1 X49.902 Y74.535 E3.31693
G1 X49.126 Y74.363 E3.35682
G1 X48.36 Y74.151 E3.39671
G1 X47.603 Y73.897 E3.43678
G1 X47.116 Y73.71 E3.46296
G1 X46.384 Y73.392 E3.50301
G1 X45.673 Y73.037 E3.54289
G1 X44.982 Y72.646 E3.58274
G1 X44.312 Y72.219 E3.62261
G1 X43.662 Y71.756 E3.66266
G1 X43.231 Y71.419 E3.69012
G1 X42.644 Y70.916 E3.72892
G1 X42.064 Y70.367 E3.769
G1 X41.702 Y69.991 E3.79519
G1 X41.173 Y69.393 E3.83526
G1 X40.678 Y68.772 E3.87511
G1 X40.217 Y68.125 E3.91498
G1 X39.79 Y67.455 E3.95485
G1 X39.399 Y66.763 E3.99474
G1 X39.043 Y66.049 E4.03478
G1 X38.821 Y65.549 E4.06224
G1 X38.538 Y64.83 E4.10102
G1 X38.286 Y64.076 E4.14092
G1 X38.074 Y63.311 E4.18076
G1 X37.902 Y62.535 E4.22065
G1 X37.771 Y61.751 E4.26054
G1 X37.681 Y60.962 E4.30039
G1 X37.632 Y60.165 E4.34046
G1 X37.623 Y59.644 E4.36661
G1 X37.644 Y58.842 E4.40687
G1 X37.683 Y58.296 E4.43434
G1 X37.771 Y57.528 E4.47313
G1 X37.902 Y56.744 E4.51302
G1 X38.074 Y55.969 E4.55286
G1 X38.286 Y55.203 E4.59275
G1 X38.538 Y54.45 E4.6326
G1 X38.831 Y53.707 E4.67268
G1 X39.043 Y53.23 E4.69888
G1 X39.399 Y52.516 E4.73892
G1 X39.79 Y51.825 E4.77877
G1 X40.217 Y51.155 E4.81864
G1 X40.68 Y50.505 E4.85869
G1 X41.018 Y50.074 E4.88618
G1 X41.52 Y49.487 E4.92494
G1 X42.067 Y48.91 E4.96484
G1 X42.644 Y48.363 E5.00474
G1 X43.248 Y47.847 E5.04461
G1 X43.881 Y47.362 E5.08463
G1 X44.329 Y47.048 E5.11209
G1 X44.981 Y46.633 E5.15088
G1 X45.673 Y46.242 E5.19077
G1 X46.384 Y45.887 E5.23065
G1 X47.116 Y45.569 E5.2707
G1 X47.627 Y45.374 E5.29815
G1 X48.36 Y45.129 E5.33694
G1 X49.126 Y44.917 E5.37683
G1 X49.902 Y44.745 E5.41672
G1 X50.685 Y44.613 E5.45657
G1 X51.474 Y44.524 E5.49642
G1 X52.271 Y44.475 E5.53649
G1 X52.818 Y44.466 E5.56395
G1 X53.591 Y44.487 E5.60276
G1 X54.383 Y44.549 E5.64263
G1 X55.171 Y44.653 E5.68252
G1 X55.952 Y44.797 E5.72238
G1 X56.727 Y44.984 E5.76239
G1 X57.253 Y45.135 E5.78985
G1 X57.986 Y45.381 E5.82865
G1 X58.726 Y45.672 E5.86856
G1 X59.452 Y46.003 E5.9086
G1 X59.917 Y46.24 E5.93479
G1 X60.612 Y46.633 E5.97486
G1 X61.282 Y47.06 E6.01473
G1 X61.932 Y47.524 E6.05481
G1 X62.343 Y47.845 E6.08098
G1 X62.95 Y48.363 E6.12103
G1 X63.526 Y48.91 E6.16089
G1 X64.076 Y49.489 E6.20097
G1 X64.434 Y49.902 E6.2284
G1 X64.915 Y50.508 E6.26723
G1 X65.379 Y51.158 E6.30731
G1 X65.663 Y51.595 E6.33347
G1 X66.068 Y52.283 E6.37354
G1 X66.435 Y52.988 E6.41343
G1 X66.765 Y53.711 E6.45332
G1 X67.056 Y54.45 E6.49318
G1 X67.308 Y55.203 E6.53303
G1 X67.52 Y55.969 E6.57292
G1 X67.692 Y56.744 E6.61276
G1 X67.823 Y57.528 E6.65265
G1 X67.932 Y58.581 E6.70578
G1 X67.96 Y59.243 E6.73903
G1 X67.959 Y60.083 E6.78119
G1 X68.302 Y60.152 F7800
G1 F1800
G1 X68.255 Y61.015 E6.82456
G1 X68.165 Y61.799 E6.86416
G1 X68.031 Y62.601 E6.90497
G1 X67.855 Y63.394 E6.94574
G1 X67.638 Y64.177 E6.98652
G1 X67.38 Y64.947 E7.02727
G1 X67.082 Y65.703 E7.06805
G1 X66.745 Y66.443 E7.10886
G1 X66.37 Y67.163 E7.1496
G1 X65.956 Y67.866 E7.19054
G1 X65.353 Y68.76 E7.24466
G1 X64.857 Y69.406 E7.28553
G1 X64.33 Y70.024 E7.32629
G1 X63.77 Y70.613 E7.36708
G1 X63.18 Y71.174 E7.40794
G1 X62.755 Y71.543 E7.43619
G1 X62.137 Y72.034 E7.4758
G1 X61.475 Y72.505 E7.51657
G1 X60.79 Y72.942 E7.55735
G1 X60.083 Y73.342 E7.59812
G1 X59.354 Y73.706 E7.63901
G1 X58.839 Y73.934 E7.66728
G1 X58.105 Y74.223 E7.70687
G1 X57.334 Y74.481 E7.74767
G1 X56.551 Y74.698 E7.78845
G1 X55.756 Y74.874 E7.82931
G1 X55.227 Y74.967 E7.85627
G1 X54.419 Y75.074 E7.89717
G1 X53.609 Y75.137 E7.93794
G1 X52.797 Y75.159 E7.97871
G1 X51.983 Y75.137 E8.01958
G1 X51.421 Y75.097 E8.04786
G1 X50.637 Y75.008 E8.08746
G1 X49.836 Y74.873 E8.12823
G1 X49.042 Y74.698 E8.16903
G1 X48.26 Y74.481 E8.20976
G1 X47.487 Y74.222 E8.25067
G1 X46.986 Y74.03 E8.2776
G1 X46.238 Y73.705 E8.31853
G1 X45.511 Y73.342 E8.35931
G1 X44.804 Y72.942 E8.40008
G1 X44.119 Y72.505 E8.44086
G1 X43.456 Y72.032 E8.48173
G1 X43.013 Y71.686 E8.50994
G1 X42.413 Y71.173 E8.54956
G1 X41.822 Y70.612 E8.59045
G1 X41.449 Y70.225 E8.61742
G1 X40.909 Y69.615 E8.65831
G1 X40.403 Y68.979 E8.6991
G1 X39.931 Y68.318 E8.73986
G1 X39.495 Y67.633 E8.78061
G1 X39.094 Y66.925 E8.82144
G1 X38.731 Y66.196 E8.86231
G1 X38.503 Y65.682 E8.89053
G1 X38.214 Y64.948 E8.93012
G1 X37.956 Y64.177 E8.97092
G1 X37.739 Y63.394 E9.0117
G1 X37.563 Y62.601 E9.05247
G1 X37.429 Y61.8 E9.09323
G1 X37.337 Y60.992 E9.13404
G1 X37.287 Y60.179 E9.17492
G1 X37.278 Y59.642 E9.20187
G1 X37.299 Y58.825 E9.24289
G1 X37.339 Y58.264 E9.27112
G1 X37.429 Y57.48 E9.31072
G1 X37.563 Y56.678 E9.35153
G1 X37.739 Y55.885 E9.3923
G1 X37.956 Y55.102 E9.43308
G1 X38.214 Y54.332 E9.47383
G1 X38.512 Y53.574 E9.51471
G1 X38.731 Y53.083 E9.54169
G1 X39.094 Y52.354 E9.58256
G1 X39.495 Y51.647 E9.62335
G1 X39.931 Y50.962 E9.6641
G1 X40.404 Y50.298 E9.70501
G1 X40.751 Y49.856 E9.73321
G1 X41.264 Y49.256 E9.77283
G1 X41.823 Y48.666 E9.81362
G1 X42.413 Y48.107 E9.85441
G1 X43.03 Y47.579 E9.89516
G1 X43.677 Y47.083 E9.93607
G1 X44.138 Y46.761 E9.96429
G1 X44.804 Y46.337 E10.00391
G1 X45.511 Y45.937 E10.04468
G1 X46.238 Y45.575 E10.08544
G1 X46.985 Y45.25 E10.12632
G1 X47.511 Y45.049 E10.15458
G1 X48.259 Y44.799 E10.19416
G1 X49.042 Y44.582 E10.23494
G1 X49.836 Y44.406 E10.27575
G1 X50.637 Y44.272 E10.31651
G1 X51.444 Y44.18 E10.35727
G1 X52.257 Y44.13 E10.39815
G1 X52.82 Y44.121 E10.42641
G1 X53.609 Y44.142 E10.46602
G1 X54.419 Y44.206 E10.5068
G1 X55.225 Y44.312 E10.5476
G1 X56.023 Y44.46 E10.58833
G1 X56.815 Y44.65 E10.6292
G1 X57.356 Y44.806 E10.65746
G1 X58.104 Y45.057 E10.69706
G1 X58.861 Y45.354 E10.73787
G1 X59.602 Y45.692 E10.77874
G1 X60.08 Y45.936 E10.80567
G1 X60.79 Y46.337 E10.84659
G1 X61.475 Y46.774 E10.88737
G1 X62.138 Y47.247 E10.92824
G1 X62.561 Y47.578 E10.9552
G1 X63.181 Y48.107 E10.9961
G1 X63.77 Y48.666 E11.03685
G1 X64.331 Y49.257 E11.07774
G1 X64.7 Y49.682 E11.10599
G1 X65.191 Y50.3 E11.1456
G1 X65.664 Y50.964 E11.18651
G1 X65.956 Y51.414 E11.21343
G1 X66.37 Y52.116 E11.25433
G1 X66.745 Y52.837 E11.29512
G1 X67.082 Y53.576 E11.33588
G1 X67.38 Y54.332 E11.37666
G1 X67.638 Y55.102 E11.41741
G1 X67.855 Y55.885 E11.45819
G1 X68.031 Y56.679 E11.499
G1 X68.165 Y57.48 E11.53976
G1 X68.276 Y58.557 E11.5941
G1 X68.305 Y59.234 E11.62811
G1 X68.304 Y60.092 E11.67117
G1 X68.647 Y60.161 F7800
;TYPE:External perimeter
G1 F1800
G1 X68.598 Y61.047 E11.7157
G1 X68.506 Y61.847 E11.75611
G1 X68.369 Y62.667 E11.79783
G1 X68.19 Y63.478 E11.83951
G1 X67.968 Y64.278 E11.88118
G1 X67.704 Y65.065 E11.92284
G1 X67.4 Y65.838 E11.96453
G1 X67.055 Y66.594 E12.00623
G1 X66.672 Y67.331 E12.04791
G1 X66.25 Y68.047 E12.08962
G1 X65.632 Y68.964 E12.14512
G1 X65.125 Y69.623 E12.18685
G1 X64.586 Y70.255 E12.22854
G1 X64.014 Y70.857 E12.27022
G1 X63.411 Y71.429 E12.31193
G1 X62.975 Y71.808 E12.34092
G1 X62.344 Y72.309 E12.38136
G1 X61.668 Y72.791 E12.42303
G1 X60.967 Y73.238 E12.46475
G1 X60.244 Y73.647 E12.50644
G1 X59.501 Y74.018 E12.54812
G1 X58.973 Y74.252 E12.5771
G1 X58.223 Y74.547 E12.61755
G1 X57.435 Y74.81 E12.65924
G1 X56.635 Y75.032 E12.70091
G1 X55.823 Y75.212 E12.74265
G1 X55.279 Y75.308 E12.77037
G1 X54.455 Y75.417 E12.81208
G1 X53.627 Y75.482 E12.85376
G1 X52.797 Y75.504 E12.89543
G1 X51.966 Y75.482 E12.93715
G1 X51.39 Y75.441 E12.96613
G1 X50.589 Y75.349 E13.00659
G1 X49.77 Y75.212 E13.04826
G1 X48.959 Y75.032 E13.08995
G1 X48.159 Y74.81 E13.13162
G1 X47.37 Y74.547 E13.17336
G1 X46.855 Y74.349 E13.20105
G1 X46.092 Y74.017 E13.24281
G1 X45.349 Y73.647 E13.28447
G1 X44.626 Y73.238 E13.32616
G1 X43.926 Y72.791 E13.36784
G1 X43.249 Y72.309 E13.40955
G1 X42.794 Y71.953 E13.43854
G1 X42.182 Y71.429 E13.47897
G1 X41.579 Y70.857 E13.52068
G1 X41.195 Y70.459 E13.54844
G1 X40.644 Y69.837 E13.59014
G1 X40.127 Y69.187 E13.63182
G1 X39.645 Y68.511 E13.67349
G1 X39.199 Y67.81 E13.71519
G1 X38.79 Y67.087 E13.75688
G1 X38.419 Y66.343 E13.7986
G1 X38.185 Y65.815 E13.82758
G1 X37.89 Y65.066 E13.86798
G1 X37.626 Y64.278 E13.90969
G1 X37.404 Y63.478 E13.95136
G1 X37.224 Y62.667 E13.99305
G1 X37.087 Y61.848 E14.03472
G1 X36.993 Y61.022 E14.07644
G1 X36.943 Y60.192 E14.11817
G1 X36.933 Y59.641 E14.14583
G1 X36.955 Y58.809 E14.1876
G1 X36.996 Y58.232 E14.21663
G1 X37.087 Y57.432 E14.25704
G1 X37.224 Y56.613 E14.29871
G1 X37.404 Y55.802 E14.3404
G1 X37.626 Y55.002 E14.38207
G1 X37.89 Y54.214 E14.42378
G1 X38.194 Y53.44 E14.46551
G1 X38.419 Y52.936 E14.49321
G1 X38.79 Y52.192 E14.53493
G1 X39.199 Y51.469 E14.57662
G1 X39.645 Y50.769 E14.61827
G1 X40.128 Y50.092 E14.66001
G1 X40.484 Y49.637 E14.689
G1 X41.008 Y49.025 E14.72943
G1 X41.579 Y48.422 E14.77111
G1 X42.182 Y47.85 E14.81282
G1 X42.813 Y47.311 E14.85447
G1 X43.473 Y46.805 E14.89621
G1 X43.946 Y46.474 E14.92518
G1 X44.626 Y46.042 E14.96561
G1 X45.349 Y45.633 E15.0073
G1 X46.092 Y45.262 E15.04898
G1 X46.855 Y44.931 E15.09072
G1 X47.394 Y44.724 E15.1197
G1 X48.159 Y44.469 E15.16017
G1 X48.959 Y44.247 E15.20184
G1 X49.77 Y44.067 E15.24353
G1 X50.589 Y43.93 E15.2852
G1 X51.414 Y43.836 E15.32687
G1 X52.244 Y43.785 E15.3686
G1 X52.822 Y43.776 E15.39761
G1 X53.627 Y43.797 E15.43802
G1 X54.455 Y43.863 E15.47971
G1 X55.279 Y43.971 E15.52142
G1 X56.095 Y44.122 E15.56307
G1 X56.904 Y44.316 E15.60482
G1 X57.459 Y44.476 E15.63381
G1 X58.223 Y44.732 E15.67425
G1 X58.995 Y45.037 E15.71591
G1 X59.752 Y45.382 E15.75766
G1 X60.244 Y45.632 E15.78536
G1 X60.967 Y46.042 E15.82707
G1 X61.668 Y46.488 E15.86877
G1 X62.345 Y46.971 E15.91051
G1 X62.78 Y47.311 E15.93822
G1 X63.412 Y47.85 E15.97991
G1 X64.014 Y48.422 E16.02159
G1 X64.587 Y49.025 E16.06334
G1 X64.965 Y49.462 E16.09234
G1 X65.466 Y50.092 E16.13274
G1 X65.949 Y50.769 E16.17448
G1 X66.25 Y51.232 E16.20219
G1 X66.672 Y51.949 E16.24394
G1 X67.055 Y52.685 E16.28558
G1 X67.4 Y53.441 E16.32728
G1 X67.704 Y54.214 E16.36897
G1 X67.968 Y55.002 E16.41068
G1 X68.19 Y55.802 E16.45235
G1 X68.369 Y56.613 E16.49403
G1 X68.506 Y57.432 E16.5357
G1 X68.62 Y58.533 E16.59125
G1 X68.65 Y59.225 E16.62601
G1 X68.649 Y60.101 E16.66997
G1 X68.295 Y60.35 F7800
G1 E14.66997 F2400
G92 E0
G1 X64.866 Y50.617 F7800
G1 E2 F2400
;TYPE:Solid infill
;WIDTH:0.421955
G1 F1800
G1 X63.317 Y49.068 E2.11056
G1 X62.777 Y48.556 E2.14812
G1 X62.179 Y48.045 E2.18782
G1 X61.777 Y47.731 E2.21356
G1 X60.85 Y47.091 E2.27041
G1 X65.356 Y51.598 E2.59207
G1 X65.842 Y52.409 E2.63979
G1 X66.021 Y52.753 E2.65936
G1 X59.675 Y46.407 E3.11231
G1 X58.74 Y45.963 E3.16455
G1 X66.474 Y53.696 E3.71654
G1 X66.804 Y54.517 E3.7612
G1 X57.919 Y45.632 E4.39537
G1 X57.18 Y45.383 E4.43473
G1 X67.053 Y55.256 E5.13942
G1 X67.243 Y55.937 E5.1751
G1 X56.501 Y45.195 E5.94182
G1 X55.859 Y45.043 E5.97512
G1 X67.389 Y56.574 E6.79812
G1 X67.502 Y57.177 E6.82908
G1 X55.257 Y44.932 E7.70308
G1 X54.684 Y44.849 E7.7323
G1 X67.589 Y57.754 E8.65341
G1 X67.652 Y58.308 E8.68155
G1 X54.133 Y44.789 E9.64648
G1 X53.6 Y44.747 E9.67346
G1 X67.69 Y58.837 E10.67915
G1 X67.704 Y59.341 E10.7046
G1 X53.095 Y44.732 E11.74733
G1 X52.605 Y44.733 E11.77206
G1 X67.707 Y59.835 E12.84998
G1 X67.694 Y60.313 E12.87411
G1 X52.125 Y44.743 E13.9854
G1 X51.662 Y44.771 E14.00881
G1 X67.667 Y60.775 E15.15114
G1 X67.623 Y61.222 E15.17381
G1 X51.214 Y44.813 E16.34502
G1 X50.774 Y44.864 E16.36738
G1 X67.573 Y61.663 E17.56642
G1 X67.505 Y62.085 E17.58799
G1 X50.351 Y44.932 E18.81234
G1 X49.932 Y45.003 E18.83379
G1 X67.434 Y62.504 E20.08297
G1 X67.345 Y62.906 E20.10375
G1 X49.531 Y45.092 E21.37524
G1 X49.132 Y45.183 E21.39589
G1 X67.253 Y63.305 E22.68933
G1 X67.147 Y63.689 E22.70944
G1 X48.748 Y45.29 E24.02268
G1 X48.367 Y45.399 E24.04268
G1 X67.037 Y64.07 E25.3753
G1 X66.914 Y64.437 E25.39484
G1 X47.999 Y45.522 E26.74491
G1 X47.634 Y45.648 E26.7644
G1 X66.788 Y64.802 E28.13153
G1 X66.65 Y65.154 E28.15061
G1 X47.279 Y45.784 E29.5332
G1 X46.935 Y45.93 E29.55206
G1 X66.51 Y65.504 E30.94921
G1 X66.356 Y65.841 E30.96791
G1 X46.593 Y46.079 E32.37848
G1 X46.262 Y46.237 E32.39699
G1 X66.202 Y66.178 E33.82026
G1 X66.034 Y66.501 E33.83864
G1 X45.934 Y46.401 E35.27329
G1 X45.615 Y46.572 E35.29156
G1 X65.867 Y66.823 E36.73703
G1 X65.687 Y67.134 E36.75517
G1 X45.302 Y46.749 E38.21017
G1 X44.994 Y46.932 E38.22825
G1 X65.505 Y67.443 E39.69224
G1 X65.316 Y67.744 E39.71018
G1 X44.694 Y47.123 E41.18206
G1 X44.397 Y47.316 E41.19994
G1 X65.121 Y68.04 E42.67913
G1 X64.919 Y68.328 E42.69688
G1 X44.109 Y47.518 E44.18221
G1 X44.033 Y47.57 E44.18686
G1 X43.828 Y47.728 E44.19992
G1 X64.709 Y68.608 E45.69028
G1 X64.496 Y68.886 E45.70796
G1 X43.551 Y47.941 E47.20293
G1 X43.279 Y48.16 E47.22055
G1 X64.276 Y69.157 E48.71923
